<?xml version="1.0" encoding="UTF-8"?>
<map version="1.10" tiledversion="1.11.2" orientation="orthogonal" renderorder="right-down" width="320" height="192" tilewidth="16" tileheight="16" infinite="1" nextlayerid="2" nextobjectid="1">
 <tileset firstgid="1" source="../Art/Tileset/PixapirateTileset.tsx"/>
 <tileset firstgid="97" source="../../../../pythonprojects/Pixapirate/Art/Tileset/PixapirateTileset.tsx"/>
 <layer id="1" name="Tile Layer 1" width="320" height="192">
  <data encoding="csv">
   <chunk x="0" y="0" width="16" height="16">
52,52,52,52,52,52,52,52,52,52,52,52,52,52,52,52,
52,52,52,52,52,52,52,52,52,52,52,52,52,52,52,52,
52,52,52,52,52,53,53,53,53,53,53,53,53,53,53,53,
52,52,52,52,52,53,53,53,53,53,53,53,53,53,53,53,
52,52,52,52,52,53,53,53,53,53,53,53,53,53,53,53,
52,52,52,52,52,53,53,53,53,53,53,53,53,53,53,53,
52,52,52,52,52,53,53,53,53,53,53,53,53,53,53,53,
52,52,52,52,52,53,53,53,53,53,53,53,53,53,53,53,
52,52,52,52,52,53,53,53,53,53,53,53,53,53,53,53,
52,52,52,52,52,53,53,53,53,53,53,53,53,53,53,53,
52,52,52,52,52,53,53,53,53,53,53,53,53,53,53,53,
52,52,52,52,52,53,53,53,53,53,53,53,53,53,53,53,
52,52,52,52,52,53,53,53,53,53,53,53,53,53,53,53,
52,52,52,52,52,53,53,53,53,53,53,53,53,53,53,53,
52,52,52,52,52,53,53,53,53,53,53,53,53,53,53,53,
52,52,52,52,52,53,53,53,53,53,53,53,53,53,53,53
</chunk>
   <chunk x="16" y="0" width="16" height="16">
52,52,52,52,52,52,52,52,52,52,52,52,52,52,52,52,
52,52,52,52,52,52,52,52,52,52,52,52,52,52,52,52,
53,53,52,52,52,52,52,52,52,52,52,52,52,52,52,52,
53,53,52,52,52,52,52,52,52,52,52,52,52,52,52,53,
53,53,52,52,52,52,52,52,52,52,52,52,52,52,52,53,
53,53,52,52,52,52,52,52,52,52,52,52,52,52,52,53,
53,53,52,52,52,52,52,52,52,52,52,52,52,52,52,53,
53,53,52,52,52,52,52,52,52,52,52,52,52,52,52,53,
53,53,52,52,52,52,52,52,52,52,52,52,52,52,52,53,
53,53,52,52,52,52,52,52,52,52,52,52,52,52,52,53,
53,53,52,52,52,52,52,52,52,52,52,52,52,52,52,53,
53,53,52,52,52,52,52,52,52,52,52,52,52,52,52,53,
53,53,52,52,52,52,52,52,52,52,52,52,52,52,52,53,
53,53,52,52,52,52,52,52,52,52,52,52,52,52,52,53,
53,53,52,52,52,52,52,52,52,52,52,52,52,52,52,53,
53,53,52,52,52,52,52,52,52,52,52,52,52,52,52,53
</chunk>
   <chunk x="32" y="0" width="16" height="16">
52,52,52,52,52,52,52,52,52,52,52,52,52,52,52,52,
52,52,52,52,52,52,52,52,52,52,52,52,52,52,52,52,
52,52,52,52,52,52,52,52,52,52,52,52,52,52,52,52,
53,53,53,53,53,53,53,53,53,53,53,53,52,52,52,52,
53,53,53,53,53,53,53,53,53,53,53,53,52,52,52,52,
53,53,53,53,53,53,53,53,53,53,53,53,52,52,52,52,
53,53,53,53,53,53,53,53,53,53,53,53,52,52,52,52,
53,53,53,53,53,53,53,53,53,53,53,53,52,52,52,52,
53,53,53,53,53,53,53,53,53,53,53,53,52,52,52,52,
53,53,53,53,53,53,53,53,53,53,53,53,52,52,52,52,
53,53,53,53,53,53,53,53,53,53,53,53,52,52,52,52,
53,53,53,53,53,53,53,53,53,53,53,53,52,52,52,52,
53,53,53,53,53,53,53,53,53,53,53,53,52,52,52,52,
53,53,53,53,53,53,53,53,53,53,53,53,52,52,52,52,
53,53,53,53,53,53,53,53,53,53,53,53,52,52,52,52,
53,53,53,53,53,53,53,53,53,53,53,53,52,52,52,52
</chunk>
   <chunk x="48" y="0" width="16" height="16">
52,52,52,52,52,52,52,52,52,52,52,52,52,52,52,52,
52,52,52,52,52,52,52,52,52,52,52,52,52,52,52,52,
52,52,52,52,52,52,52,52,52,52,52,52,52,52,52,52,
52,52,52,52,52,52,52,52,52,52,52,52,52,52,52,52,
52,52,52,52,52,52,52,52,52,52,52,52,52,52,52,52,
52,52,52,52,52,52,52,52,52,53,53,53,53,53,53,53,
52,52,52,52,52,52,52,52,52,53,53,53,53,53,53,53,
52,52,52,52,52,52,52,52,52,53,53,53,53,53,53,53,
52,52,52,52,52,52,52,52,52,53,53,53,53,53,53,53,
52,52,52,52,52,52,52,52,52,53,53,53,53,53,53,53,
52,52,52,52,52,52,52,52,52,53,53,53,53,53,53,53,
52,52,52,52,52,52,52,52,52,53,53,53,53,53,53,53,
52,52,52,52,52,52,52,52,52,53,53,53,53,53,53,53,
52,52,52,52,52,52,52,52,52,53,53,53,53,53,53,53,
52,52,52,52,52,52,52,52,52,53,53,53,53,53,53,53,
52,52,52,52,52,52,52,52,52,53,53,53,53,53,53,53
</chunk>
   <chunk x="64" y="0" width="16" height="16">
52,52,52,52,52,52,52,52,52,52,52,52,52,52,52,52,
52,52,52,52,52,52,52,52,52,52,52,52,52,52,52,52,
52,52,52,52,52,52,52,52,52,52,52,52,52,52,52,52,
52,52,52,52,52,52,52,52,52,52,52,52,52,52,52,52,
52,52,52,52,52,52,52,52,52,52,52,52,52,52,52,52,
53,53,53,53,53,53,53,53,53,53,52,52,52,52,52,52,
53,53,53,53,53,53,53,53,53,53,52,52,52,52,52,52,
53,53,53,53,53,53,53,53,53,53,52,52,52,52,52,52,
53,53,53,53,53,53,53,53,53,53,52,52,52,52,52,52,
53,53,53,53,53,53,53,53,53,53,52,52,52,52,52,52,
53,53,53,53,53,53,53,53,53,53,52,52,52,52,52,52,
53,53,53,53,53,53,53,53,53,53,52,52,52,52,52,52,
53,53,53,53,53,53,53,53,53,53,52,52,52,52,52,52,
53,53,53,53,53,53,53,53,53,53,52,52,52,52,52,52,
53,53,53,53,53,53,53,53,53,53,52,52,52,52,52,52,
53,53,53,53,53,53,53,53,53,53,52,52,52,52,52,52
</chunk>
   <chunk x="80" y="0" width="16" height="16">
52,52,52,52,52,52,52,52,52,52,52,52,52,52,52,52,
52,52,52,52,52,52,52,52,52,52,52,52,52,52,52,52,
52,52,52,52,52,52,52,52,52,52,52,52,52,52,52,52,
52,52,52,52,52,52,52,52,52,52,52,52,52,52,52,52,
52,52,52,52,52,52,52,52,52,52,52,52,52,52,52,52,
52,52,52,52,52,52,52,52,52,52,52,52,52,52,52,52,
52,52,52,52,52,52,52,52,52,52,52,53,53,53,53,53,
52,52,52,52,52,52,52,52,52,52,52,53,53,53,53,53,
52,52,52,52,52,52,52,52,52,52,52,53,53,53,53,53,
52,52,52,52,52,52,52,52,52,52,52,53,53,53,53,53,
52,52,52,52,52,52,52,52,52,52,52,53,53,53,53,53,
52,52,52,52,52,52,52,52,52,52,52,53,53,53,53,53,
52,52,52,52,52,52,52,52,52,52,52,53,53,53,53,53,
52,52,52,52,52,52,52,52,52,52,52,53,53,53,53,53,
52,52,52,52,52,52,52,52,52,52,52,53,53,53,53,53,
52,52,52,52,52,52,52,52,52,52,52,53,53,53,53,53
</chunk>
   <chunk x="96" y="0" width="16" height="16">
52,52,52,52,52,52,52,52,52,52,52,52,52,52,52,52,
52,52,52,52,52,52,52,52,52,52,52,52,52,52,52,52,
52,52,52,52,52,52,52,52,52,52,52,52,52,52,52,52,
52,52,52,52,52,52,52,52,52,52,52,52,52,52,52,52,
52,52,52,52,52,52,52,52,52,52,52,52,52,52,52,52,
52,52,52,52,52,52,52,52,52,52,52,52,52,52,52,52,
53,53,53,53,53,53,53,53,53,53,53,53,53,53,53,53,
53,53,53,53,53,53,53,53,53,53,53,53,53,53,53,53,
53,53,53,53,53,53,53,53,53,53,53,53,53,53,53,53,
53,53,53,53,53,53,53,53,53,53,53,53,53,53,53,53,
53,53,53,53,53,53,53,53,53,53,53,53,53,53,53,53,
53,53,53,53,53,53,53,53,53,53,53,53,53,53,53,53,
53,53,53,53,53,53,53,53,53,53,53,53,53,53,53,53,
53,53,53,53,53,53,53,53,53,53,53,53,53,53,53,53,
53,53,53,53,53,53,53,53,53,53,53,53,53,53,53,53,
53,53,53,53,53,53,53,53,53,53,53,53,53,53,53,53
</chunk>
   <chunk x="112" y="0" width="16" height="16">
52,52,52,52,52,52,52,52,52,52,52,52,52,52,52,52,
52,52,52,52,52,52,52,52,52,52,52,52,52,52,52,52,
52,52,52,52,52,52,52,52,52,52,52,52,52,52,52,52,
52,52,52,52,52,52,52,52,52,52,52,52,52,52,52,52,
52,52,52,52,52,52,52,52,52,52,52,52,52,52,52,52,
52,52,52,52,52,52,52,52,52,52,52,52,52,52,52,52,
53,53,53,53,53,52,52,52,52,52,52,52,52,52,52,52,
53,53,53,53,53,52,52,52,52,52,52,52,52,52,52,52,
53,53,53,53,53,52,52,52,52,52,52,52,52,52,52,52,
53,53,53,53,53,52,52,52,52,52,52,52,52,52,52,52,
53,53,53,53,53,52,52,52,52,52,52,52,52,52,52,52,
53,53,53,53,53,52,52,52,52,52,52,52,52,52,52,52,
53,53,53,53,53,52,52,52,52,52,52,52,52,52,52,52,
53,53,53,53,53,52,52,52,52,52,52,52,52,52,52,52,
53,53,53,53,53,52,52,52,52,52,52,52,52,52,52,52,
53,53,53,53,53,52,52,52,52,52,52,52,52,52,52,52
</chunk>
   <chunk x="128" y="0" width="16" height="16">
52,52,52,52,52,52,52,52,52,52,52,52,52,52,52,52,
52,52,52,52,52,52,52,52,52,52,52,52,52,52,52,52,
52,52,52,52,52,52,52,52,52,52,52,52,52,52,52,52,
52,52,52,52,52,52,52,52,52,52,52,52,52,52,52,52,
52,52,52,52,52,52,52,52,52,52,52,52,52,52,52,52,
52,52,52,52,52,52,52,52,52,52,52,52,52,52,52,52,
52,52,52,52,52,52,52,52,52,52,52,52,52,52,52,52,
52,52,52,52,52,52,52,52,52,52,52,52,52,52,52,52,
53,53,53,53,53,53,53,53,53,53,53,53,53,53,53,53,
53,53,53,53,53,53,53,53,53,53,53,53,53,53,53,53,
53,53,53,53,53,53,53,53,53,53,53,53,53,53,53,53,
53,53,53,53,53,53,53,53,53,53,53,53,53,53,53,53,
53,53,53,53,53,53,53,53,53,53,53,53,53,53,53,53,
53,53,53,53,53,53,53,53,53,53,53,53,53,53,53,53,
53,53,53,53,53,53,53,53,53,53,53,53,53,53,53,53,
53,53,53,53,53,53,53,53,53,53,53,53,53,53,53,53
</chunk>
   <chunk x="144" y="0" width="16" height="16">
52,52,52,52,52,52,52,52,52,52,52,52,52,52,52,52,
52,52,52,52,52,52,52,52,52,52,52,52,52,52,52,52,
52,52,52,52,52,52,52,52,52,52,52,52,52,52,52,52,
52,52,52,52,52,52,52,52,52,52,52,52,52,52,52,52,
52,52,52,52,52,52,52,52,52,52,52,52,52,52,52,52,
52,52,52,52,52,52,52,52,52,52,52,52,52,52,52,52,
52,52,52,52,52,52,52,52,52,52,52,52,52,52,52,52,
52,52,52,52,52,52,52,52,52,52,52,52,52,52,52,52,
53,53,53,53,53,53,53,53,53,53,53,53,53,53,53,52,
53,53,53,53,53,53,53,53,53,53,53,53,53,53,53,52,
53,53,53,53,53,53,53,53,53,53,53,53,53,53,53,52,
53,53,53,53,53,53,53,53,53,53,53,53,53,53,53,52,
53,53,53,53,53,53,53,53,53,53,53,53,53,53,53,52,
53,53,53,53,53,53,53,53,53,53,53,53,53,53,53,52,
53,53,53,53,53,53,53,53,53,53,53,53,53,53,53,52,
53,53,53,53,53,53,53,53,53,53,53,53,53,53,53,52
</chunk>
   <chunk x="160" y="0" width="16" height="16">
52,52,52,52,52,52,52,52,52,52,52,52,52,52,52,52,
52,52,52,52,52,52,52,52,52,52,52,52,52,52,52,52,
52,52,52,52,52,52,52,52,52,52,52,52,52,52,52,52,
52,52,52,52,52,52,52,52,52,52,52,52,52,52,52,52,
52,52,52,52,52,52,52,52,52,52,52,52,52,52,52,52,
52,52,52,52,52,52,52,52,52,52,52,52,52,52,52,52,
52,52,52,52,52,52,52,52,52,52,52,52,52,52,52,52,
52,52,52,52,52,52,52,52,52,52,52,52,52,52,52,52,
52,52,52,52,52,52,52,52,52,52,52,52,52,52,52,52,
52,52,52,52,52,52,52,52,52,52,52,52,52,52,52,52,
52,52,52,52,52,52,52,52,52,52,52,52,52,52,52,52,
52,52,52,52,52,52,52,52,52,52,52,52,52,52,52,52,
52,52,52,52,52,52,52,52,52,52,52,52,52,52,52,52,
52,52,52,52,52,52,52,52,52,52,52,52,52,52,52,52,
52,52,52,52,52,52,52,52,52,52,52,52,52,52,52,52,
52,52,52,52,52,52,52,52,52,52,52,52,52,52,52,52
</chunk>
   <chunk x="176" y="0" width="16" height="16">
52,52,52,52,52,52,52,52,52,52,52,52,52,52,52,52,
52,52,52,52,52,52,52,52,52,52,52,52,52,52,52,52,
52,52,52,52,52,52,52,52,52,52,52,52,52,52,52,52,
52,52,52,52,52,52,52,52,52,52,52,52,52,52,52,52,
52,52,52,52,52,52,52,52,52,52,52,52,52,52,52,52,
52,52,52,52,52,52,52,52,52,52,52,52,52,52,52,52,
52,52,52,52,52,52,52,52,52,52,52,52,52,52,52,52,
52,52,52,52,52,52,52,52,52,52,52,52,52,52,52,52,
52,52,52,52,52,52,52,52,52,52,52,52,52,52,52,52,
52,52,52,52,52,52,52,52,52,52,52,52,52,52,52,52,
52,52,52,52,52,52,52,52,52,52,52,52,52,52,52,52,
52,53,53,53,53,53,53,53,53,53,53,53,53,53,53,53,
52,53,53,53,53,53,53,53,53,53,53,53,53,53,53,53,
52,53,53,53,53,53,53,53,53,53,53,53,53,53,53,53,
52,53,53,53,53,53,53,53,53,53,53,53,53,53,53,53,
52,53,53,53,53,53,53,53,53,53,53,53,53,53,53,53
</chunk>
   <chunk x="192" y="0" width="16" height="16">
52,52,52,52,52,52,52,52,52,52,52,52,52,52,52,52,
52,52,52,52,52,52,52,52,52,52,52,52,52,52,52,52,
52,52,52,52,52,52,52,52,52,52,52,52,52,52,52,52,
52,52,52,52,52,52,52,52,52,52,52,52,52,52,52,52,
52,52,52,52,52,52,52,52,52,52,52,52,52,52,52,52,
52,52,52,52,52,52,52,52,52,52,52,52,52,52,52,52,
52,52,52,52,52,52,52,52,52,52,52,52,52,52,52,52,
52,52,52,52,52,52,52,52,52,52,52,52,52,52,52,52,
52,52,52,52,52,52,52,52,52,52,52,52,52,52,52,52,
52,52,52,52,52,52,52,52,52,52,52,52,52,52,52,52,
52,52,52,52,52,52,52,52,52,52,52,52,52,52,52,52,
53,53,53,53,53,53,53,53,53,53,53,53,53,53,53,53,
53,53,53,53,53,53,53,53,53,53,53,53,53,53,53,53,
53,53,53,53,53,53,53,53,53,53,53,53,53,53,53,53,
53,53,53,53,53,53,53,53,53,53,53,53,53,53,53,53,
53,53,53,53,53,53,53,53,53,53,53,53,53,53,53,53
</chunk>
   <chunk x="208" y="0" width="16" height="16">
52,52,52,52,52,52,52,52,52,52,52,52,52,52,52,52,
52,52,52,52,52,52,52,52,52,52,52,52,52,52,52,52,
52,52,52,52,52,52,52,52,52,52,52,52,52,52,52,52,
52,52,52,52,52,52,52,52,52,52,52,52,52,52,52,52,
52,52,52,52,52,52,52,52,52,52,52,52,52,52,52,52,
52,52,52,52,52,52,52,52,52,52,52,52,52,52,52,52,
52,52,52,52,52,52,52,52,52,52,52,52,52,52,52,52,
52,52,52,52,52,52,52,52,52,52,52,52,52,52,52,52,
52,52,52,52,52,52,52,52,52,52,52,52,52,52,52,52,
52,52,52,52,52,52,52,52,52,52,52,52,52,52,52,52,
52,52,52,52,52,52,52,52,52,52,52,52,52,52,52,52,
53,53,53,53,53,53,53,53,53,53,53,53,53,53,53,53,
53,53,53,53,53,53,53,53,53,53,53,53,53,53,53,53,
53,53,53,53,53,53,53,53,53,53,53,53,53,53,53,53,
53,53,53,53,53,53,53,53,53,53,53,53,53,53,53,53,
53,53,53,53,53,53,53,53,53,53,53,53,53,53,53,53
</chunk>
   <chunk x="224" y="0" width="16" height="16">
52,52,52,52,52,52,52,52,52,52,52,52,52,52,52,52,
52,52,52,52,52,52,52,52,52,52,52,52,52,52,52,52,
52,52,52,52,52,52,52,52,52,52,52,52,52,52,52,52,
52,52,52,52,52,52,52,52,52,52,52,52,52,52,52,52,
52,52,52,52,52,52,52,52,52,52,52,52,52,52,52,52,
52,52,52,52,52,52,52,52,52,52,52,52,52,52,52,52,
52,52,52,52,52,52,52,52,52,52,52,52,52,52,52,52,
52,52,52,52,52,52,52,52,52,52,52,52,52,52,52,52,
52,52,52,52,52,52,52,52,52,52,52,52,52,52,52,52,
52,52,52,52,52,52,52,52,52,52,52,52,52,52,52,52,
52,52,52,52,52,52,52,52,52,52,52,52,52,52,52,52,
53,53,53,53,53,53,53,52,52,52,52,52,52,52,52,52,
53,53,53,53,53,53,53,52,52,52,52,52,52,52,52,52,
53,53,53,53,53,53,53,52,52,52,52,52,52,52,52,52,
53,53,53,53,53,53,53,52,52,52,52,52,52,52,52,52,
53,53,53,53,53,53,53,52,52,52,52,52,52,52,52,52
</chunk>
   <chunk x="240" y="0" width="16" height="16">
52,52,52,52,52,52,52,52,52,52,52,52,52,52,52,52,
52,52,52,52,52,52,52,52,52,52,52,52,52,52,52,52,
52,52,52,52,52,52,52,52,52,52,52,52,52,52,52,52,
52,52,52,52,52,52,52,52,52,52,52,52,52,52,52,52,
52,52,52,52,52,52,52,52,52,52,52,52,52,52,52,52,
52,52,52,52,52,52,52,52,52,52,52,52,52,52,52,52,
52,52,52,52,52,52,52,52,52,52,52,52,52,52,52,52,
52,52,52,52,52,52,52,52,52,52,52,52,52,52,52,52,
52,52,52,52,52,52,52,52,52,52,52,52,52,52,52,52,
52,52,52,52,52,52,52,52,52,52,52,52,52,52,52,52,
52,52,52,52,52,52,52,52,52,52,52,52,52,52,52,52,
52,52,52,52,52,52,52,52,52,52,52,52,52,52,52,52,
52,52,52,52,52,52,52,52,52,52,52,52,52,52,52,52,
52,52,52,52,52,52,52,52,52,52,52,52,52,52,52,52,
52,52,52,52,52,52,52,52,52,52,52,52,52,52,52,52,
52,52,52,52,52,52,52,52,52,52,52,52,52,52,52,52
</chunk>
   <chunk x="256" y="0" width="16" height="16">
52,52,52,52,52,52,52,52,52,52,52,52,52,52,52,52,
52,52,52,52,52,52,52,52,52,52,52,52,52,52,52,52,
52,52,52,52,52,52,52,52,52,52,52,52,52,52,52,52,
52,52,52,52,52,52,52,52,52,52,52,52,52,52,52,52,
52,52,52,52,52,52,52,52,52,52,52,52,52,52,52,52,
52,52,52,52,52,52,52,52,52,52,52,52,52,52,52,52,
52,52,52,52,52,52,52,52,52,52,52,52,52,52,52,52,
52,52,52,52,52,52,52,52,52,52,52,52,52,52,52,52,
52,52,52,52,52,52,52,52,52,52,52,52,52,52,52,52,
52,52,52,52,52,52,52,52,52,52,52,52,52,52,52,52,
52,52,52,52,52,52,52,52,52,52,52,52,52,52,52,52,
52,52,52,52,52,52,52,52,52,52,52,52,52,52,52,52,
52,52,52,52,52,52,52,52,52,52,52,52,52,52,52,52,
52,52,52,52,52,52,52,52,52,52,52,52,52,52,52,52,
52,52,52,52,52,52,52,52,52,52,52,52,52,52,52,52,
52,52,52,52,52,52,52,52,52,52,52,52,52,52,52,52
</chunk>
   <chunk x="272" y="0" width="16" height="16">
52,52,52,52,52,52,52,52,52,52,52,52,52,52,52,52,
52,52,52,52,52,52,52,52,52,52,52,52,52,52,52,52,
52,52,52,52,52,52,52,52,52,52,52,52,52,52,52,52,
52,52,52,52,52,52,52,52,52,52,52,52,52,52,52,52,
52,52,52,52,52,52,52,52,52,52,52,52,52,52,52,52,
52,52,52,52,52,52,52,52,52,52,52,52,52,52,52,52,
52,52,52,52,52,52,52,52,52,52,52,52,52,52,52,52,
52,52,52,52,52,52,52,52,52,52,52,52,52,52,52,52,
52,52,52,52,52,52,52,52,52,52,52,52,52,52,52,52,
52,52,52,52,52,52,52,52,52,52,52,52,52,52,52,52,
52,52,52,52,52,52,52,52,52,52,52,52,52,52,52,52,
52,52,52,52,52,52,52,52,52,52,52,52,52,52,52,52,
52,52,52,52,52,52,52,52,52,52,52,52,52,52,52,52,
52,52,52,52,52,52,52,52,52,52,52,52,52,52,52,52,
52,52,52,52,52,52,52,52,52,52,52,52,52,52,52,52,
52,52,52,52,52,52,52,52,52,52,52,52,52,52,52,52
</chunk>
   <chunk x="288" y="0" width="16" height="16">
52,52,52,52,52,52,52,52,52,52,52,52,52,52,52,52,
52,52,52,52,52,52,52,52,52,52,52,52,52,52,52,52,
52,52,52,52,52,52,52,52,52,52,52,52,52,52,52,52,
52,52,52,52,52,52,52,52,52,52,52,52,52,52,52,52,
52,52,52,52,52,52,52,52,52,52,52,52,52,52,52,52,
52,52,52,52,52,52,52,52,52,52,52,52,52,52,52,52,
52,52,52,52,52,52,52,52,52,52,52,52,52,52,52,52,
52,52,52,52,52,52,52,52,52,52,52,52,52,52,52,52,
52,52,52,52,52,52,52,52,52,52,52,52,52,52,52,52,
52,52,52,52,52,52,52,52,52,52,52,52,52,52,52,52,
52,52,52,52,52,52,52,52,52,52,52,52,52,52,52,52,
52,52,52,52,52,52,52,52,52,52,52,52,52,52,52,52,
52,52,52,52,52,52,52,52,52,52,52,52,52,52,52,52,
52,52,52,52,52,52,52,52,52,52,52,52,52,52,52,52,
52,52,52,52,52,52,52,52,52,52,52,52,52,52,52,52,
52,52,52,52,52,52,52,52,52,52,52,52,52,52,52,52
</chunk>
   <chunk x="304" y="0" width="16" height="16">
52,52,52,52,52,52,52,52,52,52,52,52,52,52,52,52,
52,52,52,52,52,52,52,52,52,52,52,52,52,52,52,52,
52,52,52,52,52,52,52,52,52,52,52,52,52,52,52,52,
52,52,52,52,52,52,52,52,52,52,52,52,52,52,52,52,
52,52,52,52,52,52,52,52,52,52,52,52,52,52,52,52,
52,52,52,52,52,52,52,52,52,52,52,52,52,52,52,52,
52,52,52,52,52,52,52,52,52,52,52,52,52,52,52,52,
52,52,52,52,52,52,52,52,52,52,52,52,52,52,52,52,
52,52,52,52,52,52,52,52,52,52,52,52,52,52,52,52,
52,52,52,52,52,52,52,52,52,52,52,52,52,52,52,52,
52,52,52,52,52,52,52,52,52,52,52,52,52,52,52,52,
52,52,52,52,52,52,52,52,52,52,52,52,52,52,52,52,
52,52,52,52,52,52,52,52,52,52,52,52,52,52,52,52,
52,52,52,52,52,52,52,52,52,52,52,52,52,52,52,52,
52,52,52,52,52,52,52,52,52,52,52,52,52,52,52,52,
52,52,52,52,52,52,52,52,52,52,52,52,52,52,52,52
</chunk>
   <chunk x="0" y="16" width="16" height="16">
52,52,52,52,52,53,53,53,53,53,53,53,53,53,53,53,
52,52,52,52,52,53,53,53,53,53,53,53,53,53,53,53,
52,52,52,52,52,53,53,53,53,53,53,53,53,53,53,53,
52,52,52,52,52,53,53,53,53,53,53,53,53,53,53,53,
52,52,52,52,52,53,53,53,53,53,53,53,53,53,53,53,
52,52,52,52,52,53,53,53,53,53,53,53,53,53,53,53,
52,52,52,52,52,53,53,53,53,53,53,53,53,53,53,53,
52,52,52,52,52,53,53,53,53,53,53,53,53,53,53,53,
52,52,52,52,52,53,53,53,53,53,53,53,53,53,53,53,
52,52,52,52,52,53,53,53,53,53,53,53,53,53,53,53,
52,52,52,52,52,53,53,53,53,53,53,53,53,53,53,53,
52,52,52,52,52,53,53,53,53,53,53,53,53,53,53,53,
52,52,52,52,52,53,53,53,53,53,53,53,53,53,53,53,
52,52,52,52,52,53,53,53,53,53,53,53,53,53,53,53,
52,52,52,52,52,53,53,53,53,53,53,53,53,53,53,53,
52,52,52,52,52,53,53,53,53,53,53,53,53,53,53,53
</chunk>
   <chunk x="16" y="16" width="16" height="16">
53,53,52,52,52,52,52,52,52,52,52,52,52,52,52,53,
53,53,52,52,52,52,52,52,52,52,52,52,52,52,52,53,
53,53,52,52,52,52,52,52,52,52,52,52,52,52,52,53,
53,53,52,52,52,52,52,52,52,52,52,52,52,52,52,53,
53,53,52,52,52,52,52,52,52,52,52,52,52,52,52,53,
53,53,52,52,52,52,52,52,52,52,52,52,52,52,52,53,
53,53,52,52,52,52,52,52,52,52,52,52,52,52,52,53,
53,53,52,52,52,52,52,52,52,52,52,52,52,52,52,53,
53,53,52,52,52,52,52,52,52,52,52,52,52,52,52,53,
53,53,52,52,52,52,52,52,52,52,52,52,52,52,52,53,
53,53,52,52,52,52,52,52,52,52,52,52,52,52,52,53,
53,53,52,52,52,52,52,52,52,52,52,52,52,52,52,53,
53,53,52,52,52,52,52,52,52,52,52,52,52,52,52,53,
53,53,52,52,52,52,52,52,52,52,52,52,52,52,52,53,
53,53,52,52,52,52,52,52,52,52,52,52,52,52,52,53,
53,53,52,52,52,52,52,52,52,52,52,52,52,52,52,53
</chunk>
   <chunk x="32" y="16" width="16" height="16">
53,53,53,53,53,53,53,53,53,53,53,53,52,52,52,52,
53,53,53,53,53,53,53,53,53,53,53,53,52,52,52,52,
53,53,53,53,53,53,53,53,53,53,53,53,52,52,52,52,
53,53,53,53,53,53,53,53,53,53,53,53,52,52,52,52,
53,53,53,53,53,53,53,53,53,53,53,53,52,52,52,52,
53,53,53,53,53,53,53,53,53,53,53,53,52,52,52,52,
53,53,53,53,53,53,53,53,53,53,53,53,52,52,52,52,
53,53,53,53,53,53,53,53,53,53,53,53,52,52,52,52,
53,53,53,53,53,53,53,53,53,53,53,53,52,52,52,52,
53,53,53,53,53,53,53,53,53,53,53,53,52,52,52,52,
53,53,53,53,53,53,53,53,53,53,53,53,52,52,52,52,
53,53,53,53,53,53,53,53,53,53,53,53,52,52,52,52,
53,53,53,53,53,53,53,53,53,53,53,53,52,52,52,52,
53,53,53,53,53,53,53,53,53,53,53,53,52,52,52,52,
53,53,53,53,53,53,53,53,53,53,53,53,52,52,52,52,
53,53,53,53,53,53,53,53,53,53,53,53,52,52,52,52
</chunk>
   <chunk x="48" y="16" width="16" height="16">
52,52,52,52,52,52,52,52,52,53,53,53,53,53,53,53,
52,52,52,52,52,52,52,52,52,53,53,53,53,53,53,53,
52,52,52,52,52,52,52,52,52,53,53,53,53,53,53,53,
52,52,52,52,52,52,52,52,52,53,53,53,53,53,53,53,
52,52,52,52,52,52,52,52,52,53,53,53,53,53,53,53,
52,52,52,52,52,52,52,52,52,53,53,53,53,53,53,53,
52,52,52,52,52,52,52,52,52,53,53,53,53,53,53,53,
52,52,52,52,52,52,52,52,52,53,53,53,53,53,53,53,
52,52,52,52,52,52,52,52,52,53,53,53,53,53,53,53,
52,52,52,52,52,52,52,52,52,53,53,53,53,53,53,53,
52,52,52,52,52,52,52,52,52,53,53,53,53,53,53,53,
52,52,52,52,52,52,52,52,52,53,53,53,53,53,53,53,
52,52,52,52,52,52,52,52,52,53,53,53,53,53,53,53,
52,52,52,52,52,52,52,52,52,53,53,53,53,53,53,53,
52,52,52,52,52,52,52,52,52,53,53,53,53,53,53,53,
52,52,52,52,52,52,52,52,52,53,53,53,53,53,53,53
</chunk>
   <chunk x="64" y="16" width="16" height="16">
53,53,53,53,53,53,53,53,53,53,52,52,52,52,52,52,
53,53,53,53,53,53,53,53,53,53,52,52,52,52,52,52,
53,53,53,53,53,53,53,53,53,53,52,52,52,52,52,52,
53,53,53,53,53,53,53,53,53,53,52,52,52,52,52,52,
53,53,53,53,53,53,53,53,53,53,52,52,52,52,52,52,
53,53,53,53,53,53,53,53,53,53,52,52,52,52,52,52,
53,53,53,53,53,53,53,53,53,53,52,52,52,52,52,52,
53,53,53,53,53,53,53,53,53,53,52,52,52,52,52,52,
53,53,53,53,53,53,53,53,53,53,52,52,52,52,52,52,
53,53,53,53,53,53,53,53,53,53,52,52,52,52,52,52,
53,53,53,53,53,53,53,53,53,53,52,52,52,52,52,52,
53,53,53,53,53,53,53,53,53,53,52,52,52,52,52,52,
53,53,53,53,53,53,53,53,53,53,52,52,52,52,52,52,
53,53,53,53,53,53,53,53,53,53,52,52,52,52,52,52,
53,53,53,53,53,53,53,53,53,53,52,52,52,52,52,52,
53,53,53,53,53,53,53,53,53,53,52,52,52,52,52,52
</chunk>
   <chunk x="80" y="16" width="16" height="16">
52,52,52,52,52,52,52,52,52,52,52,53,53,53,53,53,
52,52,52,52,52,52,52,52,52,52,52,53,53,53,53,53,
52,52,52,52,52,52,52,52,52,52,52,53,53,53,53,53,
52,52,52,52,52,52,52,52,52,52,52,53,53,53,53,53,
52,52,52,52,52,52,52,52,52,52,52,53,53,53,53,53,
52,52,52,52,52,52,52,52,52,52,52,53,53,53,53,53,
52,52,52,52,52,52,52,52,52,52,52,53,53,53,53,53,
52,52,52,52,52,52,52,52,52,52,52,53,53,53,53,53,
52,52,52,52,52,52,52,52,52,52,52,53,53,53,53,53,
52,52,52,52,52,52,52,52,52,52,52,53,53,53,53,53,
52,52,52,52,52,52,52,52,52,52,52,53,53,53,53,53,
52,52,52,52,52,52,52,52,52,52,52,53,53,53,53,53,
52,52,52,52,52,52,52,52,52,52,52,53,53,53,53,53,
52,52,52,52,52,52,52,52,52,52,52,53,53,53,53,53,
52,52,52,52,52,52,52,52,52,52,52,53,53,53,53,53,
52,52,52,52,52,52,52,52,52,52,52,53,53,53,53,53
</chunk>
   <chunk x="96" y="16" width="16" height="16">
53,53,53,53,53,53,53,53,53,53,53,53,53,53,53,53,
53,53,53,53,53,53,53,53,53,53,53,53,53,53,53,53,
53,53,53,53,53,53,53,53,53,53,53,53,53,53,53,53,
53,53,53,53,53,53,53,53,53,53,53,53,53,53,53,53,
53,53,53,53,53,53,53,53,53,53,53,53,53,53,53,53,
53,53,53,53,53,53,53,53,53,53,53,53,53,53,53,53,
53,53,53,53,53,53,53,53,53,53,53,53,53,53,53,53,
53,53,53,53,53,53,53,53,53,53,53,53,53,53,53,53,
53,53,53,53,53,53,53,53,53,53,53,53,53,53,53,53,
53,53,53,53,53,53,53,53,53,53,53,53,53,53,53,53,
53,53,53,53,53,53,53,53,53,53,53,53,53,53,53,53,
53,53,53,53,53,53,53,53,53,53,53,53,53,53,53,53,
53,53,53,53,53,53,53,53,53,53,53,53,53,53,53,53,
53,53,53,53,53,53,53,53,53,53,53,53,53,53,53,53,
53,53,53,53,53,53,53,53,53,53,53,53,53,53,53,53,
53,53,53,53,53,53,53,53,53,53,53,53,53,53,53,53
</chunk>
   <chunk x="112" y="16" width="16" height="16">
53,53,53,53,53,52,52,52,52,52,52,52,52,52,52,52,
53,53,53,53,53,52,52,52,52,52,52,52,52,52,52,52,
53,53,53,53,53,52,52,52,52,52,52,52,52,52,52,52,
53,53,53,53,53,52,52,52,52,52,52,52,52,52,52,52,
53,53,53,53,53,52,52,52,52,52,52,52,52,52,52,52,
53,53,53,53,53,52,52,52,52,52,52,52,52,52,52,52,
53,53,53,53,53,52,52,52,52,52,52,52,52,52,52,52,
53,53,53,53,53,52,52,52,52,52,52,52,52,52,52,52,
53,53,53,53,53,52,52,52,52,52,52,52,52,52,52,52,
53,53,53,53,53,52,52,52,52,52,52,52,52,52,52,52,
53,53,53,53,53,52,52,52,52,52,52,52,52,52,52,52,
53,53,53,53,53,52,52,52,52,52,52,52,52,52,52,52,
53,53,53,53,53,52,52,52,52,52,52,52,52,52,52,52,
53,53,53,53,53,52,52,52,52,52,52,52,52,52,52,52,
53,53,53,53,53,52,52,52,52,52,52,52,52,52,52,52,
53,53,53,53,53,52,52,52,52,52,52,52,52,52,52,52
</chunk>
   <chunk x="128" y="16" width="16" height="16">
53,53,53,53,53,53,53,53,53,53,53,53,53,53,53,53,
53,53,53,53,53,53,53,53,53,53,53,53,53,53,53,53,
53,53,53,53,53,53,53,53,53,53,53,53,53,53,53,53,
53,53,53,53,53,53,53,53,53,53,53,53,53,53,53,53,
53,53,53,53,53,53,53,53,53,53,53,53,53,53,53,53,
53,53,53,53,53,53,53,53,53,53,53,53,53,53,53,53,
53,53,53,53,53,53,53,53,53,53,53,53,53,53,53,53,
53,53,53,53,53,53,53,53,53,53,53,53,53,53,53,53,
53,53,53,53,53,53,53,53,53,53,53,53,53,53,53,53,
53,53,53,53,53,53,53,53,53,53,53,53,53,53,53,53,
53,53,53,53,53,53,53,53,53,53,53,53,53,53,53,53,
53,53,53,53,53,53,53,53,53,53,53,53,53,53,53,53,
53,53,53,53,53,53,53,53,53,53,53,53,53,53,53,53,
53,53,53,53,53,53,53,53,53,53,53,53,53,53,53,53,
53,53,53,53,53,53,53,53,53,53,53,53,53,53,53,53,
53,53,53,53,53,53,53,53,53,53,53,53,53,53,53,53
</chunk>
   <chunk x="144" y="16" width="16" height="16">
53,53,53,53,53,53,53,53,53,53,53,53,53,53,53,52,
53,53,53,53,53,53,53,53,53,53,53,53,53,53,53,52,
53,53,53,53,53,53,53,53,53,53,53,53,53,53,53,52,
53,53,53,53,53,53,53,53,53,53,53,53,53,53,53,52,
53,53,53,53,53,53,53,53,53,53,53,53,53,53,53,52,
53,53,53,53,53,53,53,53,53,53,53,53,53,53,53,52,
53,53,53,53,53,53,53,53,53,53,53,53,53,53,53,52,
53,53,53,53,53,53,53,53,53,53,53,53,53,53,53,52,
53,53,53,53,53,53,53,53,53,53,53,53,53,53,53,52,
53,53,53,53,53,53,53,53,53,53,53,53,53,53,53,52,
53,53,53,53,53,53,53,53,53,53,53,53,53,53,53,52,
53,53,53,53,53,53,53,53,53,53,53,53,53,53,53,52,
53,53,53,53,53,53,53,53,53,53,53,53,53,53,53,52,
53,53,53,53,53,53,53,53,53,53,53,53,53,53,53,52,
53,53,53,53,53,53,53,53,53,53,53,53,53,53,53,52,
53,53,53,53,53,53,53,53,53,53,53,53,53,53,53,52
</chunk>
   <chunk x="160" y="16" width="16" height="16">
52,52,52,52,52,52,52,52,52,52,52,52,52,52,52,52,
52,52,52,52,52,52,52,52,52,52,52,52,52,52,52,52,
52,52,52,52,52,52,52,52,52,52,52,52,52,52,52,52,
52,52,52,52,52,52,52,52,52,52,52,52,52,52,52,52,
52,52,52,52,52,52,52,52,52,52,52,52,52,52,52,52,
52,52,52,52,52,52,52,52,52,52,52,52,52,52,52,52,
52,52,52,52,52,52,52,52,52,52,52,52,52,52,52,52,
52,52,52,52,52,52,52,52,52,52,52,52,52,52,52,52,
52,52,52,52,52,52,52,52,52,52,52,52,52,52,52,52,
52,52,52,52,52,52,52,52,52,52,52,52,52,52,52,52,
52,52,52,52,52,52,52,52,52,52,52,52,52,52,52,52,
52,52,52,52,52,52,52,52,52,52,52,52,52,52,52,52,
52,52,52,52,52,52,52,52,52,52,52,52,52,52,52,52,
52,52,52,52,52,52,52,52,52,52,52,52,52,52,52,52,
52,52,52,52,52,52,52,52,52,52,52,52,52,52,52,52,
52,52,52,52,52,52,52,52,52,52,52,52,52,52,52,52
</chunk>
   <chunk x="176" y="16" width="16" height="16">
52,53,53,53,53,53,53,53,53,53,53,53,53,53,53,53,
52,53,53,53,53,53,53,53,53,53,53,53,53,53,53,53,
52,53,53,53,53,53,53,53,53,53,53,53,53,53,53,53,
52,53,53,53,53,53,53,53,53,53,53,53,53,53,53,53,
52,53,53,53,53,53,53,53,53,53,53,53,53,53,53,53,
52,53,53,53,53,53,53,53,53,53,53,53,53,53,53,53,
52,53,53,53,53,53,53,53,53,53,53,53,53,53,53,53,
52,53,53,53,53,53,53,53,53,53,53,53,53,53,53,53,
52,53,53,53,53,53,53,53,53,53,53,53,53,53,53,53,
52,53,53,53,53,53,53,53,53,53,53,53,53,53,53,53,
52,53,53,53,53,53,53,53,53,53,53,53,53,53,53,53,
52,53,53,53,53,53,53,53,53,53,53,53,53,53,53,53,
52,53,53,53,53,53,53,53,53,53,53,53,53,53,53,53,
52,53,53,53,53,53,53,53,53,53,53,53,53,53,53,53,
52,53,53,53,53,53,53,53,53,53,53,53,53,53,53,53,
52,53,53,53,53,53,53,53,53,53,53,53,53,53,53,53
</chunk>
   <chunk x="192" y="16" width="16" height="16">
53,53,53,53,53,53,53,53,53,53,53,53,53,53,53,53,
53,53,53,53,53,53,53,53,53,53,53,53,53,53,53,53,
53,53,53,53,53,53,53,53,53,53,53,53,53,53,53,53,
53,53,53,53,53,53,53,53,53,53,53,53,53,53,53,53,
53,53,53,53,53,53,53,53,53,53,53,53,53,53,53,53,
53,53,53,53,53,53,53,53,53,53,53,53,53,53,53,53,
53,53,53,53,53,53,53,53,53,53,53,53,53,53,53,53,
53,53,53,53,53,53,53,53,53,53,53,53,53,53,53,53,
53,53,53,53,53,53,53,53,53,53,53,53,53,53,53,53,
53,53,53,53,53,53,53,53,53,53,53,53,53,53,53,53,
53,53,53,53,53,53,53,53,53,53,53,53,53,53,53,53,
53,53,53,53,53,53,53,53,53,53,53,53,53,53,53,53,
53,53,53,53,53,53,53,53,53,53,53,53,53,53,53,53,
53,53,53,53,53,53,53,53,53,53,53,53,53,53,53,53,
53,53,53,53,53,53,53,53,53,53,53,53,53,53,53,53,
53,53,53,53,53,53,53,53,53,53,53,53,53,53,53,53
</chunk>
   <chunk x="208" y="16" width="16" height="16">
53,53,53,53,53,53,53,53,53,53,53,53,53,53,53,53,
53,53,53,53,53,53,53,53,53,53,53,53,53,53,53,53,
53,53,53,53,53,53,53,53,53,53,53,53,53,53,53,53,
53,53,53,53,53,53,53,53,53,53,53,53,53,53,53,53,
53,53,53,53,53,53,53,53,53,53,53,53,53,53,53,53,
53,53,53,53,53,53,53,53,53,53,53,53,53,53,53,53,
53,53,53,53,53,53,53,53,53,53,53,53,53,53,53,53,
53,53,53,53,53,53,53,53,53,53,53,53,53,53,53,53,
53,53,53,53,53,53,53,53,53,53,53,53,53,53,53,53,
53,53,53,53,53,53,53,53,53,53,53,53,53,53,53,53,
53,53,53,53,53,53,53,53,53,53,53,53,53,53,53,53,
53,53,53,53,53,53,53,53,53,53,53,53,53,53,53,53,
53,53,53,53,53,53,53,53,53,53,53,53,53,53,53,53,
53,53,53,53,53,53,53,53,53,53,53,53,53,53,53,53,
53,53,53,53,53,53,53,53,53,53,53,53,53,53,53,53,
53,53,53,53,53,53,53,53,53,53,53,53,53,53,53,53
</chunk>
   <chunk x="224" y="16" width="16" height="16">
53,53,53,53,53,53,53,52,52,52,52,52,52,52,52,52,
53,53,53,53,53,53,53,52,52,52,52,52,52,52,52,52,
53,53,53,53,53,53,53,52,52,52,52,52,52,52,52,52,
53,53,53,53,53,53,53,52,52,52,52,52,52,52,52,52,
53,53,53,53,53,53,53,52,52,52,52,52,52,52,52,52,
53,53,53,53,53,53,53,52,52,52,52,52,52,52,52,52,
53,53,53,53,53,53,53,52,52,52,52,52,52,52,52,52,
53,53,53,53,53,53,53,52,52,52,52,52,52,52,52,52,
53,53,53,53,53,53,53,52,52,52,52,52,52,52,52,52,
53,53,53,53,53,53,53,52,52,52,52,52,52,52,52,52,
53,53,53,53,53,53,53,52,52,52,52,52,52,52,52,52,
53,53,53,53,53,53,53,52,52,52,52,52,52,52,52,52,
53,53,53,53,53,53,53,52,52,52,52,52,52,52,52,52,
53,53,53,53,53,53,53,52,52,52,52,52,52,52,52,52,
53,53,53,53,53,53,53,52,52,52,52,52,52,52,52,52,
53,53,53,53,53,53,53,52,52,52,52,52,52,52,52,52
</chunk>
   <chunk x="240" y="16" width="16" height="16">
52,52,52,52,52,52,52,52,52,52,52,52,52,52,52,52,
52,52,52,52,52,52,52,52,52,52,52,52,52,52,52,52,
52,52,52,52,52,52,52,52,52,52,52,52,52,52,52,52,
52,52,52,52,52,52,52,52,52,52,52,52,52,52,52,52,
52,52,52,52,52,52,52,52,52,52,52,52,52,52,52,52,
52,52,52,52,52,52,52,52,52,52,52,52,52,52,52,52,
52,52,52,52,52,52,52,52,52,52,52,52,52,52,52,52,
52,52,52,52,52,52,52,52,52,52,52,52,52,52,52,52,
52,52,52,52,52,52,52,52,52,52,52,52,52,52,52,52,
52,52,52,52,52,52,52,52,52,52,52,52,52,52,52,52,
52,52,52,52,52,52,52,52,52,52,52,52,52,52,52,52,
52,52,52,52,52,52,52,52,52,52,52,52,52,52,52,52,
52,52,52,52,52,52,52,52,52,52,52,52,52,52,52,52,
52,52,52,52,52,52,52,52,52,52,52,52,52,52,52,52,
52,52,52,52,52,52,52,52,52,52,52,52,52,52,52,52,
52,52,52,52,52,52,52,52,52,52,52,52,52,52,52,52
</chunk>
   <chunk x="256" y="16" width="16" height="16">
52,52,52,52,52,52,52,52,52,52,52,52,52,52,52,52,
52,52,52,52,52,52,52,52,52,52,52,52,52,52,52,52,
52,52,52,52,52,52,52,52,52,52,52,52,52,52,52,52,
52,52,52,52,52,52,52,52,52,52,52,52,52,52,52,52,
52,52,52,52,52,52,52,52,52,52,52,52,52,52,52,52,
52,52,52,52,52,52,52,52,52,52,52,52,52,52,52,52,
52,52,52,52,52,52,52,52,52,52,52,52,52,52,52,52,
52,52,52,52,52,52,52,52,52,52,52,52,52,52,52,52,
52,52,52,52,52,52,52,52,52,52,52,52,52,52,52,52,
52,52,52,52,52,52,52,52,52,52,52,52,52,52,52,52,
52,52,52,52,52,52,52,52,52,52,52,52,52,52,52,52,
52,52,52,52,52,52,52,52,52,52,52,52,52,52,52,52,
52,52,52,52,52,52,52,52,52,52,52,52,52,52,52,52,
52,52,52,52,52,52,52,52,52,52,52,52,52,52,52,52,
52,52,52,52,52,52,52,52,52,52,52,52,52,52,52,52,
52,52,52,52,52,52,52,52,52,52,52,52,52,52,52,52
</chunk>
   <chunk x="272" y="16" width="16" height="16">
52,52,52,52,52,52,52,52,52,52,52,52,52,52,52,52,
52,52,52,52,52,52,52,52,52,52,52,52,52,52,52,52,
52,52,52,52,52,52,52,52,52,52,52,52,52,52,52,52,
52,52,52,52,52,52,52,52,52,52,52,52,52,52,52,52,
52,52,52,52,52,52,52,52,52,52,52,52,52,52,52,52,
52,52,52,52,52,52,52,52,52,52,52,52,52,52,52,52,
52,52,52,52,52,52,52,52,52,52,52,52,52,52,52,52,
52,52,52,52,52,52,52,52,52,52,52,52,52,52,52,52,
52,52,52,52,52,52,52,52,52,52,52,52,52,52,52,52,
52,52,52,52,52,52,52,52,52,52,52,52,52,52,52,52,
52,52,52,52,52,52,52,52,52,52,52,52,52,52,52,52,
52,52,52,52,52,52,52,52,52,52,52,52,52,52,52,52,
52,52,52,52,52,52,52,52,52,52,52,52,52,52,52,52,
52,52,52,52,52,52,52,52,52,52,52,52,52,52,52,52,
52,52,52,52,52,52,52,52,52,52,52,52,52,52,52,52,
52,52,52,52,52,52,52,52,52,52,52,52,52,52,52,52
</chunk>
   <chunk x="288" y="16" width="16" height="16">
52,52,52,52,52,52,52,52,52,52,52,52,52,52,52,52,
52,52,52,52,52,52,52,52,52,52,52,52,52,52,52,52,
52,52,52,52,52,52,52,52,52,52,52,52,52,52,52,52,
52,52,52,52,52,52,52,52,52,52,52,52,52,52,52,52,
52,52,52,52,52,52,52,52,52,52,52,52,52,52,52,52,
52,52,52,52,52,52,52,52,52,52,52,52,52,52,52,52,
52,52,52,52,52,52,52,52,52,52,52,52,52,52,52,52,
52,52,52,52,52,52,52,52,52,52,52,52,52,52,52,52,
52,52,52,52,52,52,52,52,52,52,52,52,52,52,52,52,
52,52,52,52,52,52,52,52,52,52,52,52,52,52,52,52,
52,52,52,52,52,52,52,52,52,52,52,52,52,52,52,52,
52,52,52,52,52,52,52,52,52,52,52,52,52,52,52,52,
52,52,52,52,52,52,52,52,52,52,52,52,52,52,52,52,
52,52,52,52,52,52,52,52,52,52,52,52,52,52,52,52,
52,52,52,52,52,52,52,52,52,52,52,52,52,52,52,52,
52,52,52,52,52,52,52,52,52,52,52,52,52,52,52,52
</chunk>
   <chunk x="304" y="16" width="16" height="16">
52,52,52,52,52,52,52,52,52,52,52,52,52,52,52,52,
52,52,52,52,52,52,52,52,52,52,52,52,52,52,52,52,
52,52,52,52,52,52,52,52,52,52,52,52,52,52,52,52,
52,52,52,52,52,52,52,52,52,52,52,52,52,52,52,52,
52,52,52,52,52,52,52,52,52,52,52,52,52,52,52,52,
52,52,52,52,52,52,52,52,52,52,52,52,52,52,52,52,
52,52,52,52,52,52,52,52,52,52,52,52,52,52,52,52,
52,52,52,52,52,52,52,52,52,52,52,52,52,52,52,52,
52,52,52,52,52,52,52,52,52,52,52,52,52,52,52,52,
52,52,52,52,52,52,52,52,52,52,52,52,52,52,52,52,
52,52,52,52,52,52,52,52,52,52,52,52,52,52,52,52,
52,52,52,52,52,52,52,52,52,52,52,52,52,52,52,52,
52,52,52,52,52,52,52,52,52,52,52,52,52,52,52,52,
52,52,52,52,52,52,52,52,52,52,52,52,52,52,52,52,
52,52,52,52,52,52,52,52,52,52,52,52,52,52,52,52,
52,52,52,52,52,52,52,52,52,52,52,52,52,52,52,52
</chunk>
   <chunk x="0" y="32" width="16" height="16">
52,52,52,52,52,53,53,53,53,53,53,53,53,53,53,53,
52,52,52,52,52,53,53,53,53,53,53,53,53,53,53,53,
52,52,52,52,52,53,53,53,53,53,53,53,53,53,53,53,
52,52,52,52,52,53,53,53,53,53,53,53,53,53,53,53,
52,52,52,52,52,53,53,53,53,53,53,53,53,53,53,53,
52,52,52,52,52,53,53,53,53,53,53,53,53,53,53,53,
52,52,52,52,52,53,53,53,53,53,53,53,53,53,53,53,
52,52,52,52,52,53,53,53,53,53,53,53,53,53,53,53,
52,52,52,52,52,53,53,53,53,53,53,53,53,53,53,53,
52,52,52,52,52,53,53,53,53,53,53,53,53,53,53,53,
52,52,52,52,52,53,53,53,53,53,53,53,53,53,53,53,
52,52,52,52,52,53,53,53,53,53,53,53,53,53,53,53,
52,52,52,52,52,53,53,53,53,53,53,53,53,53,53,53,
52,52,52,52,52,53,53,53,53,53,53,53,53,53,53,53,
52,52,52,52,52,53,53,53,53,53,53,53,53,53,53,53,
52,52,52,52,52,53,53,53,53,53,53,53,53,53,53,53
</chunk>
   <chunk x="16" y="32" width="16" height="16">
53,53,52,52,52,52,52,52,52,52,52,52,52,52,52,53,
53,53,52,52,52,52,52,52,52,52,52,52,52,52,52,53,
53,53,52,52,52,52,52,52,52,52,52,52,52,52,52,53,
53,53,52,52,52,52,52,52,52,52,52,52,52,52,52,53,
53,53,52,52,52,52,52,52,52,52,52,52,52,52,52,53,
53,53,52,52,52,52,52,52,52,52,52,52,52,52,52,53,
53,53,52,52,52,52,52,52,52,52,52,52,52,52,52,53,
53,53,52,52,52,52,52,52,52,52,52,52,52,52,52,53,
53,53,52,52,52,52,52,52,52,52,52,52,52,52,52,53,
53,53,52,52,52,52,52,52,52,52,52,52,52,52,52,53,
53,53,52,52,52,52,52,52,52,52,52,52,52,52,52,53,
53,53,52,52,52,52,52,52,52,52,52,52,52,52,52,53,
53,53,52,52,52,52,52,52,52,52,52,52,52,52,52,53,
53,53,52,52,52,52,52,52,52,52,52,52,52,52,52,53,
53,53,52,52,52,52,52,52,52,52,52,52,52,52,52,53,
53,53,52,52,52,52,52,52,52,52,52,52,52,52,52,53
</chunk>
   <chunk x="32" y="32" width="16" height="16">
53,53,53,53,53,53,53,53,53,53,53,53,52,52,52,52,
53,53,53,53,53,53,53,53,53,53,53,53,52,52,52,52,
53,53,53,53,53,53,53,53,53,53,53,53,52,52,52,52,
53,53,53,53,53,53,53,53,53,53,53,53,52,52,52,52,
53,53,53,53,53,53,53,53,53,53,53,53,52,52,52,52,
53,53,53,53,53,53,53,53,53,53,53,53,52,52,52,52,
53,53,53,53,53,53,53,53,53,53,53,53,52,52,52,52,
53,53,53,53,53,53,53,53,53,53,53,53,52,52,52,52,
53,53,53,53,53,53,53,53,53,53,53,53,52,52,52,52,
53,53,53,53,53,53,53,53,53,53,53,53,52,52,52,52,
53,53,53,53,53,53,53,53,53,53,53,53,52,52,52,52,
53,53,53,53,53,53,53,53,53,53,53,53,52,52,52,52,
53,53,53,53,53,53,53,53,53,53,53,53,52,52,52,52,
53,53,53,53,53,53,53,53,53,53,53,53,52,52,52,52,
53,53,53,53,53,53,53,53,53,53,53,53,52,52,52,52,
53,53,53,53,53,53,53,53,53,53,53,53,52,52,52,52
</chunk>
   <chunk x="48" y="32" width="16" height="16">
52,52,52,52,52,52,52,52,52,53,53,53,53,53,53,53,
52,52,52,52,52,52,52,52,52,53,53,53,53,53,53,53,
52,52,52,52,52,52,52,52,52,53,53,53,53,53,53,53,
52,52,52,52,52,52,52,52,52,53,53,53,53,53,53,53,
52,52,52,52,52,52,52,52,52,53,53,53,53,53,53,53,
52,52,52,52,52,52,52,52,52,53,53,53,53,53,53,53,
52,52,52,52,52,52,52,52,52,53,53,53,53,53,53,53,
52,52,52,52,52,52,52,52,52,53,53,53,53,53,53,53,
52,52,52,52,52,52,52,52,52,53,53,53,53,53,53,53,
52,52,52,52,52,52,52,52,52,53,53,53,53,53,53,53,
52,52,52,52,52,52,52,52,52,53,53,53,53,53,53,53,
52,52,52,52,52,52,52,52,52,53,53,53,53,53,53,53,
52,52,52,52,52,52,52,52,52,53,53,53,53,53,53,53,
52,52,52,52,52,52,52,52,52,53,53,53,53,53,53,53,
52,52,52,52,52,52,52,52,52,53,53,53,53,53,53,53,
52,52,52,52,52,52,52,52,52,53,53,53,53,53,53,53
</chunk>
   <chunk x="64" y="32" width="16" height="16">
53,53,53,53,53,53,53,53,53,53,52,52,52,52,52,52,
53,53,53,53,53,53,53,53,53,53,52,52,52,52,52,52,
53,53,53,53,53,53,53,53,53,53,52,52,52,52,52,52,
53,53,53,53,53,53,53,53,53,53,52,52,52,52,52,52,
53,53,53,53,53,53,53,53,53,53,52,52,52,52,52,52,
53,53,53,53,53,53,53,53,53,53,52,52,52,52,52,52,
53,53,53,53,53,53,53,53,53,53,52,52,52,52,52,52,
53,53,53,53,53,53,53,53,53,53,52,52,52,52,52,52,
53,53,53,53,53,53,53,53,53,53,52,52,52,52,52,52,
53,53,53,53,53,53,53,53,53,53,52,52,52,52,52,52,
53,53,53,53,53,53,53,53,53,53,52,52,52,52,52,52,
53,53,53,53,53,53,53,53,53,53,52,52,52,52,52,52,
53,53,53,53,53,53,53,53,53,53,52,52,52,52,52,52,
53,53,53,53,53,53,53,53,53,53,52,52,52,52,52,52,
53,53,53,53,53,53,53,53,53,53,52,52,52,52,52,52,
53,53,53,53,53,53,53,53,53,53,52,52,52,52,52,52
</chunk>
   <chunk x="80" y="32" width="16" height="16">
52,52,52,52,52,52,52,52,52,52,52,53,53,53,53,53,
52,52,52,52,52,52,52,52,52,52,52,53,53,53,53,53,
52,52,52,52,52,52,52,52,52,52,52,53,53,53,53,53,
52,52,52,52,52,52,52,52,52,52,52,53,53,53,53,53,
52,52,52,52,52,52,52,52,52,52,52,53,53,53,53,53,
52,52,52,52,52,52,52,52,52,52,52,53,53,53,53,53,
52,52,52,52,52,52,52,52,52,52,52,53,53,53,53,53,
52,52,52,52,52,52,52,52,52,52,52,53,53,53,53,53,
52,52,52,52,52,52,52,52,52,52,52,53,53,53,53,53,
52,52,52,52,52,52,52,52,52,52,52,53,53,53,53,53,
52,52,52,52,52,52,52,52,52,52,52,53,53,53,53,53,
52,52,52,52,52,52,52,52,52,52,52,53,53,53,53,53,
52,52,52,52,52,52,52,52,52,52,52,53,53,53,53,53,
52,52,52,52,52,52,52,52,52,52,52,53,53,53,53,53,
52,52,52,52,52,52,52,52,52,52,52,53,53,53,53,53,
52,52,52,52,52,52,52,52,52,52,52,53,53,53,53,53
</chunk>
   <chunk x="96" y="32" width="16" height="16">
53,53,53,53,53,53,53,53,53,53,53,53,53,53,53,53,
53,53,53,53,53,53,53,53,53,53,53,53,53,53,53,53,
53,53,53,53,53,53,53,53,53,53,53,53,53,53,53,53,
53,53,53,53,53,53,53,53,53,53,53,53,53,53,53,53,
53,53,53,53,53,53,53,53,53,53,53,53,53,53,53,53,
53,53,53,53,53,53,53,53,53,53,53,53,53,53,53,53,
53,53,53,53,53,53,53,53,53,53,53,53,53,53,53,53,
53,53,53,53,53,53,53,53,53,53,53,53,53,53,53,53,
53,53,53,53,53,53,53,53,53,53,53,53,53,53,53,53,
53,53,53,53,53,53,53,53,53,53,53,53,53,53,53,53,
53,53,53,53,53,53,53,53,53,53,53,53,53,53,53,53,
53,53,53,53,53,53,53,53,53,53,53,53,53,53,53,53,
53,53,53,53,53,53,53,53,53,53,53,53,53,53,53,53,
53,53,53,53,53,53,53,53,53,53,53,53,53,53,53,53,
53,53,53,53,53,53,53,53,53,53,53,53,53,53,53,53,
53,53,53,53,53,53,53,53,53,53,53,53,53,53,53,53
</chunk>
   <chunk x="112" y="32" width="16" height="16">
53,53,53,53,53,52,52,52,52,52,52,52,52,52,52,52,
53,53,53,53,53,52,52,52,52,52,52,52,52,52,52,52,
53,53,53,53,53,52,52,52,52,52,52,52,52,52,52,52,
53,53,53,53,53,52,52,52,52,52,52,52,52,52,52,52,
53,53,53,53,53,52,52,52,52,52,52,52,52,52,52,52,
53,53,53,53,53,52,52,52,52,52,52,52,52,52,52,52,
53,53,53,53,53,52,52,52,52,52,52,52,52,52,52,52,
53,53,53,53,53,52,52,52,52,52,52,52,52,52,52,52,
53,53,53,53,53,52,52,52,52,52,52,52,52,52,52,52,
53,53,53,53,53,52,52,52,52,52,52,52,52,52,52,52,
53,53,53,53,53,52,52,52,52,52,52,52,52,52,52,52,
53,53,53,53,53,52,52,52,52,52,52,52,52,52,52,52,
53,53,53,53,53,52,52,52,52,52,52,52,52,52,52,52,
53,53,53,53,53,52,52,52,52,52,52,52,52,52,52,52,
53,53,53,53,53,52,52,52,52,52,52,52,52,52,52,52,
53,53,53,53,53,52,52,52,52,52,52,52,52,52,52,52
</chunk>
   <chunk x="128" y="32" width="16" height="16">
53,53,53,53,53,53,53,53,53,53,53,53,53,53,53,53,
53,53,53,53,53,53,53,53,53,53,53,53,53,53,53,53,
53,53,53,53,53,53,53,53,53,53,53,53,53,53,53,53,
53,53,53,53,53,53,53,53,53,53,53,53,53,53,53,53,
53,53,53,53,53,53,53,53,53,53,53,53,53,53,53,53,
53,53,53,53,53,53,53,53,53,53,53,53,53,53,53,53,
53,53,53,53,53,53,53,53,53,53,53,53,53,53,53,53,
53,53,53,53,53,53,53,53,53,53,53,53,53,53,53,53,
53,53,53,53,53,53,53,53,53,53,53,53,53,53,53,53,
53,53,53,53,53,53,53,53,53,53,53,53,53,53,53,53,
53,53,53,53,53,53,53,53,53,53,53,53,53,53,53,53,
53,53,53,53,53,53,53,53,53,53,53,53,53,53,53,53,
53,53,53,53,53,53,53,53,53,53,53,53,53,53,53,53,
53,53,53,53,53,53,53,53,53,53,53,53,53,53,53,53,
53,53,53,53,53,53,53,53,53,53,53,53,53,53,53,53,
53,53,53,53,53,53,53,53,53,53,53,53,53,53,53,53
</chunk>
   <chunk x="144" y="32" width="16" height="16">
53,53,53,53,53,53,53,53,53,53,53,53,53,53,53,52,
53,53,53,53,53,53,53,53,53,53,53,53,53,53,53,52,
53,53,53,53,53,53,53,53,53,53,53,53,53,53,53,52,
53,53,53,53,53,53,53,53,53,53,53,53,53,53,53,52,
53,53,53,53,53,53,53,53,53,53,53,53,53,53,53,52,
53,53,53,53,53,53,53,53,53,53,53,53,53,53,53,52,
53,53,53,53,53,53,53,53,53,53,53,53,53,53,53,52,
53,53,53,53,53,53,53,53,53,53,53,53,53,53,53,52,
53,53,53,53,53,53,53,53,53,53,53,53,53,53,53,52,
53,53,53,53,53,53,53,53,53,53,53,53,53,53,53,52,
53,53,53,53,53,53,53,53,53,53,53,53,53,53,53,52,
53,53,53,53,53,53,53,53,53,53,53,53,53,53,53,52,
53,53,53,53,53,53,53,53,53,53,53,53,53,53,53,52,
53,53,53,53,53,53,53,53,53,53,53,53,53,53,53,52,
53,53,53,53,53,53,53,53,53,53,53,53,53,53,53,52,
53,53,53,53,53,53,53,53,53,53,53,53,53,53,53,52
</chunk>
   <chunk x="160" y="32" width="16" height="16">
52,52,52,52,52,52,52,52,52,52,52,52,52,52,52,52,
52,52,52,52,52,52,52,52,52,52,52,52,52,52,52,52,
52,52,52,52,52,52,52,52,52,52,52,52,52,52,52,52,
52,52,52,52,52,52,52,52,52,52,52,52,52,52,52,52,
52,52,52,52,52,52,52,52,52,52,52,52,52,52,52,52,
52,52,52,52,52,52,52,52,52,52,52,52,52,52,52,52,
52,52,52,52,52,52,52,52,52,52,52,52,52,52,52,52,
52,52,52,52,52,52,52,52,52,52,52,52,52,52,52,52,
52,52,52,52,52,52,52,52,52,52,52,52,52,52,52,52,
52,52,52,52,52,52,52,52,52,52,52,52,52,52,52,52,
52,52,52,52,52,52,52,52,52,52,52,52,52,52,52,52,
52,52,52,52,52,52,52,52,52,52,52,52,52,52,52,52,
52,52,52,52,52,52,52,52,52,52,52,52,52,52,52,52,
52,52,52,52,52,52,52,52,52,52,52,52,52,52,52,52,
52,52,52,52,52,52,52,52,52,52,52,52,52,52,52,52,
52,52,52,52,52,52,52,52,52,52,52,52,52,52,52,52
</chunk>
   <chunk x="176" y="32" width="16" height="16">
52,53,53,53,53,53,53,53,53,53,53,53,53,53,53,53,
52,53,53,53,53,53,53,53,53,53,53,53,53,53,53,53,
52,53,53,53,53,53,53,53,53,53,53,53,53,53,53,53,
52,53,53,53,53,53,53,53,53,53,53,53,53,53,53,53,
52,53,53,53,53,53,53,53,53,53,53,53,53,53,53,53,
52,53,53,53,53,53,53,53,53,53,53,53,53,53,53,53,
52,53,53,53,53,53,53,53,53,53,53,53,53,53,53,53,
52,53,53,53,53,53,53,53,53,53,53,53,53,53,53,53,
52,53,53,53,53,53,53,53,53,53,53,53,53,53,53,53,
52,53,53,53,53,53,53,53,53,53,53,53,53,53,53,53,
52,53,53,53,53,53,53,53,53,53,53,53,53,53,53,53,
52,53,53,53,53,53,53,53,53,53,53,53,53,53,53,53,
52,53,53,53,53,53,53,53,53,53,53,53,53,53,53,53,
52,53,53,53,53,53,53,53,53,53,53,53,53,53,53,53,
52,53,53,53,53,53,53,53,53,53,53,53,53,53,53,53,
52,53,53,53,53,53,53,53,53,53,53,53,53,53,53,53
</chunk>
   <chunk x="192" y="32" width="16" height="16">
53,53,53,53,53,53,53,53,53,53,53,53,53,53,53,53,
53,53,53,53,53,53,53,53,53,53,53,53,53,53,53,53,
53,53,53,53,53,53,53,53,53,53,53,53,53,53,53,53,
53,53,53,53,53,53,53,53,53,53,53,53,53,53,53,53,
53,53,53,53,53,53,53,53,53,53,53,53,53,53,53,53,
53,53,53,53,53,53,53,53,53,53,53,53,53,53,53,53,
53,53,53,53,53,53,53,53,53,53,53,53,53,53,53,53,
53,53,53,53,53,53,53,53,53,53,53,53,53,53,53,53,
53,53,53,53,53,53,53,53,53,53,53,53,53,53,53,53,
53,53,53,53,53,53,53,53,53,53,53,53,53,53,53,53,
53,53,53,53,53,53,53,53,53,53,53,53,53,53,53,53,
53,53,53,53,53,53,53,53,53,53,53,53,53,53,53,53,
53,53,53,53,53,53,53,53,53,53,53,53,53,53,53,53,
53,53,53,53,53,53,53,53,53,53,53,53,53,53,53,53,
53,53,53,53,53,53,53,53,53,53,53,53,53,53,53,53,
53,53,53,53,53,53,53,53,53,53,53,53,53,53,53,53
</chunk>
   <chunk x="208" y="32" width="16" height="16">
53,53,53,53,53,53,53,53,53,53,53,53,53,53,53,53,
53,53,53,53,53,53,53,53,53,53,53,53,53,53,53,53,
53,53,53,53,53,53,53,53,53,53,53,53,53,53,53,53,
53,53,53,53,53,53,53,53,53,53,53,53,53,53,53,53,
53,53,53,53,53,53,53,53,53,53,53,53,53,53,53,53,
53,53,53,53,53,53,53,53,53,53,53,53,53,53,53,53,
53,53,53,53,53,53,53,53,53,53,53,53,53,53,53,53,
53,53,53,53,53,53,53,53,53,53,53,53,53,53,53,53,
53,53,53,53,53,53,53,53,53,53,53,53,53,53,53,53,
53,53,53,53,53,53,53,53,53,53,53,53,53,53,53,53,
53,53,53,53,53,53,53,53,53,53,53,53,53,53,53,53,
53,53,53,53,53,53,53,53,53,53,53,53,53,53,53,53,
53,53,53,53,53,53,53,53,53,53,53,53,53,53,53,53,
53,53,53,53,53,53,53,53,53,53,53,53,53,53,53,53,
53,53,53,53,53,53,53,53,53,53,53,53,53,53,53,53,
53,53,53,53,53,53,53,53,53,53,53,53,53,53,53,53
</chunk>
   <chunk x="224" y="32" width="16" height="16">
53,53,53,53,53,53,53,52,52,52,52,52,52,52,52,52,
53,53,53,53,53,53,53,52,52,52,52,52,52,52,52,52,
53,53,53,53,53,53,53,52,52,52,52,52,52,52,52,52,
53,53,53,53,53,53,53,52,52,52,52,52,52,52,52,52,
53,53,53,53,53,53,53,52,52,52,52,52,52,52,52,52,
53,53,53,53,53,53,53,52,52,52,52,52,52,52,52,52,
53,53,53,53,53,53,53,52,52,52,52,52,52,52,52,52,
53,53,53,53,53,53,53,52,52,52,52,52,52,52,52,52,
53,53,53,53,53,53,53,52,52,52,52,52,52,52,52,52,
53,53,53,53,53,53,53,52,52,52,52,52,52,52,52,52,
53,53,53,53,53,53,53,52,52,52,52,52,52,52,52,52,
53,53,53,53,53,53,53,52,52,52,52,52,52,52,52,52,
53,53,53,53,53,53,53,52,52,52,52,52,52,52,52,52,
53,53,53,53,53,53,53,52,52,52,52,52,52,52,52,52,
53,53,53,53,53,53,53,52,52,52,52,52,52,52,52,52,
53,53,53,53,53,53,53,52,52,52,52,52,52,52,52,52
</chunk>
   <chunk x="240" y="32" width="16" height="16">
52,52,52,52,52,52,52,52,52,52,52,52,52,52,52,52,
52,52,52,52,52,52,52,52,52,52,52,52,52,52,52,52,
52,52,52,52,52,52,52,52,52,52,52,52,52,52,52,52,
52,52,52,52,52,52,52,52,52,52,52,52,52,52,52,52,
52,52,52,52,52,52,52,52,52,52,52,52,52,52,52,52,
52,52,52,52,52,52,52,52,52,52,52,52,52,52,52,52,
52,52,52,52,52,52,52,52,52,52,52,52,52,52,52,52,
52,52,52,52,52,52,52,52,52,52,52,52,52,52,52,52,
52,52,52,52,52,52,52,52,52,52,52,52,52,52,52,52,
52,52,52,52,52,52,52,52,52,52,52,52,52,52,52,52,
52,52,52,52,52,52,52,52,52,52,52,52,52,52,52,52,
52,52,52,52,52,52,52,52,52,52,52,52,52,52,52,52,
52,52,52,52,52,52,52,52,52,52,52,52,52,52,52,52,
52,52,52,52,52,52,52,52,52,52,52,52,52,52,52,52,
52,52,52,52,52,52,52,52,52,52,52,52,52,52,52,52,
52,52,52,52,52,52,52,52,52,52,52,52,52,52,52,52
</chunk>
   <chunk x="256" y="32" width="16" height="16">
52,52,52,52,52,52,52,52,52,52,52,52,52,52,52,52,
52,52,52,52,52,52,52,52,52,52,52,52,52,52,52,52,
52,52,52,52,52,52,52,52,52,52,52,52,52,52,52,52,
52,52,52,52,52,52,52,52,52,52,52,52,52,52,52,52,
52,52,52,52,52,52,52,52,52,52,52,52,52,52,52,52,
52,52,52,52,52,52,52,52,52,52,52,52,52,52,52,52,
52,52,52,52,52,52,52,52,52,52,52,52,52,52,52,52,
52,52,52,52,52,52,52,52,52,52,52,52,52,52,52,52,
52,52,52,52,52,52,52,52,52,52,52,52,52,52,52,52,
52,52,52,52,52,52,52,52,52,52,52,52,52,52,52,52,
52,52,52,52,52,52,52,52,52,52,52,52,52,52,52,52,
52,52,52,52,52,52,52,52,52,52,52,52,52,52,52,52,
52,52,52,52,52,52,52,52,52,52,52,52,52,52,52,52,
52,52,52,52,52,52,52,52,52,52,52,52,52,52,52,52,
52,52,52,52,52,52,52,52,52,52,52,52,52,52,52,52,
52,52,52,52,52,52,52,52,52,52,52,52,52,52,52,52
</chunk>
   <chunk x="272" y="32" width="16" height="16">
52,52,52,52,52,52,52,52,52,52,52,52,52,52,52,52,
52,52,52,52,52,52,52,52,52,52,52,52,52,52,52,52,
52,52,52,52,52,52,52,52,52,52,52,52,52,52,52,52,
52,52,52,52,52,52,52,52,52,52,52,52,52,52,52,52,
52,52,52,52,52,52,52,52,52,52,52,52,52,52,52,52,
52,52,52,52,52,52,52,52,52,52,52,52,52,52,52,52,
52,52,52,52,52,52,52,52,52,52,52,52,52,52,52,52,
52,52,52,52,52,52,52,52,52,52,52,52,52,52,52,52,
52,52,52,52,52,52,52,52,52,52,52,52,52,52,52,52,
52,52,52,52,52,52,52,52,52,52,52,52,52,52,52,52,
52,52,52,52,52,52,52,52,52,52,52,52,52,52,52,52,
52,52,52,52,52,52,52,52,52,52,52,52,52,52,52,52,
52,52,52,52,52,52,52,52,52,52,52,52,52,52,52,52,
52,52,52,52,52,52,52,52,52,52,52,52,52,52,52,52,
52,52,52,52,52,52,52,52,52,52,52,52,52,52,52,52,
52,52,52,52,52,52,52,52,52,52,52,52,52,52,52,52
</chunk>
   <chunk x="288" y="32" width="16" height="16">
52,52,52,52,52,52,52,52,52,52,52,52,52,52,52,52,
52,52,52,52,52,52,52,52,52,52,52,52,52,52,52,52,
52,52,52,52,52,52,52,52,52,52,52,52,52,52,52,52,
52,52,52,52,52,52,52,52,52,52,52,52,52,52,52,52,
52,52,52,52,52,52,52,52,52,52,52,52,52,52,52,52,
52,52,52,52,52,52,52,52,52,52,52,52,52,52,52,52,
52,52,52,52,52,52,52,52,52,52,52,52,52,52,52,52,
52,52,52,52,52,52,52,52,52,52,52,52,52,52,52,52,
52,52,52,52,52,52,52,52,52,52,52,52,52,52,52,52,
52,52,52,52,52,52,52,52,52,52,52,52,52,52,52,52,
52,52,52,52,52,52,52,52,52,52,52,52,52,52,52,52,
52,52,52,52,52,52,52,52,52,52,52,52,52,52,52,52,
52,52,52,52,52,52,52,52,52,52,52,52,52,52,52,52,
52,52,52,52,52,52,52,52,52,52,52,52,52,52,52,52,
52,52,52,52,52,52,52,52,52,52,52,52,52,52,52,52,
52,52,52,52,52,52,52,52,52,52,52,52,52,52,52,52
</chunk>
   <chunk x="304" y="32" width="16" height="16">
52,52,52,52,52,52,52,52,52,52,52,52,52,52,52,52,
52,52,52,52,52,52,52,52,52,52,52,52,52,52,52,52,
52,52,52,52,52,52,52,52,52,52,52,52,52,52,52,52,
52,52,52,52,52,52,52,52,52,52,52,52,52,52,52,52,
52,52,52,52,52,52,52,52,52,52,52,52,52,52,52,52,
52,52,52,52,52,52,52,52,52,52,52,52,52,52,52,52,
52,52,52,52,52,52,52,52,52,52,52,52,52,52,52,52,
52,52,52,52,52,52,52,52,52,52,52,52,52,52,52,52,
52,52,52,52,52,52,52,52,52,52,52,52,52,52,52,52,
52,52,52,52,52,52,52,52,52,52,52,52,52,52,52,52,
52,52,52,52,52,52,52,52,52,52,52,52,52,52,52,52,
52,52,52,52,52,52,52,52,52,52,52,52,52,52,52,52,
52,52,52,52,52,52,52,52,52,52,52,52,52,52,52,52,
52,52,52,52,52,52,52,52,52,52,52,52,52,52,52,52,
52,52,52,52,52,52,52,52,52,52,52,52,52,52,52,52,
52,52,52,52,52,52,52,52,52,52,52,52,52,52,52,52
</chunk>
   <chunk x="0" y="48" width="16" height="16">
52,52,52,52,52,53,53,53,53,53,53,53,53,53,53,53,
52,52,52,52,52,53,53,53,53,53,53,53,53,53,53,53,
52,52,52,52,52,53,53,53,53,53,53,53,53,53,53,53,
52,52,52,52,52,53,53,53,53,53,53,53,53,53,53,53,
52,52,52,52,52,53,53,53,53,53,53,53,53,53,53,53,
52,52,52,52,52,53,53,53,53,53,53,53,53,53,53,53,
52,52,52,52,52,53,53,53,53,53,53,53,53,53,53,53,
52,52,52,52,52,53,53,53,53,53,53,53,53,53,53,53,
52,52,52,52,52,53,53,53,53,53,53,53,53,53,53,53,
52,52,52,52,52,53,53,53,53,53,53,53,53,53,53,53,
52,52,52,52,52,53,53,53,53,53,53,53,53,53,53,53,
52,52,52,52,52,53,53,53,53,53,53,53,53,53,53,53,
52,52,52,52,52,53,53,53,53,53,53,53,53,53,53,53,
52,52,52,52,52,53,53,53,53,53,53,53,53,53,53,53,
52,52,52,52,52,53,53,53,53,53,53,53,53,53,53,53,
52,52,52,52,52,53,53,53,53,53,53,53,53,53,53,53
</chunk>
   <chunk x="16" y="48" width="16" height="16">
53,53,52,52,52,52,52,52,52,52,52,52,52,52,52,53,
53,53,52,52,52,52,52,52,52,52,52,52,52,52,52,53,
53,53,52,52,52,52,52,52,52,52,52,52,52,52,52,53,
53,53,52,52,52,52,52,52,52,52,52,52,52,52,52,53,
53,53,52,52,52,52,52,52,52,52,52,52,52,52,52,53,
53,53,52,52,52,52,52,52,52,52,52,52,52,52,52,53,
53,53,52,52,52,52,52,52,52,52,52,52,52,52,52,53,
53,53,52,52,52,52,52,52,52,52,52,52,52,52,52,53,
53,53,52,52,52,52,52,52,52,52,52,52,52,52,52,53,
53,53,52,52,52,52,52,52,52,52,52,52,52,52,52,53,
53,53,52,52,52,52,52,52,52,52,52,52,52,52,52,53,
53,53,52,52,52,52,52,52,52,52,52,52,52,52,52,53,
53,53,52,52,52,52,52,52,52,52,52,52,52,52,52,53,
53,53,52,52,52,52,52,52,52,52,52,52,52,52,52,53,
53,53,52,52,52,52,52,52,52,52,52,52,52,52,52,53,
53,53,52,52,52,52,52,52,52,52,52,52,52,52,52,53
</chunk>
   <chunk x="32" y="48" width="16" height="16">
53,53,53,53,53,53,53,53,53,53,53,53,52,52,52,52,
53,53,53,53,53,53,53,53,53,53,53,53,52,52,52,52,
53,53,53,53,53,53,53,53,53,53,53,53,52,52,52,52,
53,53,53,53,53,53,53,53,53,53,53,53,52,52,52,52,
53,53,53,53,53,53,53,53,53,53,53,53,52,52,52,52,
53,53,53,53,53,53,53,53,53,53,53,53,52,52,52,52,
53,53,53,53,53,53,53,53,53,53,53,53,52,52,52,52,
53,53,53,53,53,53,53,53,53,53,53,53,52,52,52,52,
53,53,53,53,53,53,53,53,53,53,53,53,52,52,52,52,
53,53,53,53,53,53,53,53,53,53,53,53,52,52,52,52,
53,53,53,53,53,53,53,53,53,53,53,53,52,52,52,52,
53,53,53,53,53,53,53,53,53,53,53,53,52,52,52,52,
53,53,53,53,53,53,53,53,53,53,53,53,52,52,52,52,
53,53,53,53,53,53,53,53,53,53,53,53,52,52,52,52,
53,53,53,53,53,53,53,53,53,53,53,53,52,52,52,52,
53,53,53,53,53,53,53,53,53,53,53,53,52,52,52,52
</chunk>
   <chunk x="48" y="48" width="16" height="16">
52,52,52,52,52,52,52,52,52,53,53,53,53,53,53,53,
52,52,52,52,52,52,52,52,52,53,53,53,53,53,53,53,
52,52,52,52,52,52,52,52,52,53,53,53,53,53,53,53,
52,52,52,52,52,52,52,52,52,53,53,53,53,53,53,53,
52,52,52,52,52,52,52,52,52,53,53,53,53,53,53,53,
52,52,52,52,52,52,52,52,52,53,53,53,53,53,53,53,
52,52,52,52,52,52,52,52,52,53,53,53,53,53,53,53,
52,52,52,52,52,52,52,52,52,53,53,53,53,53,53,53,
52,52,52,52,52,52,52,52,52,53,53,53,53,53,53,53,
52,52,52,52,52,52,52,52,52,53,53,53,53,53,53,53,
52,52,52,52,52,52,52,52,52,53,53,53,53,53,53,53,
52,52,52,52,52,52,52,52,52,53,53,53,53,53,53,53,
52,52,52,52,52,52,52,52,52,53,53,53,53,53,53,53,
52,52,52,52,52,52,52,52,52,53,53,53,53,53,53,53,
52,52,52,52,52,52,52,52,52,53,53,53,53,53,53,53,
52,52,52,52,52,52,52,52,52,53,53,53,53,53,53,53
</chunk>
   <chunk x="64" y="48" width="16" height="16">
53,53,53,53,53,53,53,53,53,53,52,52,52,52,52,52,
53,53,53,53,53,53,53,53,53,53,52,52,52,52,52,52,
53,53,53,53,53,53,53,53,53,53,52,52,52,52,52,52,
53,53,53,53,53,53,53,53,53,53,52,52,52,52,52,52,
53,53,53,53,53,53,53,53,53,53,52,52,52,52,52,52,
53,53,53,53,53,53,53,53,53,53,52,52,52,52,52,52,
53,53,53,53,53,53,53,53,53,53,52,52,52,52,52,52,
53,53,53,53,53,53,53,53,53,53,52,52,52,52,52,52,
53,53,53,53,53,53,53,53,53,53,52,52,52,52,52,52,
53,53,53,53,53,53,53,53,53,53,52,52,52,52,52,52,
53,53,53,53,53,53,53,53,53,53,52,52,52,52,52,52,
53,53,53,53,53,53,53,53,53,53,52,52,52,52,52,52,
53,53,53,53,53,53,53,53,53,53,52,52,52,52,52,52,
53,53,53,53,53,53,53,53,53,53,52,52,52,52,52,52,
53,53,53,53,53,53,53,53,53,53,52,52,52,52,52,52,
53,53,53,53,53,53,53,53,53,53,52,52,52,52,52,52
</chunk>
   <chunk x="80" y="48" width="16" height="16">
52,52,52,52,52,52,52,52,52,52,52,53,53,53,53,53,
52,52,52,52,52,52,52,52,52,52,52,53,53,53,53,53,
52,52,52,52,52,52,52,52,52,52,52,53,53,53,53,53,
52,52,52,52,52,52,52,52,52,52,52,53,53,53,53,53,
52,52,52,52,52,52,52,52,52,52,52,53,53,53,53,53,
52,52,52,52,52,52,52,52,52,52,52,53,53,53,53,53,
52,52,52,52,52,52,52,52,52,52,52,53,53,53,53,53,
52,52,52,52,52,52,52,52,52,52,52,53,53,53,53,53,
52,52,52,52,52,52,52,52,52,52,52,53,53,53,53,53,
52,52,52,52,52,52,52,52,52,52,52,53,53,53,53,53,
52,52,52,52,52,52,52,52,52,52,52,53,53,53,53,53,
52,52,52,52,52,52,52,52,52,52,52,53,53,53,53,53,
52,52,52,52,52,52,52,52,52,52,52,53,53,53,53,53,
52,52,52,52,52,52,52,52,52,52,52,53,53,53,53,53,
52,52,52,52,52,52,52,52,52,52,52,53,53,53,53,53,
52,52,52,52,52,52,52,52,52,52,52,53,53,53,53,53
</chunk>
   <chunk x="96" y="48" width="16" height="16">
53,53,53,53,53,53,53,53,53,53,53,53,53,53,53,53,
53,53,53,53,53,53,53,53,53,53,53,53,53,53,53,53,
53,53,53,53,53,53,53,53,53,53,53,53,53,53,53,53,
53,53,53,53,53,53,53,53,53,53,53,53,53,53,53,53,
53,53,53,53,53,53,53,53,53,53,53,53,53,53,53,53,
53,53,53,53,53,53,53,53,53,53,53,53,53,53,53,53,
53,53,53,53,53,53,53,53,53,53,53,53,53,53,53,53,
53,53,53,53,53,53,53,53,53,53,53,53,53,53,53,53,
53,53,53,53,53,53,53,53,53,53,53,53,53,53,53,53,
53,53,53,53,53,53,53,53,53,53,53,53,53,53,53,53,
53,53,53,53,53,53,53,53,53,53,53,53,53,53,53,53,
53,53,53,53,53,53,53,53,53,53,53,53,53,53,53,53,
53,53,53,53,53,53,53,53,53,53,53,53,53,53,53,53,
53,53,53,53,53,53,53,53,53,53,53,53,53,53,53,53,
53,53,53,53,53,53,53,53,53,53,53,53,53,53,53,53,
53,53,53,53,53,53,53,53,53,53,53,53,53,53,53,53
</chunk>
   <chunk x="112" y="48" width="16" height="16">
53,53,53,53,53,52,52,52,52,52,52,52,52,52,52,52,
53,53,53,53,53,52,52,52,52,52,52,52,52,52,52,52,
53,53,53,53,53,52,52,52,52,52,52,52,52,52,52,52,
53,53,53,53,53,52,52,52,52,52,52,52,52,52,52,52,
53,53,53,53,53,52,52,52,52,52,52,52,52,52,52,52,
53,53,53,53,53,52,52,52,52,52,52,52,52,52,52,52,
53,53,53,53,53,52,52,52,52,52,52,52,52,52,52,52,
53,53,53,53,53,52,52,52,52,52,52,52,52,52,52,52,
53,53,53,53,53,52,52,52,52,52,52,52,52,52,52,52,
53,53,53,53,53,52,52,52,52,52,52,52,52,52,52,52,
53,53,53,53,53,52,52,52,52,52,52,52,52,52,52,52,
53,53,53,53,53,52,52,52,52,52,52,52,52,52,52,52,
53,53,53,53,53,52,52,52,52,52,52,52,52,52,52,52,
53,53,53,53,53,52,52,52,52,52,52,52,52,52,52,52,
53,53,53,53,53,52,52,52,52,52,52,52,52,52,52,52,
53,53,53,53,53,52,52,52,52,52,52,52,52,52,52,52
</chunk>
   <chunk x="128" y="48" width="16" height="16">
53,53,53,53,53,53,53,53,53,53,53,53,53,53,53,53,
53,53,53,53,53,53,53,53,53,53,53,53,53,53,53,53,
53,53,53,53,53,53,53,53,53,53,53,53,53,53,53,53,
53,53,53,53,53,53,53,53,53,53,53,53,53,53,53,53,
53,53,53,53,53,53,53,53,53,53,53,53,53,53,53,53,
53,53,53,53,53,53,53,53,53,53,53,53,53,53,53,53,
53,53,53,53,53,53,53,53,53,53,53,53,53,53,53,53,
53,53,53,53,53,53,53,53,53,53,53,53,53,53,53,53,
53,53,53,53,53,53,53,53,53,53,53,53,53,53,53,53,
53,53,53,53,53,53,53,53,53,53,53,53,53,53,53,53,
53,53,53,53,53,53,53,53,53,53,53,53,53,53,53,53,
53,53,53,53,53,53,53,53,53,53,53,53,53,53,53,53,
53,53,53,53,53,53,53,53,53,53,53,53,53,53,53,53,
53,53,53,53,53,53,53,53,53,53,53,53,53,53,53,53,
53,53,53,53,53,53,53,53,53,53,53,53,53,53,53,53,
53,53,53,53,53,53,53,53,53,53,53,53,53,53,53,53
</chunk>
   <chunk x="144" y="48" width="16" height="16">
53,53,53,53,53,53,53,53,53,53,53,53,53,53,53,52,
53,53,53,53,53,53,53,53,53,53,53,53,53,53,53,52,
53,53,53,53,53,53,53,53,53,53,53,53,53,53,53,52,
53,53,53,53,53,53,53,53,53,53,53,53,53,53,53,52,
53,53,53,53,53,53,53,53,53,53,53,53,53,53,53,52,
53,53,53,53,53,53,53,53,53,53,53,53,53,53,53,52,
53,53,53,53,53,53,53,53,53,53,53,53,53,53,53,52,
53,53,53,53,53,53,53,53,53,53,53,53,53,53,53,52,
53,53,53,53,53,53,53,53,53,53,53,53,53,53,53,52,
53,53,53,53,53,53,53,53,53,53,53,53,53,53,53,52,
53,53,53,53,53,53,53,53,53,53,53,53,53,53,53,52,
53,53,53,53,53,53,53,53,53,53,53,53,53,53,53,52,
53,53,53,53,53,53,53,53,53,53,53,53,53,53,53,52,
53,53,53,53,53,53,53,53,53,53,53,53,53,53,53,52,
53,53,53,53,53,53,53,53,53,53,53,53,53,53,53,52,
53,53,53,53,53,53,53,53,53,53,53,53,53,53,53,52
</chunk>
   <chunk x="160" y="48" width="16" height="16">
52,52,52,52,52,52,52,52,52,52,52,52,52,52,52,52,
52,52,52,52,52,52,52,52,52,52,52,52,52,52,52,52,
52,52,52,52,52,52,52,52,52,52,52,52,52,52,52,52,
52,52,52,52,52,52,52,52,52,52,52,52,52,52,52,52,
52,52,52,52,52,52,52,52,52,52,52,52,52,52,52,52,
52,52,52,52,52,52,52,52,52,52,52,52,52,52,52,52,
52,52,52,52,52,52,52,52,52,52,52,52,52,52,52,52,
52,52,52,52,52,52,52,52,52,52,52,52,52,52,52,52,
52,52,52,52,52,52,52,52,52,52,52,52,52,52,52,52,
52,52,52,52,52,52,52,52,52,52,52,52,52,52,52,52,
52,52,52,52,52,52,52,52,52,52,52,52,52,52,52,52,
52,52,52,52,52,52,52,52,52,52,52,52,52,52,52,52,
52,52,52,52,52,52,52,52,52,52,52,52,52,52,52,52,
52,52,52,52,52,52,52,52,52,52,52,52,52,52,52,52,
52,52,52,52,52,52,52,52,52,52,52,52,52,52,52,52,
52,52,52,52,52,52,52,52,52,52,52,52,52,52,52,52
</chunk>
   <chunk x="176" y="48" width="16" height="16">
52,53,53,53,53,53,53,53,53,53,53,53,53,53,53,53,
52,53,53,53,53,53,53,53,53,53,53,53,53,53,53,53,
52,53,53,53,53,53,53,53,53,53,53,53,53,53,53,53,
52,53,53,53,53,53,53,53,53,53,53,53,53,53,53,53,
52,53,53,53,53,53,53,53,53,53,53,53,53,53,53,53,
52,53,53,53,53,53,53,53,53,53,53,53,53,53,53,53,
52,53,53,53,53,53,53,53,53,53,53,53,53,53,53,53,
52,53,53,53,53,53,53,53,53,53,53,53,53,53,53,53,
52,53,53,53,53,53,53,53,53,53,53,53,53,53,53,53,
52,53,53,53,53,53,53,53,53,53,53,53,53,53,53,53,
52,53,53,53,53,53,53,53,53,53,53,53,53,53,53,53,
52,53,53,53,53,53,53,53,53,53,53,53,53,53,53,53,
52,53,53,53,53,53,53,53,53,53,53,53,53,53,53,53,
52,53,53,53,53,53,53,53,53,53,53,53,53,53,53,53,
52,53,53,53,53,53,53,53,53,53,53,53,53,53,53,53,
52,53,53,53,53,53,53,53,53,53,53,53,53,53,53,53
</chunk>
   <chunk x="192" y="48" width="16" height="16">
53,53,53,53,53,53,53,53,53,53,53,53,53,53,53,53,
53,53,53,53,53,53,53,53,53,53,53,53,53,53,53,53,
53,53,53,53,53,53,53,53,53,53,53,53,53,53,53,53,
53,53,53,53,53,53,53,53,53,53,53,53,53,53,53,53,
53,53,53,53,53,53,53,53,53,53,53,53,53,53,53,53,
53,53,53,53,53,53,53,53,53,53,53,53,53,53,53,53,
53,53,53,53,53,53,53,53,53,53,53,53,53,53,53,53,
53,53,53,53,53,53,53,53,53,53,53,53,53,53,53,53,
53,53,53,53,53,53,53,53,53,53,53,53,53,53,53,53,
53,53,53,53,53,53,53,53,53,53,53,53,53,53,53,53,
53,53,53,53,53,53,53,53,53,53,53,53,53,53,53,53,
53,53,53,53,53,53,53,53,53,53,53,53,53,53,53,53,
53,53,53,53,53,53,53,53,53,53,53,53,53,53,53,53,
53,53,53,53,53,53,53,53,53,53,53,53,53,53,53,53,
53,53,53,53,53,53,53,53,53,53,53,53,53,53,53,53,
53,53,53,53,53,53,53,53,53,53,53,53,53,53,53,53
</chunk>
   <chunk x="208" y="48" width="16" height="16">
53,53,53,53,53,53,53,53,53,53,53,53,53,53,53,53,
53,53,53,53,53,53,53,53,53,53,53,53,53,53,53,53,
53,53,53,53,53,53,53,53,53,53,53,53,53,53,53,53,
53,53,53,53,53,53,53,53,53,53,53,53,53,53,53,53,
53,53,53,53,53,53,53,53,53,53,53,53,53,53,53,53,
53,53,53,53,53,53,53,53,53,53,53,53,53,53,53,53,
53,53,53,53,53,53,53,53,53,53,53,53,53,53,53,53,
53,53,53,53,53,53,53,53,53,53,53,53,53,53,53,53,
53,53,53,53,53,53,53,53,53,53,53,53,53,53,53,53,
53,53,53,53,53,53,53,53,53,53,53,53,53,53,53,53,
53,53,53,53,53,53,53,53,53,53,53,53,53,53,53,53,
53,53,53,53,53,53,53,53,53,53,53,53,53,53,53,53,
53,53,53,53,53,53,53,53,53,53,53,53,53,53,53,53,
53,53,53,53,53,53,53,53,53,53,53,53,53,53,53,53,
53,53,53,53,53,53,53,53,53,53,53,53,53,53,53,53,
53,53,53,53,53,53,53,53,53,53,53,53,53,53,53,53
</chunk>
   <chunk x="224" y="48" width="16" height="16">
53,53,53,53,53,53,53,52,52,52,52,52,52,52,52,52,
53,53,53,53,53,53,53,52,52,52,52,52,52,52,52,52,
53,53,53,53,53,53,53,52,52,52,52,52,52,52,52,52,
53,53,53,53,53,53,53,52,52,52,52,52,52,52,52,52,
53,53,53,53,53,53,53,52,52,52,52,52,52,52,52,52,
53,53,53,53,53,53,53,52,52,52,52,52,52,52,52,52,
53,53,53,53,53,53,53,52,52,52,52,52,52,52,52,52,
53,53,53,53,53,53,53,52,52,52,52,52,52,52,52,52,
53,53,53,53,53,53,53,52,52,52,52,52,52,52,52,52,
53,53,53,53,53,53,53,52,52,52,52,52,52,52,52,52,
53,53,53,53,53,53,53,52,52,52,52,52,52,52,52,52,
53,53,53,53,53,53,53,52,52,52,52,52,52,52,52,52,
53,53,53,53,53,53,53,52,52,52,52,52,52,52,52,52,
53,53,53,53,53,53,53,52,52,52,52,52,52,52,52,52,
53,53,53,53,53,53,53,52,52,52,52,52,52,52,52,52,
53,53,53,53,53,53,53,52,52,52,52,52,52,52,52,52
</chunk>
   <chunk x="240" y="48" width="16" height="16">
52,52,52,52,52,52,52,52,52,52,52,52,52,52,52,52,
52,52,52,52,52,52,52,52,52,52,52,52,52,52,52,52,
52,52,52,52,52,52,52,52,52,52,52,52,52,52,52,52,
52,52,52,52,52,52,52,52,52,52,52,52,52,52,52,52,
52,52,52,52,52,52,52,52,52,52,52,52,52,52,52,52,
52,52,52,52,52,52,52,52,52,52,52,52,52,52,52,52,
52,52,52,52,52,52,52,52,52,52,52,52,52,52,52,52,
52,52,52,52,52,52,52,52,52,52,52,52,52,52,52,52,
52,52,52,52,52,52,52,52,52,52,52,52,52,52,52,52,
52,52,52,52,52,52,52,52,52,52,52,52,52,52,52,52,
52,52,52,52,52,52,52,52,52,52,52,52,52,52,52,52,
52,52,52,52,52,52,52,52,52,52,52,52,52,52,52,52,
52,52,52,52,52,52,52,52,52,52,52,52,52,52,52,52,
52,52,52,52,52,52,52,52,52,52,52,52,52,52,52,52,
52,52,52,52,52,52,52,52,52,52,52,52,52,52,52,52,
52,52,52,52,52,52,52,52,52,52,52,52,52,52,52,52
</chunk>
   <chunk x="256" y="48" width="16" height="16">
52,52,52,52,52,52,52,52,52,52,52,52,52,52,52,52,
52,52,52,52,52,52,52,52,52,52,52,52,52,52,52,52,
52,52,52,52,52,52,52,52,52,52,52,52,52,52,52,52,
52,52,52,52,52,52,52,52,52,52,52,52,52,52,52,52,
52,52,52,52,52,52,52,52,52,52,52,52,52,52,52,52,
52,52,52,52,52,52,52,52,52,52,52,52,52,52,52,52,
52,52,52,52,52,52,52,52,52,52,52,52,52,52,52,52,
52,52,52,52,52,52,52,52,52,52,52,52,52,52,52,52,
52,52,52,52,52,52,52,52,52,52,52,52,52,52,52,52,
52,52,52,52,52,52,52,52,52,52,52,52,52,52,52,52,
52,52,52,52,52,52,52,52,52,52,52,52,52,52,52,52,
52,52,52,52,52,52,52,52,52,52,52,52,52,52,52,52,
52,52,52,52,52,52,52,52,52,52,52,52,52,52,52,52,
52,52,52,52,52,52,52,52,52,52,52,52,52,52,52,52,
52,52,52,52,52,52,52,52,52,52,52,52,52,52,52,52,
52,52,52,52,52,52,52,52,52,52,52,52,52,52,52,52
</chunk>
   <chunk x="272" y="48" width="16" height="16">
52,52,52,52,52,52,52,52,52,52,52,52,52,52,52,52,
52,52,52,52,52,52,52,52,52,52,52,52,52,52,52,52,
52,52,52,52,52,52,52,52,52,52,52,52,52,52,52,52,
52,52,52,52,52,52,52,52,52,52,52,52,52,52,52,52,
52,52,52,52,52,52,52,52,52,52,52,52,52,52,52,52,
52,52,52,52,52,52,52,52,52,52,52,52,52,52,52,52,
52,52,52,52,52,52,52,52,52,52,52,52,52,52,52,52,
52,52,52,52,52,52,52,52,52,52,52,52,52,52,52,52,
52,52,52,52,52,52,52,52,52,52,52,52,52,52,52,52,
52,52,52,52,52,52,52,52,52,52,52,52,52,52,52,52,
52,52,52,52,52,52,52,52,52,52,52,52,52,52,52,52,
52,52,52,52,52,52,52,52,52,52,52,52,52,52,52,52,
52,52,52,52,52,52,52,52,52,52,52,52,52,52,52,52,
52,52,52,52,52,52,52,52,52,52,52,52,52,52,52,52,
52,52,52,52,52,52,52,52,52,52,52,52,52,52,52,52,
52,52,52,52,52,52,52,52,52,52,52,52,52,52,52,52
</chunk>
   <chunk x="288" y="48" width="16" height="16">
52,52,52,52,52,52,52,52,52,52,52,52,52,52,52,52,
52,52,52,52,52,52,52,52,52,52,52,52,52,52,52,52,
52,52,52,52,52,52,52,52,52,52,52,52,52,52,52,52,
52,52,52,52,52,52,52,52,52,52,52,52,52,52,52,52,
52,52,52,52,52,52,52,52,52,52,52,52,52,52,52,52,
52,52,52,52,52,52,52,52,52,52,52,52,52,52,52,52,
52,52,52,52,52,52,52,52,52,52,52,52,52,52,52,52,
52,52,52,52,52,52,52,52,52,52,52,52,52,52,52,52,
52,52,52,52,52,52,52,52,52,52,52,52,52,52,52,52,
52,52,52,52,52,52,52,52,52,52,52,52,52,52,52,52,
52,52,52,52,52,52,52,52,52,52,52,52,52,52,52,52,
52,52,52,52,52,52,52,52,52,52,52,52,52,52,52,52,
52,52,52,52,52,52,52,52,52,52,52,52,52,52,52,52,
52,52,52,52,52,52,52,52,52,52,52,52,52,52,52,52,
52,52,52,52,52,52,52,52,52,52,52,52,52,52,52,52,
52,52,52,52,52,52,52,52,52,52,52,52,52,52,52,52
</chunk>
   <chunk x="304" y="48" width="16" height="16">
52,52,52,52,52,52,52,52,52,52,52,52,52,52,52,52,
52,52,52,52,52,52,52,52,52,52,52,52,52,52,52,52,
52,52,52,52,52,52,52,52,52,52,52,52,52,52,52,52,
52,52,52,52,52,52,52,52,52,52,52,52,52,52,52,52,
52,52,52,52,52,52,52,52,52,52,52,52,52,52,52,52,
52,52,52,52,52,52,52,52,52,52,52,52,52,52,52,52,
52,52,52,52,52,52,52,52,52,52,52,52,52,52,52,52,
52,52,52,52,52,52,52,52,52,52,52,52,52,52,52,52,
52,52,52,52,52,52,52,52,52,52,52,52,52,52,52,52,
52,52,52,52,52,52,52,52,52,52,52,52,52,52,52,52,
52,52,52,52,52,52,52,52,52,52,52,52,52,52,52,52,
52,52,52,52,52,52,52,52,52,52,52,52,52,52,52,52,
52,52,52,52,52,52,52,52,52,52,52,52,52,52,52,52,
52,52,52,52,52,52,52,52,52,52,52,52,52,52,52,52,
52,52,52,52,52,52,52,52,52,52,52,52,52,52,52,52,
52,52,52,52,52,52,52,52,52,52,52,52,52,52,52,52
</chunk>
   <chunk x="0" y="64" width="16" height="16">
52,52,52,52,52,53,53,53,53,53,53,53,53,53,53,53,
52,52,52,52,52,53,53,53,53,53,53,53,53,53,53,53,
52,52,52,52,52,53,53,53,53,53,53,53,53,53,53,53,
52,52,52,52,52,53,53,53,53,53,53,53,53,53,53,53,
52,52,52,52,52,53,53,53,53,53,53,53,53,53,53,53,
52,52,52,52,52,53,53,53,53,53,53,53,53,53,53,53,
52,52,52,52,52,53,53,53,53,53,53,53,53,53,53,53,
52,52,52,52,52,53,53,53,53,53,53,53,53,53,53,53,
52,52,52,52,52,53,53,53,53,53,53,53,53,53,53,53,
52,52,52,52,52,53,53,53,53,53,53,53,53,53,53,53,
52,52,52,52,52,53,53,53,53,53,53,53,53,53,53,53,
52,52,52,52,52,53,53,53,53,53,53,53,53,53,53,53,
52,52,52,52,52,53,53,53,53,53,53,53,53,53,53,53,
52,52,52,52,52,53,53,53,53,53,53,53,53,53,53,53,
52,52,52,52,52,53,53,53,53,53,53,53,53,53,53,53,
52,52,52,52,52,53,53,53,53,53,53,53,53,53,53,53
</chunk>
   <chunk x="16" y="64" width="16" height="16">
53,53,52,52,52,52,52,52,52,52,52,52,52,52,52,53,
53,53,52,52,52,52,52,52,52,52,52,52,52,52,52,53,
53,53,52,52,52,52,52,52,52,52,52,52,52,52,52,53,
53,53,52,52,52,52,52,52,52,52,52,52,52,52,52,53,
53,53,52,52,52,52,52,52,52,52,52,52,52,52,52,53,
53,53,52,52,52,52,52,52,52,52,52,52,52,52,52,53,
53,53,52,52,52,52,52,52,52,52,52,52,52,52,52,53,
53,53,52,52,52,52,52,52,52,52,52,52,52,52,52,53,
53,53,52,52,52,52,52,52,52,52,52,52,52,52,52,53,
53,53,52,52,52,52,52,52,52,52,52,52,52,52,52,53,
53,53,52,52,52,52,52,52,52,52,52,52,52,52,52,53,
53,53,52,52,52,52,52,52,52,52,52,52,52,52,52,53,
53,53,52,52,52,52,52,52,52,52,52,52,52,52,52,53,
53,53,52,52,52,52,52,52,52,52,52,52,52,52,52,53,
53,53,52,52,52,52,52,52,52,52,52,52,52,52,52,53,
53,53,52,52,52,52,52,52,52,52,52,52,52,52,52,53
</chunk>
   <chunk x="32" y="64" width="16" height="16">
53,53,53,53,53,53,53,53,53,53,53,53,52,52,52,52,
53,53,53,53,53,53,53,53,53,53,53,53,52,52,52,52,
53,53,53,53,53,53,53,53,53,53,53,53,52,52,52,52,
53,53,53,53,53,53,53,53,53,53,53,53,52,52,52,52,
53,53,53,53,53,53,53,53,53,53,53,53,52,52,52,52,
53,53,53,53,53,53,53,53,53,53,53,53,52,52,52,52,
53,53,53,53,53,53,53,53,53,53,53,53,52,52,52,52,
53,53,53,53,53,53,53,53,53,53,53,53,52,52,52,52,
53,53,53,53,53,53,53,53,53,53,53,53,52,52,52,52,
53,53,53,53,53,53,53,53,53,53,53,53,52,52,52,52,
53,53,53,53,53,53,53,53,53,53,53,53,52,52,52,52,
53,53,53,53,53,53,53,53,53,53,53,53,52,52,52,52,
53,53,53,53,53,53,53,53,53,53,53,53,52,52,52,52,
53,53,53,53,53,53,53,53,53,53,53,53,52,52,52,52,
53,53,53,53,53,53,53,53,53,53,53,53,52,52,52,52,
53,53,53,53,53,53,53,53,53,53,53,53,52,52,52,52
</chunk>
   <chunk x="48" y="64" width="16" height="16">
52,52,52,52,52,52,52,52,52,53,53,53,53,53,53,53,
52,52,52,52,52,52,52,52,52,53,53,53,53,53,53,53,
52,52,52,52,52,52,52,52,52,53,53,53,53,53,53,53,
52,52,52,52,52,52,52,52,52,53,53,53,53,53,53,53,
52,52,52,52,52,52,52,52,52,53,53,53,53,53,53,53,
52,52,52,52,52,52,52,52,52,53,53,53,53,53,53,53,
52,52,52,52,52,52,52,52,52,53,53,53,53,53,53,53,
52,52,52,52,52,52,52,52,52,53,53,53,53,53,53,53,
52,52,52,52,52,52,52,52,52,53,53,53,53,53,53,53,
52,52,52,52,52,52,52,52,52,53,53,53,53,53,53,53,
52,52,52,52,52,52,52,52,52,53,53,53,53,53,53,53,
52,52,52,52,52,52,52,52,52,53,53,53,53,53,53,53,
52,52,52,52,52,52,52,52,52,53,53,53,53,53,53,53,
52,52,52,52,52,52,52,52,52,53,53,53,53,53,53,53,
52,52,52,52,52,52,52,52,52,53,53,53,53,53,53,53,
52,52,52,52,52,52,52,52,52,53,53,53,53,53,53,53
</chunk>
   <chunk x="64" y="64" width="16" height="16">
53,53,53,53,53,53,53,53,53,53,52,52,52,52,52,52,
53,53,53,53,53,53,53,53,53,53,52,52,52,52,52,52,
53,53,53,53,53,53,53,53,53,53,52,52,52,52,52,52,
53,53,53,53,53,53,53,53,53,53,52,52,52,52,52,52,
53,53,53,53,53,53,53,53,53,53,52,52,52,52,52,52,
53,53,53,53,53,53,53,53,53,53,52,52,52,52,52,52,
53,53,53,53,53,53,53,53,53,53,52,52,52,52,52,52,
53,53,53,53,53,53,53,53,53,53,52,52,52,52,52,52,
53,53,53,53,53,53,53,53,53,53,52,52,52,52,52,52,
53,53,53,53,53,53,53,53,53,53,52,52,52,52,52,52,
53,53,53,53,53,53,53,53,53,53,52,52,52,52,52,52,
53,53,53,53,53,53,53,53,53,53,52,52,52,52,52,52,
53,53,53,53,53,53,53,53,53,53,52,52,52,52,52,52,
53,53,53,53,53,53,53,53,53,53,52,52,52,52,52,52,
53,53,53,53,53,53,53,53,53,53,52,52,52,52,52,52,
53,53,53,53,53,53,53,53,53,53,52,52,52,52,52,52
</chunk>
   <chunk x="80" y="64" width="16" height="16">
52,52,52,52,52,52,52,52,52,52,52,53,53,53,53,53,
52,52,52,52,52,52,52,52,52,52,52,53,53,53,53,53,
52,52,52,52,52,52,52,52,52,52,52,53,53,53,53,53,
52,52,52,52,52,52,52,52,52,52,52,53,53,53,53,53,
52,52,52,52,52,52,52,52,52,52,52,53,53,53,53,53,
52,52,52,52,52,52,52,52,52,52,52,53,53,53,53,53,
52,52,52,52,52,52,52,52,52,52,52,53,53,53,53,53,
52,52,52,52,52,52,52,52,52,52,52,53,53,53,53,53,
52,52,52,52,52,52,52,52,52,52,52,53,53,53,53,53,
52,52,52,52,52,52,52,52,52,52,52,53,53,53,53,53,
52,52,52,52,52,52,52,52,52,52,52,53,53,53,53,53,
52,52,52,52,52,52,52,52,52,52,52,53,53,53,53,53,
52,52,52,52,52,52,52,52,52,52,52,53,53,53,53,53,
52,52,52,52,52,52,52,52,52,52,52,53,53,53,53,53,
52,52,52,52,52,52,52,52,52,52,52,53,53,53,53,53,
52,52,52,52,52,52,52,52,52,52,52,53,53,53,53,53
</chunk>
   <chunk x="96" y="64" width="16" height="16">
53,53,53,53,53,53,53,53,53,53,53,53,53,53,53,53,
53,53,53,53,53,53,53,53,53,53,53,53,53,53,53,53,
53,53,53,53,53,53,53,53,53,53,53,53,53,53,53,53,
53,53,53,53,53,53,53,53,53,53,53,53,53,53,53,53,
53,53,53,53,53,53,53,53,53,53,53,53,53,53,53,53,
53,53,53,53,53,53,53,53,53,53,53,53,53,53,53,53,
53,53,53,53,53,53,53,53,53,53,53,53,53,53,53,53,
53,53,53,53,53,53,53,53,53,53,53,53,53,53,53,53,
53,53,53,53,53,53,53,53,53,53,53,53,53,53,53,53,
53,53,53,53,53,53,53,53,53,53,53,53,53,53,53,53,
53,53,53,53,53,53,53,53,53,53,53,53,53,53,53,53,
53,53,53,53,53,53,53,53,53,53,53,53,53,53,53,53,
53,53,53,53,53,53,53,53,53,53,53,53,53,53,53,53,
53,53,53,53,53,53,53,53,53,53,53,53,53,53,53,53,
53,53,53,53,53,53,53,53,53,53,53,53,53,53,53,53,
53,53,53,53,53,53,53,53,53,53,53,53,53,53,53,53
</chunk>
   <chunk x="112" y="64" width="16" height="16">
53,53,53,53,53,52,52,52,52,52,52,52,52,52,52,52,
53,53,53,53,53,52,52,52,52,52,52,52,52,52,52,52,
53,53,53,53,53,52,52,52,52,52,52,52,52,52,52,52,
53,53,53,53,53,52,52,52,52,52,52,52,52,52,52,52,
53,53,53,53,53,52,52,52,52,52,52,52,52,52,52,52,
53,53,53,53,53,52,52,52,52,52,52,52,52,52,52,52,
53,53,53,53,53,52,52,52,52,52,52,52,52,52,52,52,
53,53,53,53,53,52,52,52,52,52,52,52,52,52,52,52,
53,53,53,53,53,52,52,52,52,52,52,52,52,52,52,52,
53,53,53,53,53,52,52,52,52,52,52,52,52,52,52,52,
53,53,53,53,53,52,52,52,52,52,52,52,52,52,52,52,
53,53,53,53,53,52,52,52,52,52,52,52,52,52,52,52,
53,53,53,53,53,52,52,52,52,52,52,52,52,52,52,52,
53,53,53,53,53,52,52,52,52,52,52,52,52,52,52,52,
53,53,53,53,53,52,52,52,52,52,52,52,52,52,52,52,
53,53,53,53,53,52,52,52,52,52,52,52,52,52,52,52
</chunk>
   <chunk x="128" y="64" width="16" height="16">
53,53,53,53,53,53,53,53,53,53,53,53,53,53,53,53,
53,53,53,53,53,53,53,53,53,53,53,53,53,53,53,53,
53,53,53,53,53,53,53,53,53,53,53,53,53,53,53,53,
53,53,53,53,53,53,53,53,53,53,53,53,53,53,53,53,
53,53,53,53,53,53,53,53,53,53,53,53,53,53,53,53,
53,53,53,53,53,53,53,53,53,53,53,53,53,53,53,53,
53,53,53,53,53,53,53,53,53,53,53,53,53,53,53,53,
53,53,53,53,53,53,53,53,53,53,53,53,53,53,53,53,
53,53,53,53,53,53,53,53,53,53,53,53,53,53,53,53,
53,53,53,53,53,53,53,53,53,53,53,53,53,53,53,53,
53,53,53,53,53,53,53,53,53,53,53,53,53,53,53,53,
53,53,53,53,53,53,53,53,53,53,53,53,53,53,53,53,
53,53,53,53,53,53,53,53,53,53,53,53,53,53,53,53,
53,53,53,53,53,53,53,53,53,53,53,53,53,53,53,53,
53,53,53,53,53,53,53,53,53,53,53,53,53,53,53,53,
53,53,53,53,53,53,53,53,53,53,53,53,53,53,53,53
</chunk>
   <chunk x="144" y="64" width="16" height="16">
53,53,53,53,53,53,53,53,53,53,53,53,53,53,53,52,
53,53,53,53,53,53,53,53,53,53,53,53,53,53,53,52,
53,53,53,53,53,53,53,53,53,53,53,53,53,53,53,52,
53,53,53,53,53,53,53,53,53,53,53,53,53,53,53,52,
53,53,53,53,53,53,53,53,53,53,53,53,53,53,53,52,
53,53,53,53,53,53,53,53,53,53,53,53,53,53,53,52,
53,53,53,53,53,53,53,53,53,53,53,53,53,53,53,52,
53,53,53,53,53,53,53,53,53,53,53,53,53,53,53,52,
53,53,53,53,53,53,53,53,53,53,53,53,53,53,53,52,
53,53,53,53,53,53,53,53,53,53,53,53,53,53,53,52,
53,53,53,53,53,53,53,53,53,53,53,53,53,53,53,52,
53,53,53,53,53,53,53,53,53,53,53,53,53,53,53,52,
53,53,53,53,53,53,53,53,53,53,53,53,53,53,53,52,
53,53,53,53,53,53,53,53,53,53,53,53,53,53,53,52,
53,53,53,53,53,53,53,53,53,53,53,53,53,53,53,52,
53,53,53,53,53,53,53,53,53,53,53,53,53,53,53,52
</chunk>
   <chunk x="160" y="64" width="16" height="16">
52,52,52,52,52,52,52,52,52,52,52,52,52,52,52,52,
52,52,52,52,52,52,52,52,52,52,52,52,52,52,52,52,
52,52,52,52,52,52,52,52,52,52,52,52,52,52,52,52,
52,52,52,52,52,52,52,52,52,52,52,52,52,52,52,52,
52,52,52,52,52,52,52,52,52,52,52,52,52,52,52,52,
52,52,52,52,52,52,52,52,52,52,52,52,52,52,52,52,
52,52,52,52,52,52,52,52,52,52,52,52,52,52,52,52,
52,52,52,52,52,52,52,52,52,52,52,52,52,52,52,52,
52,52,52,52,52,52,52,52,52,52,52,52,52,52,52,52,
52,52,52,52,52,52,52,52,52,52,52,52,52,52,52,52,
52,52,52,52,52,52,52,52,52,52,52,52,52,52,52,52,
52,52,52,52,52,52,52,52,52,52,52,52,52,52,52,52,
52,52,52,52,52,52,52,52,52,52,52,52,52,52,52,52,
52,52,52,52,52,52,52,52,52,52,52,52,52,52,52,52,
52,52,52,52,52,52,52,52,52,52,52,52,52,52,52,52,
52,52,52,52,52,52,52,52,52,52,52,52,52,52,52,52
</chunk>
   <chunk x="176" y="64" width="16" height="16">
52,53,53,53,53,53,53,53,53,53,53,53,53,53,53,53,
52,53,53,53,53,53,53,53,53,53,53,53,53,53,53,53,
52,53,53,53,53,53,53,53,53,53,53,53,53,53,53,53,
52,53,53,53,53,53,53,53,53,53,53,53,53,53,53,53,
52,53,53,53,53,53,53,53,53,53,53,53,53,53,53,53,
52,53,53,53,53,53,53,53,53,53,53,53,53,53,53,53,
52,53,53,53,53,53,53,53,53,53,53,53,53,53,53,53,
52,53,53,53,53,53,53,53,53,53,53,53,53,53,53,53,
52,53,53,53,53,53,53,53,53,53,53,53,53,53,53,53,
52,53,53,53,53,53,53,53,53,53,53,53,53,53,53,53,
52,53,53,53,53,53,53,53,53,53,53,53,53,53,53,53,
52,53,53,53,53,53,53,53,53,53,53,53,53,53,53,53,
52,53,53,53,53,53,53,53,53,53,53,53,53,53,53,53,
52,53,53,53,53,53,53,53,53,53,53,53,53,53,53,53,
52,53,53,53,53,53,53,53,53,53,53,53,53,53,53,53,
52,53,53,53,53,53,53,53,53,53,53,53,53,53,53,53
</chunk>
   <chunk x="192" y="64" width="16" height="16">
53,53,53,53,53,53,53,53,53,53,53,53,53,53,53,53,
53,53,53,53,53,53,53,53,53,53,53,53,53,53,53,53,
53,53,53,53,53,53,53,53,53,53,53,53,53,53,53,53,
53,53,53,53,53,53,53,53,53,53,53,53,53,53,53,53,
53,53,53,53,53,53,53,53,53,53,53,53,53,53,53,53,
53,53,53,53,53,53,53,53,53,53,53,53,53,53,53,53,
53,53,53,53,53,53,53,53,53,53,53,53,53,53,53,53,
53,53,53,53,53,53,53,53,53,53,53,53,53,53,53,53,
53,53,53,53,53,53,53,53,53,53,53,53,53,53,53,53,
53,53,53,53,53,53,53,53,53,53,53,53,53,53,53,53,
53,53,53,53,53,53,53,53,53,53,53,53,53,53,53,53,
53,53,53,53,53,53,53,53,53,53,53,53,53,53,53,53,
53,53,53,53,53,53,53,53,53,53,53,53,53,53,53,53,
53,53,53,53,53,53,53,53,53,53,53,53,53,53,53,53,
53,53,53,53,53,53,53,53,53,53,53,53,53,53,53,53,
53,53,53,53,53,53,53,53,53,53,53,53,53,53,53,53
</chunk>
   <chunk x="208" y="64" width="16" height="16">
53,53,53,53,53,53,53,53,53,53,53,53,53,53,53,53,
53,53,53,53,53,53,53,53,53,53,53,53,53,53,53,53,
53,53,53,53,53,53,53,53,53,53,53,53,53,53,53,53,
53,53,53,53,53,53,53,53,53,53,53,53,53,53,53,53,
53,53,53,53,53,53,53,53,53,53,53,53,53,53,53,53,
53,53,53,53,53,53,53,53,53,53,53,53,53,53,53,53,
53,53,53,53,53,53,53,53,53,53,53,53,53,53,53,53,
53,53,53,53,53,53,53,53,53,53,53,53,53,53,53,53,
53,53,53,53,53,53,53,53,53,53,53,53,53,53,53,53,
53,53,53,53,53,53,53,53,53,53,53,53,53,53,53,53,
53,53,53,53,53,53,53,53,53,53,53,53,53,53,53,53,
53,53,53,53,53,53,53,53,53,53,53,53,53,53,53,53,
53,53,53,53,53,53,53,53,53,53,53,53,53,53,53,53,
53,53,53,53,53,53,53,53,53,53,53,53,53,53,53,53,
53,53,53,53,53,53,53,53,53,53,53,53,53,53,53,53,
53,53,53,53,53,53,53,53,53,53,53,53,53,53,53,53
</chunk>
   <chunk x="224" y="64" width="16" height="16">
53,53,53,53,53,53,53,52,52,52,52,52,52,52,52,52,
53,53,53,53,53,53,53,52,52,52,52,52,52,52,52,52,
53,53,53,53,53,53,53,52,52,52,52,52,52,52,52,52,
53,53,53,53,53,53,53,52,52,52,52,52,52,52,52,52,
53,53,53,53,53,53,53,52,52,52,52,52,52,52,52,52,
53,53,53,53,53,53,53,52,52,52,52,52,52,52,52,52,
53,53,53,53,53,53,53,52,52,52,52,52,52,52,52,52,
53,53,53,53,53,53,53,52,52,52,52,52,52,52,52,52,
53,53,53,53,53,53,53,52,52,52,52,52,52,52,52,52,
53,53,53,53,53,53,53,52,52,52,52,52,52,52,52,52,
53,53,53,53,53,53,53,52,52,52,52,52,52,52,52,52,
53,53,53,53,53,53,53,52,52,52,52,52,52,52,52,52,
53,53,53,53,53,53,53,52,52,52,52,52,52,52,52,52,
53,53,53,53,53,53,53,52,52,52,52,52,52,52,52,52,
53,53,53,53,53,53,53,52,52,52,52,52,52,52,52,52,
53,53,53,53,53,53,53,52,52,52,52,52,52,52,52,52
</chunk>
   <chunk x="240" y="64" width="16" height="16">
52,52,52,52,52,52,52,52,52,52,52,52,52,52,52,52,
52,52,52,52,52,52,52,52,52,52,52,52,52,52,52,52,
52,52,52,52,52,52,52,52,52,52,52,52,52,52,52,52,
52,52,52,52,52,52,52,52,52,52,52,52,52,52,52,52,
52,52,52,52,52,52,52,52,52,52,52,52,52,52,52,52,
52,52,52,52,52,52,52,52,52,52,52,52,52,52,52,52,
52,52,52,52,52,52,52,52,52,52,52,52,52,52,52,52,
52,52,52,52,52,52,52,52,52,52,52,52,52,52,52,52,
52,52,52,52,52,52,52,52,52,52,52,52,52,52,52,52,
52,52,52,52,52,52,52,52,52,52,52,52,52,52,52,52,
52,52,52,52,52,52,52,52,52,52,52,52,52,52,52,52,
52,52,52,52,52,52,52,52,52,52,52,52,52,52,52,52,
52,52,52,52,52,52,52,52,52,52,52,52,52,52,52,52,
52,52,52,52,52,52,52,52,52,52,52,52,52,52,52,52,
52,52,52,52,52,52,52,52,52,52,52,52,52,52,52,52,
52,52,52,52,52,52,52,52,52,52,52,52,52,52,52,52
</chunk>
   <chunk x="256" y="64" width="16" height="16">
52,52,52,52,52,52,52,52,52,52,52,52,52,52,52,52,
52,52,52,52,52,52,52,52,52,52,52,52,52,52,52,52,
52,52,52,52,52,52,52,52,52,52,52,52,52,52,52,52,
52,52,52,52,52,52,52,52,52,52,52,52,52,52,52,52,
52,52,52,52,52,52,52,52,52,52,52,52,52,52,52,52,
52,52,52,52,52,52,52,52,52,52,52,52,52,52,52,52,
52,52,52,52,52,52,52,52,52,52,52,52,52,52,52,52,
52,52,52,52,52,52,52,52,52,52,52,52,52,52,52,52,
52,52,52,52,52,52,52,52,52,52,52,52,52,52,52,52,
52,52,52,52,52,52,52,52,52,52,52,52,52,52,52,52,
52,52,52,52,52,52,52,52,52,52,52,52,52,52,52,52,
52,52,52,52,52,52,52,52,52,52,52,52,52,52,52,52,
52,52,52,52,52,52,52,52,52,52,52,52,52,52,52,52,
52,52,52,52,52,52,52,52,52,52,52,52,52,52,52,52,
52,52,52,52,52,52,52,52,52,52,52,52,52,52,52,52,
52,52,52,52,52,52,52,52,52,52,52,52,52,52,52,52
</chunk>
   <chunk x="272" y="64" width="16" height="16">
52,52,52,52,52,52,52,52,52,52,52,52,52,52,52,52,
52,52,52,52,52,52,52,52,52,52,52,52,52,52,52,52,
52,52,52,52,52,52,52,52,52,52,52,52,52,52,52,52,
52,52,52,52,52,52,52,52,52,52,52,52,52,52,52,52,
52,52,52,52,52,52,52,52,52,52,52,52,52,52,52,52,
52,52,52,52,52,52,52,52,52,52,52,52,52,52,52,52,
52,52,52,52,52,52,52,52,52,52,52,52,52,52,52,52,
52,52,52,52,52,52,52,52,52,52,52,52,52,52,52,52,
52,52,52,52,52,52,52,52,52,52,52,52,52,52,52,52,
52,52,52,52,52,52,52,52,52,52,52,52,52,52,52,52,
52,52,52,52,52,52,52,52,52,52,52,52,52,52,52,52,
52,52,52,52,52,52,52,52,52,52,52,52,52,52,52,52,
52,52,52,52,52,52,52,52,52,52,52,52,52,52,52,52,
52,52,52,52,52,52,52,52,52,52,52,52,52,52,52,52,
52,52,52,52,52,52,52,52,52,52,52,52,52,52,52,52,
52,52,52,52,52,52,52,52,52,52,52,52,52,52,52,52
</chunk>
   <chunk x="288" y="64" width="16" height="16">
52,52,52,52,52,52,52,52,52,52,52,52,52,52,52,52,
52,52,52,52,52,52,52,52,52,52,52,52,52,52,52,52,
52,52,52,52,52,52,52,52,52,52,52,52,52,52,52,52,
52,52,52,52,52,52,52,52,52,52,52,52,52,52,52,52,
52,52,52,52,52,52,52,52,52,52,52,52,52,52,52,52,
52,52,52,52,52,52,52,52,52,52,52,52,52,52,52,52,
52,52,52,52,52,52,52,52,52,52,52,52,52,52,52,52,
52,52,52,52,52,52,52,52,52,52,52,52,52,52,52,52,
52,52,52,52,52,52,52,52,52,52,52,52,52,52,52,52,
52,52,52,52,52,52,52,52,52,52,52,52,52,52,52,52,
52,52,52,52,52,52,52,52,52,52,52,52,52,52,52,52,
52,52,52,52,52,52,52,52,52,52,52,52,52,52,52,52,
52,52,52,52,52,52,52,52,52,52,52,52,52,52,52,52,
52,52,52,52,52,52,52,52,52,52,52,52,52,52,52,52,
52,52,52,52,52,52,52,52,52,52,52,52,52,52,52,52,
52,52,52,52,52,52,52,52,52,52,52,52,52,52,52,52
</chunk>
   <chunk x="304" y="64" width="16" height="16">
52,52,52,52,52,52,52,52,52,52,52,52,52,52,52,52,
52,52,52,52,52,52,52,52,52,52,52,52,52,52,52,52,
52,52,52,52,52,52,52,52,52,52,52,52,52,52,52,52,
52,52,52,52,52,52,52,52,52,52,52,52,52,52,52,52,
52,52,52,52,52,52,52,52,52,52,52,52,52,52,52,52,
52,52,52,52,52,52,52,52,52,52,52,52,52,52,52,52,
52,52,52,52,52,52,52,52,52,52,52,52,52,52,52,52,
52,52,52,52,52,52,52,52,52,52,52,52,52,52,52,52,
52,52,52,52,52,52,52,52,52,52,52,52,52,52,52,52,
52,52,52,52,52,52,52,52,52,52,52,52,52,52,52,52,
52,52,52,52,52,52,52,52,52,52,52,52,52,52,52,52,
52,52,52,52,52,52,52,52,52,52,52,52,52,52,52,52,
52,52,52,52,52,52,52,52,52,52,52,52,52,52,52,52,
52,52,52,52,52,52,52,52,52,52,52,52,52,52,52,52,
52,52,52,52,52,52,52,52,52,52,52,52,52,52,52,52,
52,52,52,52,52,52,52,52,52,52,52,52,52,52,52,52
</chunk>
   <chunk x="0" y="80" width="16" height="16">
52,52,52,52,52,53,53,53,53,53,53,53,53,53,53,53,
52,52,52,52,52,53,53,53,53,53,53,53,53,53,53,53,
52,52,52,52,52,53,53,53,53,53,53,53,53,53,53,53,
52,52,52,52,52,53,53,53,53,53,53,53,53,53,53,53,
52,52,52,52,52,53,53,53,53,53,53,53,53,53,53,53,
52,52,52,52,52,53,53,53,53,53,53,53,53,53,53,53,
52,52,52,52,52,53,53,53,53,53,53,53,53,53,53,53,
52,52,52,52,52,53,53,53,53,53,53,53,53,53,53,53,
52,52,52,52,52,53,53,53,53,53,53,53,53,53,53,53,
52,52,52,52,52,53,53,53,53,53,53,53,53,53,53,53,
52,52,52,52,52,53,53,53,53,53,53,53,53,53,53,53,
52,52,52,52,52,53,53,53,53,53,53,53,53,53,53,53,
52,52,52,52,52,53,53,53,53,53,53,53,53,53,53,53,
52,52,52,52,52,53,53,53,53,53,53,53,53,53,53,53,
52,52,52,52,52,53,53,53,53,53,53,53,53,53,53,53,
52,52,52,52,52,53,53,53,53,53,53,53,53,53,53,53
</chunk>
   <chunk x="16" y="80" width="16" height="16">
53,53,52,52,52,52,52,52,52,52,52,52,52,52,52,53,
53,53,52,52,52,52,52,52,52,52,52,52,52,52,52,53,
53,53,52,52,52,52,52,52,52,52,52,52,52,52,52,53,
53,53,52,52,52,52,52,52,52,52,52,52,52,52,52,53,
53,53,52,52,52,52,52,52,52,52,52,52,52,52,52,53,
53,53,52,52,52,52,52,52,52,52,52,52,52,52,52,53,
53,53,52,52,52,52,52,52,52,52,52,52,52,52,52,53,
53,53,52,52,52,52,52,52,52,52,52,52,52,52,52,53,
53,53,52,52,52,52,52,52,52,52,52,52,52,52,52,53,
53,53,52,52,52,52,52,52,52,52,52,52,52,52,52,53,
53,53,52,52,52,52,52,52,52,52,52,52,52,52,52,53,
53,53,52,52,52,52,52,52,52,52,52,52,52,52,52,53,
53,53,52,52,52,52,52,52,52,52,52,52,52,52,52,53,
53,53,52,52,52,52,52,52,52,52,52,52,52,52,52,53,
53,53,52,52,52,52,52,52,52,52,52,52,52,52,52,53,
53,53,52,52,52,52,52,52,52,52,52,52,52,52,52,53
</chunk>
   <chunk x="32" y="80" width="16" height="16">
53,53,53,53,53,53,53,53,53,53,53,53,52,52,52,52,
53,53,53,53,53,53,53,53,53,53,53,53,52,52,52,52,
53,53,53,53,53,53,53,53,53,53,53,53,52,52,52,52,
53,53,53,53,53,53,53,53,53,53,53,53,52,52,52,52,
53,53,53,53,53,53,53,53,53,53,53,53,52,52,52,52,
53,53,53,53,53,53,53,53,53,53,53,53,52,52,52,52,
53,53,53,53,53,53,53,53,53,53,53,53,52,52,52,52,
53,53,53,53,53,53,53,53,53,53,53,53,52,52,52,52,
53,53,53,53,53,53,53,53,53,53,53,53,52,52,52,52,
53,53,53,53,53,53,53,53,53,53,53,53,52,52,52,52,
53,53,53,53,53,53,53,53,53,53,53,53,52,52,52,52,
53,53,53,53,53,53,53,53,53,53,53,53,52,52,52,52,
53,53,53,53,53,53,53,53,53,53,53,53,52,52,52,52,
53,53,53,53,53,53,53,53,53,53,53,53,52,52,52,52,
53,53,53,53,53,53,53,53,53,53,53,53,52,52,52,52,
53,53,53,53,53,53,53,53,53,53,53,53,52,52,52,52
</chunk>
   <chunk x="48" y="80" width="16" height="16">
52,52,52,52,52,52,52,52,52,53,53,53,53,53,53,53,
52,52,52,52,52,52,52,52,52,53,53,53,53,53,53,53,
52,52,52,52,52,52,52,52,52,53,53,53,53,53,53,53,
52,52,52,52,52,52,52,52,52,53,53,53,53,53,53,53,
52,52,52,52,52,52,52,52,52,53,53,53,53,53,53,53,
52,52,52,52,52,52,52,52,52,53,53,53,53,53,53,53,
52,52,52,52,52,52,52,52,52,53,53,53,53,53,53,53,
52,52,52,52,52,52,52,52,52,53,53,53,53,53,53,53,
52,52,52,52,52,52,52,52,52,53,53,53,53,53,53,53,
52,52,52,52,52,52,52,52,52,53,53,53,53,53,53,53,
52,52,52,52,52,52,52,52,52,53,53,53,53,53,53,53,
52,52,52,52,52,52,52,52,52,53,53,53,53,53,53,53,
52,52,52,52,52,52,52,52,52,53,53,53,53,53,53,53,
52,52,52,52,52,52,52,52,52,53,53,53,53,53,53,53,
52,52,52,52,52,52,52,52,52,53,53,53,53,53,53,53,
52,52,52,52,52,52,52,52,52,53,53,53,53,53,53,53
</chunk>
   <chunk x="64" y="80" width="16" height="16">
53,53,53,53,53,53,53,53,53,53,52,52,52,52,52,52,
53,53,53,53,53,53,53,53,53,53,52,52,52,52,52,52,
53,53,53,53,53,53,53,53,53,53,52,52,52,52,52,52,
53,53,53,53,53,53,53,53,53,53,52,52,52,52,52,52,
53,53,53,53,53,53,53,53,53,53,52,52,52,52,52,52,
53,53,53,53,53,53,53,53,53,53,52,52,52,52,52,52,
53,53,53,53,53,53,53,53,53,53,52,52,52,52,52,52,
53,53,53,53,53,53,53,53,53,53,52,52,52,52,52,52,
53,53,53,53,53,53,53,53,53,53,52,52,52,52,52,52,
53,53,53,53,53,53,53,53,53,53,52,52,52,52,52,52,
53,53,53,53,53,53,53,53,53,53,52,52,52,52,52,52,
53,53,53,53,53,53,53,53,53,53,52,52,52,52,52,52,
53,53,53,53,53,53,53,53,53,53,52,52,52,52,52,52,
53,53,53,53,53,53,53,53,53,53,52,52,52,52,52,52,
53,53,53,53,53,53,53,53,53,53,52,52,52,52,52,52,
53,53,53,53,53,53,53,53,53,53,52,52,52,52,52,52
</chunk>
   <chunk x="80" y="80" width="16" height="16">
52,52,52,52,52,52,52,52,52,52,52,53,53,53,53,53,
52,52,52,52,52,52,52,52,52,52,52,53,53,53,53,53,
52,52,52,52,52,52,52,52,52,52,52,53,53,53,53,53,
52,52,52,52,52,52,52,52,52,52,52,53,53,53,53,53,
52,52,52,52,52,52,52,52,52,52,52,53,53,53,53,53,
52,52,52,52,52,52,52,52,52,52,52,53,53,53,53,53,
52,52,52,52,52,52,52,52,52,52,52,53,53,53,53,53,
52,52,52,52,52,52,52,52,52,52,52,53,53,53,53,53,
52,52,52,52,52,52,52,52,52,52,52,53,53,53,53,53,
52,52,52,52,52,52,52,52,52,52,52,53,53,53,53,53,
52,52,52,52,52,52,52,52,52,52,52,53,53,53,53,53,
52,52,52,52,52,52,52,52,52,52,52,53,53,53,53,53,
52,52,52,52,52,52,52,52,52,52,52,53,53,53,53,53,
52,52,52,52,52,52,52,52,52,52,52,53,53,53,53,53,
52,52,52,52,52,52,52,52,52,52,52,53,53,53,53,53,
52,52,52,52,52,52,52,52,52,52,52,53,53,53,53,53
</chunk>
   <chunk x="96" y="80" width="16" height="16">
53,53,53,53,53,53,53,53,53,53,53,53,53,53,53,53,
53,53,53,53,53,53,53,53,53,53,53,53,53,53,53,53,
53,53,53,53,53,53,53,53,53,53,53,53,53,53,53,53,
53,53,53,53,53,53,53,53,53,53,53,53,53,53,53,53,
53,53,53,53,53,53,53,53,53,53,53,53,53,53,53,53,
53,53,53,53,53,53,53,53,53,53,53,53,53,53,53,53,
53,53,53,53,53,53,53,53,53,53,53,53,53,53,53,53,
53,53,53,53,53,53,53,53,53,53,53,53,53,53,53,53,
53,53,53,53,53,53,53,53,53,53,53,53,53,53,53,53,
53,53,53,53,53,53,53,53,53,53,53,53,53,53,53,53,
53,53,53,53,53,53,53,53,53,53,53,53,53,53,53,53,
53,53,53,53,53,53,53,53,53,53,53,53,53,53,53,53,
53,53,53,53,53,53,53,53,53,53,53,53,53,53,53,53,
53,53,53,53,53,53,53,53,53,53,53,53,53,53,53,53,
53,53,53,53,53,53,53,53,53,53,53,53,53,53,53,53,
53,53,53,53,53,53,53,53,53,53,53,53,53,53,53,53
</chunk>
   <chunk x="112" y="80" width="16" height="16">
53,53,53,53,53,52,52,52,52,52,52,52,52,52,52,52,
53,53,53,53,53,52,52,52,52,52,52,52,52,52,52,52,
53,53,53,53,53,52,52,52,52,52,52,52,52,52,52,52,
53,53,53,53,53,52,52,52,52,52,52,52,52,52,52,52,
53,53,53,53,53,52,52,52,52,52,52,52,52,52,52,52,
53,53,53,53,53,52,52,52,52,52,52,52,52,52,52,52,
53,53,53,53,53,52,52,52,52,52,52,52,52,52,52,52,
53,53,53,53,53,52,52,52,52,52,52,52,52,52,52,52,
53,53,53,53,53,52,52,52,52,52,52,52,52,52,52,52,
53,53,53,53,53,52,52,52,52,52,52,52,52,52,52,52,
53,53,53,53,53,52,52,52,52,52,52,52,52,52,52,52,
53,53,53,53,53,52,52,52,52,52,52,52,52,52,52,52,
53,53,53,53,53,52,52,52,52,52,52,52,52,52,52,52,
53,53,53,53,53,52,52,52,52,52,52,52,52,52,52,52,
53,53,53,53,53,52,52,52,52,52,52,52,52,52,52,52,
53,53,53,53,53,52,52,52,52,52,52,52,52,52,52,52
</chunk>
   <chunk x="128" y="80" width="16" height="16">
53,53,53,53,53,53,53,53,53,53,53,53,53,53,53,53,
53,53,53,53,53,53,53,53,53,53,53,53,53,53,53,53,
53,53,53,53,53,53,53,53,53,53,53,53,53,53,53,53,
53,53,53,53,53,53,53,53,53,53,53,53,53,53,53,53,
53,53,53,53,53,53,53,53,53,53,53,53,53,53,53,53,
53,53,53,53,53,53,53,53,53,53,53,53,53,53,53,53,
53,53,53,53,53,53,53,53,53,53,53,53,53,53,53,53,
53,53,53,53,53,53,53,53,53,53,53,53,53,53,53,53,
53,53,53,53,53,53,53,53,53,53,53,53,53,53,53,53,
53,53,53,53,53,53,53,53,53,53,53,53,53,53,53,53,
53,53,53,53,53,53,53,53,53,53,53,53,53,53,53,53,
53,53,53,53,53,53,53,53,53,53,53,53,53,53,53,53,
53,53,53,53,53,53,53,53,53,53,53,53,53,53,53,53,
53,53,53,53,53,53,53,53,53,53,53,53,53,53,53,53,
53,53,53,53,53,53,53,53,53,53,53,53,53,53,53,53,
53,53,53,53,53,53,53,53,53,53,53,53,53,53,53,53
</chunk>
   <chunk x="144" y="80" width="16" height="16">
53,53,53,53,53,53,53,53,53,53,53,53,53,53,53,52,
53,53,53,53,53,53,53,53,53,53,53,53,53,53,53,52,
53,53,53,53,53,53,53,53,53,53,53,53,53,53,53,52,
53,53,53,53,53,53,53,53,53,53,53,53,53,53,53,52,
53,53,53,53,53,53,53,53,53,53,53,53,53,53,53,52,
53,53,53,53,53,53,53,53,53,53,53,53,53,53,53,52,
53,53,53,53,53,53,53,53,53,53,53,53,53,53,53,52,
53,53,53,53,53,53,53,53,53,53,53,53,53,53,53,52,
53,53,53,53,53,53,53,53,53,53,53,53,53,53,53,52,
53,53,53,53,53,53,53,53,53,53,53,53,53,53,53,52,
53,53,53,53,53,53,53,53,53,53,53,53,53,53,53,52,
53,53,53,53,53,53,53,53,53,53,53,53,53,53,53,52,
53,53,53,53,53,53,53,53,53,53,53,53,53,53,53,52,
53,53,53,53,53,53,53,53,53,53,53,53,53,53,53,52,
53,53,53,53,53,53,53,53,53,53,53,53,53,53,53,52,
53,53,53,53,53,53,53,53,53,53,53,53,53,53,53,52
</chunk>
   <chunk x="160" y="80" width="16" height="16">
52,52,52,52,52,52,52,52,52,52,52,52,52,52,52,52,
52,52,52,52,52,52,52,52,52,52,52,52,52,52,52,52,
52,52,52,52,52,52,52,52,52,52,52,52,52,52,52,52,
52,52,52,52,52,52,52,52,52,52,52,52,52,52,52,52,
52,52,52,52,52,52,52,52,52,52,52,52,52,52,52,52,
52,52,52,52,52,52,52,52,52,52,52,52,52,52,52,52,
52,52,52,52,52,52,52,52,52,52,52,52,52,52,52,52,
52,52,52,52,52,52,52,52,52,52,52,52,52,52,52,52,
52,52,52,52,52,52,52,52,52,52,52,52,52,52,52,52,
52,52,52,52,52,52,52,52,52,52,52,52,52,52,52,52,
52,52,52,52,52,52,52,52,52,52,52,52,52,52,52,52,
52,52,52,52,52,52,52,52,52,52,52,52,52,52,52,52,
52,52,52,52,52,52,52,52,52,52,52,52,52,52,52,52,
52,52,52,52,52,52,52,52,52,52,52,52,52,52,52,52,
52,52,52,52,52,52,52,52,52,52,52,52,52,52,52,52,
52,52,52,52,52,52,52,52,52,52,52,52,52,52,52,52
</chunk>
   <chunk x="176" y="80" width="16" height="16">
52,53,53,53,53,53,53,53,53,53,53,53,53,53,53,53,
52,53,53,53,53,53,53,53,53,53,53,53,53,53,53,53,
52,53,53,53,53,53,53,53,53,53,53,53,53,53,53,53,
52,53,53,53,53,53,53,53,53,53,53,53,53,53,53,53,
52,53,53,53,53,53,53,53,53,53,53,53,53,53,53,53,
52,53,53,53,53,53,53,53,53,53,53,53,53,53,53,53,
52,53,53,53,53,53,53,53,53,53,53,53,53,53,53,53,
52,53,53,53,53,53,53,53,53,53,53,53,53,53,53,53,
52,53,53,53,53,53,53,53,53,53,53,53,53,53,53,53,
52,53,53,53,53,53,53,53,53,53,53,53,53,53,53,53,
52,53,53,53,53,53,53,53,53,53,53,53,53,53,53,53,
52,53,53,53,53,53,53,53,53,53,53,53,53,53,53,53,
52,53,53,53,53,53,53,53,53,53,53,53,53,53,53,53,
52,53,53,53,53,53,53,53,53,53,53,53,53,53,53,53,
52,53,53,53,53,53,53,53,53,53,53,53,53,53,53,53,
52,53,53,53,53,53,53,53,53,53,53,53,53,53,53,53
</chunk>
   <chunk x="192" y="80" width="16" height="16">
53,53,53,53,53,53,53,53,53,53,53,53,53,53,53,53,
53,53,53,53,53,53,53,53,53,53,53,53,53,53,53,53,
53,53,53,53,53,53,53,53,53,53,53,53,53,53,53,53,
53,53,53,53,53,53,53,53,53,53,53,53,53,53,53,53,
53,53,53,53,53,53,53,53,53,53,53,53,53,53,53,53,
53,53,53,53,53,53,53,53,53,53,53,53,53,53,53,53,
53,53,53,53,53,53,53,53,53,53,53,53,53,53,53,53,
53,53,53,53,53,53,53,53,53,53,53,53,53,53,53,53,
53,53,53,53,53,53,53,53,53,53,53,53,53,53,53,53,
53,53,53,53,53,53,53,53,53,53,53,53,53,53,53,53,
53,53,53,53,53,53,53,53,53,53,53,53,53,53,53,53,
53,53,53,53,53,53,53,53,53,53,53,53,53,53,53,53,
53,53,53,53,53,53,53,53,53,53,53,53,53,53,53,53,
53,53,53,53,53,53,53,53,53,53,53,53,53,53,53,53,
53,53,53,53,53,53,53,53,53,53,53,53,53,53,53,53,
53,53,53,53,53,53,53,53,53,53,53,53,53,53,53,53
</chunk>
   <chunk x="208" y="80" width="16" height="16">
53,53,53,53,53,53,53,53,53,53,53,53,53,53,53,53,
53,53,53,53,53,53,53,53,53,53,53,53,53,53,53,53,
53,53,53,53,53,53,53,53,53,53,53,53,53,53,53,53,
53,53,53,53,53,53,53,53,53,53,53,53,53,53,53,53,
53,53,53,53,53,53,53,53,53,53,53,53,53,53,53,53,
53,53,53,53,53,53,53,53,53,53,53,53,53,53,53,53,
53,53,53,53,53,53,53,53,53,53,53,53,53,53,53,53,
53,53,53,53,53,53,53,53,53,53,53,53,53,53,53,53,
53,53,53,53,53,53,53,53,53,53,53,53,53,53,53,53,
53,53,53,53,53,53,53,53,53,53,53,53,53,53,53,53,
53,53,53,53,53,53,53,53,53,53,53,53,53,53,53,53,
53,53,53,53,53,53,53,53,53,53,53,53,53,53,53,53,
53,53,53,53,53,53,53,53,53,53,53,53,53,53,53,53,
53,53,53,53,53,53,53,53,53,53,53,53,53,53,53,53,
53,53,53,53,53,53,53,53,53,53,53,53,53,53,53,53,
53,53,53,53,53,53,53,53,53,53,53,53,53,53,53,53
</chunk>
   <chunk x="224" y="80" width="16" height="16">
53,53,53,53,53,53,53,52,52,52,52,52,52,52,52,52,
53,53,53,53,53,53,53,52,52,52,52,52,52,52,52,52,
53,53,53,53,53,53,53,52,52,52,52,52,52,52,52,52,
53,53,53,53,53,53,53,52,52,52,52,52,52,52,52,52,
53,53,53,53,53,53,53,52,52,52,52,52,52,52,52,52,
53,53,53,53,53,53,53,52,52,52,52,52,52,52,52,52,
53,53,53,53,53,53,53,52,52,52,52,52,52,52,52,52,
53,53,53,53,53,53,53,52,52,52,52,52,52,52,52,52,
53,53,53,53,53,53,53,52,52,52,52,52,52,52,52,52,
53,53,53,53,53,53,53,52,52,52,52,52,52,52,52,52,
53,53,53,53,53,53,53,52,52,52,52,52,52,52,52,52,
53,53,53,53,53,53,53,52,52,52,52,52,52,52,52,52,
53,53,53,53,53,53,53,52,52,52,52,52,52,52,52,52,
53,53,53,53,53,53,53,52,52,52,52,52,52,52,52,52,
53,53,53,53,53,53,53,52,52,52,52,52,52,52,52,52,
53,53,53,53,53,53,53,52,52,52,52,52,52,52,52,52
</chunk>
   <chunk x="240" y="80" width="16" height="16">
52,52,52,52,52,52,52,52,52,52,52,52,52,52,52,52,
52,52,52,52,52,52,52,52,52,52,52,52,52,52,52,52,
52,52,52,52,52,52,52,52,52,52,52,52,52,52,52,52,
52,52,52,52,52,52,52,52,52,52,52,52,52,52,52,52,
52,52,52,52,52,52,52,52,52,52,52,52,52,52,52,52,
52,52,52,52,52,52,52,52,52,52,52,52,52,52,52,52,
52,52,52,52,52,52,52,52,52,52,52,52,52,52,52,52,
52,52,52,52,52,52,52,52,52,52,52,52,52,52,52,52,
52,52,52,52,52,52,52,52,52,52,52,52,52,52,52,52,
52,52,52,52,52,52,52,52,52,52,52,52,52,52,52,52,
52,52,52,52,52,52,52,52,52,52,52,52,52,52,52,52,
52,52,52,52,52,52,52,52,52,52,52,52,52,52,52,52,
52,52,52,52,52,52,52,52,52,52,52,52,52,52,52,52,
52,52,52,52,52,52,52,52,52,52,52,52,52,52,52,52,
52,52,52,52,52,52,52,52,52,52,52,52,52,52,52,52,
52,52,52,52,52,52,52,52,52,52,52,52,52,52,52,52
</chunk>
   <chunk x="256" y="80" width="16" height="16">
52,52,52,52,52,52,52,52,52,52,52,52,52,52,52,52,
52,52,52,52,52,52,52,52,52,52,52,52,52,52,52,52,
52,52,52,52,52,52,52,52,52,52,52,52,52,52,52,52,
52,52,52,52,52,52,52,52,52,52,52,52,52,52,52,52,
52,52,52,52,52,52,52,52,52,52,52,52,52,52,52,52,
52,52,52,52,52,52,52,52,52,52,52,52,52,52,52,52,
52,52,52,52,52,52,52,52,52,52,52,52,52,52,52,52,
52,52,52,52,52,52,52,52,52,52,52,52,52,52,52,52,
52,52,52,52,52,52,52,52,52,52,52,52,52,52,52,52,
52,52,52,52,52,52,52,52,52,52,52,52,52,52,52,52,
52,52,52,52,52,52,52,52,52,52,52,52,52,52,52,52,
52,52,52,52,52,52,52,52,52,52,52,52,52,52,52,52,
52,52,52,52,52,52,52,52,52,52,52,52,52,52,52,52,
52,52,52,52,52,52,52,52,52,52,52,52,52,52,52,52,
52,52,52,52,52,52,52,52,52,52,52,52,52,52,52,52,
52,52,52,52,52,52,52,52,52,52,52,52,52,52,52,52
</chunk>
   <chunk x="272" y="80" width="16" height="16">
52,52,52,52,52,52,52,52,52,52,52,52,52,52,52,52,
52,52,52,52,52,52,52,52,52,52,52,52,52,52,52,52,
52,52,52,52,52,52,52,52,52,52,52,52,52,52,52,52,
52,52,52,52,52,52,52,52,52,52,52,52,52,52,52,52,
52,52,52,52,52,52,52,52,52,52,52,52,52,52,52,52,
52,52,52,52,52,52,52,52,52,52,52,52,52,52,52,52,
52,52,52,52,52,52,52,52,52,52,52,52,52,52,52,52,
52,52,52,52,52,52,52,52,52,52,52,52,52,52,52,52,
52,52,52,52,52,52,52,52,52,52,52,52,52,52,52,52,
52,52,52,52,52,52,52,52,52,52,52,52,52,52,52,52,
52,52,52,52,52,52,52,52,52,52,52,52,52,52,52,52,
52,52,52,52,52,52,52,52,52,52,52,52,52,52,52,52,
52,52,52,52,52,52,52,52,52,52,52,52,52,52,52,52,
52,52,52,52,52,52,52,52,52,52,52,52,52,52,52,52,
52,52,52,52,52,52,52,52,52,52,52,52,52,52,52,52,
52,52,52,52,52,52,52,52,52,52,52,52,52,52,52,52
</chunk>
   <chunk x="288" y="80" width="16" height="16">
52,52,52,52,52,52,52,52,52,52,52,52,52,52,52,52,
52,52,52,52,52,52,52,52,52,52,52,52,52,52,52,52,
52,52,52,52,52,52,52,52,52,52,52,52,52,52,52,52,
52,52,52,52,52,52,52,52,52,52,52,52,52,52,52,52,
52,52,52,52,52,52,52,52,52,52,52,52,52,52,52,52,
52,52,52,52,52,52,52,52,52,52,52,52,52,52,52,52,
52,52,52,52,52,52,52,52,52,52,52,52,52,52,52,52,
52,52,52,52,52,52,52,52,52,52,52,52,52,52,52,52,
52,52,52,52,52,52,52,52,52,52,52,52,52,52,52,52,
52,52,52,52,52,52,52,52,52,52,52,52,52,52,52,52,
52,52,52,52,52,52,52,52,52,52,52,52,52,52,52,52,
52,52,52,52,52,52,52,52,52,52,52,52,52,52,52,52,
52,52,52,52,52,52,52,52,52,52,52,52,52,52,52,52,
52,52,52,52,52,52,52,52,52,52,52,52,52,52,52,52,
52,52,52,52,52,52,52,52,52,52,52,52,52,52,52,52,
52,52,52,52,52,52,52,52,52,52,52,52,52,52,52,52
</chunk>
   <chunk x="304" y="80" width="16" height="16">
52,52,52,52,52,52,52,52,52,52,52,52,52,52,52,52,
52,52,52,52,52,52,52,52,52,52,52,52,52,52,52,52,
52,52,52,52,52,52,52,52,52,52,52,52,52,52,52,52,
52,52,52,52,52,52,52,52,52,52,52,52,52,52,52,52,
52,52,52,52,52,52,52,52,52,52,52,52,52,52,52,52,
52,52,52,52,52,52,52,52,52,52,52,52,52,52,52,52,
52,52,52,52,52,52,52,52,52,52,52,52,52,52,52,52,
52,52,52,52,52,52,52,52,52,52,52,52,52,52,52,52,
52,52,52,52,52,52,52,52,52,52,52,52,52,52,52,52,
52,52,52,52,52,52,52,52,52,52,52,52,52,52,52,52,
52,52,52,52,52,52,52,52,52,52,52,52,52,52,52,52,
52,52,52,52,52,52,52,52,52,52,52,52,52,52,52,52,
52,52,52,52,52,52,52,52,52,52,52,52,52,52,52,52,
52,52,52,52,52,52,52,52,52,52,52,52,52,52,52,52,
52,52,52,52,52,52,52,52,52,52,52,52,52,52,52,52,
52,52,52,52,52,52,52,52,52,52,52,52,52,52,52,52
</chunk>
   <chunk x="0" y="96" width="16" height="16">
52,52,52,52,52,53,53,53,53,53,53,53,53,53,53,53,
52,52,52,52,52,53,53,53,53,53,53,53,53,53,53,53,
52,52,52,52,52,53,53,53,53,53,53,53,53,53,53,53,
52,52,52,52,52,53,53,53,53,53,53,53,53,53,53,53,
52,52,52,52,52,53,53,53,53,53,53,53,53,53,53,53,
52,52,52,52,52,53,53,53,53,53,53,53,53,53,53,53,
52,52,52,52,52,53,53,53,53,53,53,53,53,53,53,53,
52,52,52,52,52,53,53,53,53,53,53,53,53,53,53,53,
52,52,52,52,52,53,53,53,53,53,53,53,53,53,53,53,
52,52,52,52,52,53,53,53,53,53,53,53,53,53,53,53,
52,52,52,52,52,53,53,53,53,53,53,53,53,53,53,53,
52,52,52,52,52,53,53,53,53,53,53,53,53,53,53,53,
52,52,52,52,52,53,53,53,53,53,53,53,53,53,53,53,
52,52,52,52,52,53,53,53,53,53,53,53,53,53,53,53,
52,52,52,52,52,53,53,53,53,53,53,53,53,53,53,53,
52,52,52,52,52,53,53,53,53,53,53,53,53,53,53,53
</chunk>
   <chunk x="16" y="96" width="16" height="16">
53,53,52,52,52,52,52,52,52,52,52,52,52,52,52,53,
53,53,52,52,52,52,52,52,52,52,52,52,52,52,52,53,
53,53,52,52,52,52,52,52,52,52,52,52,52,52,52,53,
53,53,52,52,52,52,52,52,52,52,52,52,52,52,52,53,
53,53,52,52,52,52,52,52,52,52,52,52,52,52,52,53,
53,53,52,52,52,52,52,52,52,52,52,52,52,52,52,53,
53,53,52,52,52,52,52,52,52,52,52,52,52,52,52,53,
53,53,52,52,52,52,52,52,52,52,52,52,52,52,52,53,
53,53,52,52,52,52,52,52,52,52,52,52,52,52,52,53,
53,53,52,52,52,52,52,52,52,52,52,52,52,52,52,53,
53,53,52,52,52,52,52,52,52,52,52,52,52,52,52,53,
53,53,52,52,52,52,52,52,52,52,52,52,52,52,52,53,
53,53,52,52,52,52,52,52,52,52,52,52,52,52,52,53,
53,53,52,52,52,52,52,52,52,52,52,52,52,52,52,53,
53,53,52,52,52,52,52,52,52,52,52,52,52,52,52,53,
53,53,52,52,52,52,52,52,52,52,52,52,52,52,52,53
</chunk>
   <chunk x="32" y="96" width="16" height="16">
53,53,53,53,53,53,53,53,53,53,53,53,52,52,52,52,
53,53,53,53,53,53,53,53,53,53,53,53,52,52,52,52,
53,53,53,53,53,53,53,53,53,53,53,53,52,52,52,52,
53,53,53,53,53,53,53,53,53,53,53,53,52,52,52,52,
53,53,53,53,53,53,53,53,53,53,53,53,52,52,52,52,
53,53,53,53,53,53,53,53,53,53,53,53,52,52,52,52,
53,53,53,53,53,53,53,53,53,53,53,53,52,52,52,52,
53,53,53,53,53,53,53,53,53,53,53,53,52,52,52,52,
53,53,53,53,53,53,53,53,53,53,53,53,52,52,52,52,
53,53,53,53,53,53,53,53,53,53,53,53,52,52,52,52,
53,53,53,53,53,53,53,53,53,53,53,53,52,52,52,52,
53,53,53,53,53,53,53,53,53,53,53,53,52,52,52,52,
53,53,53,53,53,53,53,53,53,53,53,53,52,52,52,52,
53,53,53,53,53,53,53,53,53,53,53,53,52,52,52,52,
53,53,53,53,53,53,53,53,53,53,53,53,52,52,52,52,
53,53,53,53,53,53,53,53,53,53,53,53,52,52,52,52
</chunk>
   <chunk x="48" y="96" width="16" height="16">
52,52,52,52,52,52,52,52,52,53,53,53,53,53,53,53,
52,52,52,52,52,52,52,52,52,53,53,53,53,53,53,53,
52,52,52,52,52,52,52,52,52,53,53,53,53,53,53,53,
52,52,52,52,52,52,52,52,52,53,53,53,53,53,53,53,
52,52,52,52,52,52,52,52,52,53,53,53,53,53,53,53,
52,52,52,52,52,52,52,52,52,53,53,53,53,53,53,53,
52,52,52,52,52,52,52,52,52,53,53,53,53,53,53,53,
52,52,52,52,52,52,52,52,52,53,53,53,53,53,53,53,
52,52,52,52,52,52,52,52,52,53,53,53,53,53,53,53,
52,52,52,52,52,52,52,52,52,53,53,53,53,53,53,53,
52,52,52,52,52,52,52,52,52,53,53,53,53,53,53,53,
52,52,52,52,52,52,52,52,52,53,53,53,53,53,53,53,
52,52,52,52,52,52,52,52,52,53,53,53,53,53,53,53,
52,52,52,52,52,52,52,52,52,53,53,53,53,53,53,53,
52,52,52,52,52,52,52,52,52,53,53,53,53,53,53,53,
52,52,52,52,52,52,52,52,52,53,53,53,53,53,53,53
</chunk>
   <chunk x="64" y="96" width="16" height="16">
53,53,53,53,53,53,53,53,53,53,52,52,52,52,52,52,
53,53,53,53,53,53,53,53,53,53,52,52,52,52,52,52,
53,53,53,53,53,53,53,53,53,53,52,52,52,52,52,52,
53,53,53,53,53,53,53,53,53,53,52,52,52,52,52,52,
53,53,53,53,53,53,53,53,53,53,52,52,52,52,52,52,
53,53,53,53,53,53,53,53,53,53,52,52,52,52,52,52,
53,53,53,53,53,53,53,53,53,53,52,52,52,52,52,52,
53,53,53,53,53,53,53,53,53,53,52,52,52,52,52,52,
53,53,53,53,53,53,53,53,53,53,52,52,52,52,52,52,
53,53,53,53,53,53,53,53,53,53,52,52,52,52,52,52,
53,53,53,53,53,53,53,53,53,53,52,52,52,52,52,52,
53,53,53,53,53,53,53,53,53,53,52,52,52,52,52,52,
53,53,53,53,53,53,53,53,53,53,52,52,52,52,52,52,
53,53,53,53,53,53,53,53,53,53,52,52,52,52,52,52,
53,53,53,53,53,53,53,53,53,53,52,52,52,52,52,52,
53,53,53,53,53,53,53,53,53,53,52,52,52,52,52,52
</chunk>
   <chunk x="80" y="96" width="16" height="16">
52,52,52,52,52,52,52,52,52,52,52,53,53,53,53,53,
52,52,52,52,52,52,52,52,52,52,52,53,53,53,53,53,
52,52,52,52,52,52,52,52,52,52,52,53,53,53,53,53,
52,52,52,52,52,52,52,52,52,52,52,53,53,53,53,53,
52,52,52,52,52,52,52,52,52,52,52,53,53,53,53,53,
52,52,52,52,52,52,52,52,52,52,52,53,53,53,53,53,
52,52,52,52,52,52,52,52,52,52,52,53,53,53,53,53,
52,52,52,52,52,52,52,52,52,52,52,53,53,53,53,53,
52,52,52,52,52,52,52,52,52,52,52,53,53,53,53,53,
52,52,52,52,52,52,52,52,52,52,52,53,53,53,53,53,
52,52,52,52,52,52,52,52,52,52,52,53,53,53,53,53,
52,52,52,52,52,52,52,52,52,52,52,53,53,53,53,53,
52,52,52,52,52,52,52,52,52,52,52,53,53,53,53,53,
52,52,52,52,52,52,52,52,52,52,52,53,53,53,53,53,
52,52,52,52,52,52,52,52,52,52,52,53,53,53,53,53,
52,52,52,52,52,52,52,52,52,52,52,53,53,53,53,53
</chunk>
   <chunk x="96" y="96" width="16" height="16">
53,53,53,53,53,53,53,53,53,53,53,53,53,53,53,53,
53,53,53,53,53,53,53,53,53,53,53,53,53,53,53,53,
53,53,53,53,53,53,53,53,53,53,53,53,53,53,53,53,
53,53,53,53,53,53,53,53,53,53,53,53,53,53,53,53,
53,53,53,53,53,53,53,53,53,53,53,53,53,53,53,53,
53,53,53,53,53,53,53,53,53,53,53,53,53,53,53,53,
53,53,53,53,53,53,53,53,53,53,53,53,53,53,53,53,
53,53,53,53,53,53,53,53,53,53,53,53,53,53,53,53,
53,53,53,53,53,53,53,53,53,53,53,53,53,53,53,53,
53,53,53,53,53,53,53,53,53,53,53,53,53,53,53,53,
53,53,53,53,53,53,53,53,53,53,53,53,53,53,53,53,
53,53,53,53,53,53,53,53,53,53,53,53,53,53,53,53,
53,53,53,53,53,53,53,53,53,53,53,53,53,53,53,53,
53,53,53,53,53,53,53,53,53,53,53,53,53,53,53,53,
53,53,53,53,53,53,53,53,53,53,53,53,53,53,53,53,
53,53,53,53,53,53,53,53,53,53,53,53,53,53,53,53
</chunk>
   <chunk x="112" y="96" width="16" height="16">
53,53,53,53,53,52,52,52,52,52,52,52,52,52,52,52,
53,53,53,53,53,52,52,52,52,52,52,52,52,52,52,52,
53,53,53,53,53,52,52,52,52,52,52,52,52,52,52,52,
53,53,53,53,53,52,52,52,52,52,52,52,52,52,52,52,
53,53,53,53,53,52,52,52,52,52,52,52,52,52,52,52,
53,53,53,53,53,52,52,52,52,52,52,52,52,52,52,52,
53,53,53,53,53,52,52,52,52,52,52,52,52,52,52,52,
53,53,53,53,53,52,52,52,52,52,52,52,52,52,52,52,
53,53,53,53,53,52,52,52,52,52,52,52,52,52,52,52,
53,53,53,53,53,52,52,52,52,52,52,52,52,52,52,52,
53,53,53,53,53,52,52,52,52,52,52,52,52,52,52,52,
53,53,53,53,53,52,52,52,52,52,52,52,52,52,52,52,
53,53,53,53,53,52,52,52,52,52,52,52,52,52,52,52,
53,53,53,53,53,52,52,52,52,52,52,52,52,52,52,52,
53,53,53,53,53,52,52,52,52,52,52,52,52,52,52,52,
53,53,53,53,53,52,52,52,52,52,52,52,52,52,52,52
</chunk>
   <chunk x="128" y="96" width="16" height="16">
53,53,53,53,53,53,53,53,53,53,53,53,53,53,53,53,
53,53,53,53,53,53,53,53,53,53,53,53,53,53,53,53,
53,53,53,53,53,53,53,53,53,53,53,53,53,53,53,53,
53,53,53,53,53,53,53,53,53,53,53,53,53,53,53,53,
53,53,53,53,53,53,53,53,53,53,53,53,53,53,53,53,
53,53,53,53,53,53,53,53,53,53,53,53,53,53,53,53,
53,53,53,53,53,53,53,53,53,53,53,53,53,53,53,53,
53,53,53,53,53,53,53,53,53,53,53,53,53,53,53,53,
53,53,53,53,53,53,53,53,53,53,53,53,53,53,53,53,
53,53,53,53,53,53,53,53,53,53,53,53,53,53,53,53,
53,53,53,53,53,53,53,53,53,53,53,53,53,53,53,53,
53,53,53,53,53,53,53,53,53,53,53,53,53,53,53,53,
53,53,53,53,53,53,53,53,53,53,53,53,53,53,53,53,
53,53,53,53,53,53,53,53,53,53,53,53,53,53,53,53,
53,53,53,53,53,53,53,53,53,53,53,53,53,53,53,53,
53,53,53,53,53,53,53,53,53,53,53,53,53,53,53,53
</chunk>
   <chunk x="144" y="96" width="16" height="16">
53,53,53,53,53,53,53,53,53,53,53,53,53,53,53,52,
53,53,53,53,53,53,53,53,53,53,53,53,53,53,53,52,
53,53,53,53,53,53,53,53,53,53,53,53,53,53,53,52,
53,53,53,53,53,53,53,53,53,53,53,53,53,53,53,52,
53,53,53,53,53,53,53,53,53,53,53,53,53,53,53,52,
53,53,53,53,53,53,53,53,53,53,53,53,53,53,53,52,
53,53,53,53,53,53,53,53,53,53,53,53,53,53,53,52,
53,53,53,53,53,53,53,53,53,53,53,53,53,53,53,52,
53,53,53,53,53,53,53,53,53,53,53,53,53,53,53,52,
53,53,53,53,53,53,53,53,53,53,53,53,53,53,53,52,
53,53,53,53,53,53,53,53,53,53,53,53,53,53,53,52,
53,53,53,53,53,53,53,53,53,53,53,53,53,53,53,52,
53,53,53,53,53,53,53,53,53,53,53,53,53,53,53,52,
53,53,53,53,53,53,53,53,53,53,53,53,53,53,53,52,
53,53,53,53,53,53,53,53,53,53,53,53,53,53,53,52,
53,53,53,53,53,53,53,53,53,53,53,53,53,53,53,52
</chunk>
   <chunk x="160" y="96" width="16" height="16">
52,52,52,52,52,52,52,52,52,52,52,52,52,52,52,52,
52,52,52,52,52,52,52,52,52,52,52,52,52,52,52,52,
52,52,52,52,52,52,52,52,52,52,52,52,52,52,52,52,
52,52,52,52,52,52,52,52,52,52,52,52,52,52,52,52,
52,52,52,52,52,52,52,52,52,52,52,52,52,52,52,52,
52,52,52,52,52,52,52,52,52,52,52,52,52,52,52,52,
52,52,52,52,52,52,52,52,52,52,52,52,52,52,52,52,
52,52,52,52,52,52,52,52,52,52,52,52,52,52,52,52,
52,52,52,52,52,52,52,52,52,52,52,52,52,52,52,52,
52,52,52,52,52,52,52,52,52,52,52,52,52,52,52,52,
52,52,52,52,52,52,52,52,52,52,52,52,52,52,52,52,
52,52,52,52,52,52,52,52,52,52,52,52,52,52,52,52,
52,52,52,52,52,52,52,52,52,52,52,52,52,52,52,52,
52,52,52,52,52,52,52,52,52,52,52,52,52,52,52,52,
52,52,52,52,52,52,52,52,52,52,52,52,52,52,52,52,
52,52,52,52,52,52,52,52,52,52,52,52,52,52,52,52
</chunk>
   <chunk x="176" y="96" width="16" height="16">
52,53,53,53,53,53,53,53,53,53,53,53,53,53,53,53,
52,53,53,53,53,53,53,53,53,53,53,53,53,53,53,53,
52,53,53,53,53,53,53,53,53,53,53,53,53,53,53,53,
52,53,53,53,53,53,53,53,53,53,53,53,53,53,53,53,
52,53,53,53,53,53,53,53,53,53,53,53,53,53,53,53,
52,53,53,53,53,53,53,53,53,53,53,53,53,53,53,53,
52,53,53,53,53,53,53,53,53,53,53,53,53,53,53,53,
52,53,53,53,53,53,53,53,53,53,53,53,53,53,53,53,
52,53,53,53,53,53,53,53,53,53,53,53,53,53,53,53,
52,53,53,53,53,53,53,53,53,53,53,53,53,53,53,53,
52,53,53,53,53,53,53,53,53,53,53,53,53,53,53,53,
52,53,53,53,53,53,53,53,53,53,53,53,53,53,53,53,
52,53,53,53,53,53,53,53,53,53,53,53,53,53,53,53,
52,53,53,53,53,53,53,53,53,53,53,53,53,53,53,53,
52,53,53,53,53,53,53,53,53,53,53,53,53,53,53,53,
52,53,53,53,53,53,53,53,53,53,53,53,53,53,53,53
</chunk>
   <chunk x="192" y="96" width="16" height="16">
53,53,53,53,53,53,53,53,53,53,53,53,53,53,53,53,
53,53,53,53,53,53,53,53,53,53,53,53,53,53,53,53,
53,53,53,53,53,53,53,53,53,53,53,53,53,53,53,53,
53,53,53,53,53,53,53,53,53,53,53,53,53,53,53,53,
53,53,53,53,53,53,53,53,53,53,53,53,53,53,53,53,
53,53,53,53,53,53,53,53,53,53,53,53,53,53,53,53,
53,53,53,53,53,53,53,53,53,53,53,53,53,53,53,53,
53,53,53,53,53,53,53,53,53,53,53,53,53,53,53,53,
53,53,53,53,53,53,53,53,53,53,53,53,53,53,53,53,
53,53,53,53,53,53,53,53,53,53,53,53,53,53,53,53,
53,53,53,53,53,53,53,53,53,53,53,53,53,53,53,53,
53,53,53,53,53,53,53,53,53,53,53,53,53,53,53,53,
53,53,53,53,53,53,53,53,53,53,53,53,53,53,53,53,
53,53,53,53,53,53,53,53,53,53,53,53,53,53,53,53,
53,53,53,53,53,53,53,53,53,53,53,53,53,53,53,53,
53,53,53,53,53,53,53,53,53,53,53,53,53,53,53,53
</chunk>
   <chunk x="208" y="96" width="16" height="16">
53,53,53,53,53,53,53,53,53,53,53,53,53,53,53,53,
53,53,53,53,53,53,53,53,53,53,53,53,53,53,53,53,
53,53,53,53,53,53,53,53,53,53,53,53,53,53,53,53,
53,53,53,53,53,53,53,53,53,53,53,53,53,53,53,53,
53,53,53,53,53,53,53,53,53,53,53,53,53,53,53,53,
53,53,53,53,53,53,53,53,53,53,53,53,53,53,53,53,
53,53,53,53,53,53,53,53,53,53,53,53,53,53,53,53,
53,53,53,53,53,53,53,53,53,53,53,53,53,53,53,53,
53,53,53,53,53,53,53,53,53,53,53,53,53,53,53,53,
53,53,53,53,53,53,53,53,53,53,53,53,53,53,53,53,
53,53,53,53,53,53,53,53,53,53,53,53,53,53,53,53,
53,53,53,53,53,53,53,53,53,53,53,53,53,53,53,53,
53,53,53,53,53,53,53,53,53,53,53,53,53,53,53,53,
53,53,53,53,53,53,53,53,53,53,53,53,53,53,53,53,
53,53,53,53,53,53,53,53,53,53,53,53,53,53,53,53,
53,53,53,53,53,53,53,53,53,53,53,53,53,53,53,53
</chunk>
   <chunk x="224" y="96" width="16" height="16">
53,53,53,53,53,53,53,52,52,52,52,52,52,52,52,52,
53,53,53,53,53,53,53,52,52,52,52,52,52,52,52,52,
53,53,53,53,53,53,53,52,52,52,52,52,52,52,52,52,
53,53,53,53,53,53,53,52,52,52,52,52,52,52,52,52,
53,53,53,53,53,53,53,52,52,52,52,52,52,52,52,52,
53,53,53,53,53,53,53,52,52,52,52,52,52,52,52,52,
53,53,53,53,53,53,53,52,52,52,52,52,52,52,52,52,
53,53,53,53,53,53,53,52,52,52,52,52,52,52,52,52,
53,53,53,53,53,53,53,52,52,52,52,52,52,52,52,52,
53,53,53,53,53,53,53,52,52,52,52,52,52,52,52,52,
53,53,53,53,53,53,53,52,52,52,52,52,52,52,52,52,
53,53,53,53,53,53,53,52,52,52,52,52,52,52,52,52,
53,53,53,53,53,53,53,52,52,52,52,52,52,52,52,52,
53,53,53,53,53,53,53,52,52,52,52,52,52,52,52,52,
53,53,53,53,53,53,53,52,52,52,52,52,52,52,52,52,
53,53,53,53,53,53,53,52,52,52,52,52,52,52,52,52
</chunk>
   <chunk x="240" y="96" width="16" height="16">
52,52,52,52,52,52,52,52,52,52,52,52,52,52,52,52,
52,52,52,52,52,52,52,52,52,52,52,52,52,52,52,52,
52,52,52,52,52,52,52,52,52,52,52,52,52,52,52,52,
52,52,52,52,52,52,52,52,52,52,52,52,52,52,52,52,
52,52,52,52,52,52,52,52,52,52,52,52,52,52,52,52,
52,52,52,52,52,52,52,52,52,52,52,52,52,52,52,52,
52,52,52,52,52,52,52,52,52,52,52,52,52,52,52,52,
52,52,52,52,52,52,52,52,52,52,52,52,52,52,52,52,
52,52,52,52,52,52,52,52,52,52,52,52,52,52,52,52,
52,52,52,52,52,52,52,52,52,52,52,52,52,52,52,52,
52,52,52,52,52,52,52,52,52,52,52,52,52,52,52,52,
52,52,52,52,52,52,52,52,52,52,52,52,52,52,52,52,
52,52,52,52,52,52,52,52,52,52,52,52,52,52,52,52,
52,52,52,52,52,52,52,52,52,52,52,52,52,52,52,52,
52,52,52,52,52,52,52,52,52,52,52,52,52,52,52,52,
52,52,52,52,52,52,52,52,52,52,52,52,52,52,52,52
</chunk>
   <chunk x="256" y="96" width="16" height="16">
52,52,52,52,52,52,52,52,52,52,52,52,52,52,52,52,
52,52,52,52,52,52,52,52,52,52,52,52,52,52,52,52,
52,52,52,52,52,52,52,52,52,52,52,52,52,52,52,52,
52,52,52,52,52,52,52,52,52,52,52,52,52,52,52,52,
52,52,52,52,52,52,52,52,52,52,52,52,52,52,52,52,
52,52,52,52,52,52,52,52,52,52,52,52,52,52,52,52,
52,52,52,52,52,52,52,52,52,52,52,52,52,52,52,52,
52,52,52,52,52,52,52,52,52,52,52,52,52,52,52,52,
52,52,52,52,52,52,52,52,52,52,52,52,52,52,52,52,
52,52,52,52,52,52,52,52,52,52,52,52,52,52,52,52,
52,52,52,52,52,52,52,52,52,52,52,52,52,52,52,52,
52,52,52,52,52,52,52,52,52,52,52,52,52,52,52,52,
52,52,52,52,52,52,52,52,52,52,52,52,52,52,52,52,
52,52,52,52,52,52,52,52,52,52,52,52,52,52,52,52,
52,52,52,52,52,52,52,52,52,52,52,52,52,52,52,52,
52,52,52,52,52,52,52,52,52,52,52,52,52,52,52,52
</chunk>
   <chunk x="272" y="96" width="16" height="16">
52,52,52,52,52,52,52,52,52,52,52,52,52,52,52,52,
52,52,52,52,52,52,52,52,52,52,52,52,52,52,52,52,
52,52,52,52,52,52,52,52,52,52,52,52,52,52,52,52,
52,52,52,52,52,52,52,52,52,52,52,52,52,52,52,52,
52,52,52,52,52,52,52,52,52,52,52,52,52,52,52,52,
52,52,52,52,52,52,52,52,52,52,52,52,52,52,52,52,
52,52,52,52,52,52,52,52,52,52,52,52,52,52,52,52,
52,52,52,52,52,52,52,52,52,52,52,52,52,52,52,52,
52,52,52,52,52,52,52,52,52,52,52,52,52,52,52,52,
52,52,52,52,52,52,52,52,52,52,52,52,52,52,52,52,
52,52,52,52,52,52,52,52,52,52,52,52,52,52,52,52,
52,52,52,52,52,52,52,52,52,52,52,52,52,52,52,52,
52,52,52,52,52,52,52,52,52,52,52,52,52,52,52,52,
52,52,52,52,52,52,52,52,52,52,52,52,52,52,52,52,
52,52,52,52,52,52,52,52,52,52,52,52,52,52,52,52,
52,52,52,52,52,52,52,52,52,52,52,52,52,52,52,52
</chunk>
   <chunk x="288" y="96" width="16" height="16">
52,52,52,52,52,52,52,52,52,52,52,52,52,52,52,52,
52,52,52,52,52,52,52,52,52,52,52,52,52,52,52,52,
52,52,52,52,52,52,52,52,52,52,52,52,52,52,52,52,
52,52,52,52,52,52,52,52,52,52,52,52,52,52,52,52,
52,52,52,52,52,52,52,52,52,52,52,52,52,52,52,52,
52,52,52,52,52,52,52,52,52,52,52,52,52,52,52,52,
52,52,52,52,52,52,52,52,52,52,52,52,52,52,52,52,
52,52,52,52,52,52,52,52,52,52,52,52,52,52,52,52,
52,52,52,52,52,52,52,52,52,52,52,52,52,52,52,52,
52,52,52,52,52,52,52,52,52,52,52,52,52,52,52,52,
52,52,52,52,52,52,52,52,52,52,52,52,52,52,52,52,
52,52,52,52,52,52,52,52,52,52,52,52,52,52,52,52,
52,52,52,52,52,52,52,52,52,52,52,52,52,52,52,52,
52,52,52,52,52,52,52,52,52,52,52,52,52,52,52,52,
52,52,52,52,52,52,52,52,52,52,52,52,52,52,52,52,
52,52,52,52,52,52,52,52,52,52,52,52,52,52,52,52
</chunk>
   <chunk x="304" y="96" width="16" height="16">
52,52,52,52,52,52,52,52,52,52,52,52,52,52,52,52,
52,52,52,52,52,52,52,52,52,52,52,52,52,52,52,52,
52,52,52,52,52,52,52,52,52,52,52,52,52,52,52,52,
52,52,52,52,52,52,52,52,52,52,52,52,52,52,52,52,
52,52,52,52,52,52,52,52,52,52,52,52,52,52,52,52,
52,52,52,52,52,52,52,52,52,52,52,52,52,52,52,52,
52,52,52,52,52,52,52,52,52,52,52,52,52,52,52,52,
52,52,52,52,52,52,52,52,52,52,52,52,52,52,52,52,
52,52,52,52,52,52,52,52,52,52,52,52,52,52,52,52,
52,52,52,52,52,52,52,52,52,52,52,52,52,52,52,52,
52,52,52,52,52,52,52,52,52,52,52,52,52,52,52,52,
52,52,52,52,52,52,52,52,52,52,52,52,52,52,52,52,
52,52,52,52,52,52,52,52,52,52,52,52,52,52,52,52,
52,52,52,52,52,52,52,52,52,52,52,52,52,52,52,52,
52,52,52,52,52,52,52,52,52,52,52,52,52,52,52,52,
52,52,52,52,52,52,52,52,52,52,52,52,52,52,52,52
</chunk>
   <chunk x="0" y="112" width="16" height="16">
52,52,52,52,52,53,53,53,53,53,53,53,53,53,53,53,
52,52,52,52,52,53,53,53,53,53,53,53,53,53,53,53,
52,52,52,52,52,53,53,53,53,53,53,53,53,53,53,53,
52,52,52,52,52,53,53,53,53,53,53,53,53,53,53,53,
52,52,52,52,52,53,53,53,53,53,53,53,53,53,53,53,
52,52,52,52,52,53,53,53,53,53,53,53,53,53,53,53,
52,52,52,52,52,53,53,53,53,53,53,53,53,53,53,53,
52,52,52,52,52,53,53,53,53,53,53,53,53,53,53,53,
52,52,52,52,52,53,53,53,53,53,53,53,53,53,53,53,
52,52,52,52,52,53,53,53,53,53,53,53,53,53,53,53,
52,52,52,52,52,53,53,53,53,53,53,53,53,53,53,53,
52,52,52,52,52,53,53,53,53,53,53,53,53,53,53,53,
52,52,52,52,52,53,53,53,53,53,53,53,53,53,53,53,
52,52,52,52,52,53,53,53,53,53,53,53,53,53,53,53,
52,52,52,52,52,53,53,53,53,53,53,53,53,53,53,53,
52,52,52,52,52,53,53,53,53,53,53,53,53,53,53,53
</chunk>
   <chunk x="16" y="112" width="16" height="16">
53,53,52,52,52,52,52,52,52,52,52,52,52,52,52,53,
53,53,52,52,52,52,52,52,52,52,52,52,52,52,52,53,
53,53,52,52,52,52,52,52,52,52,52,52,52,52,52,53,
53,53,52,52,52,52,52,52,52,52,52,52,52,52,52,53,
53,53,52,52,52,52,52,52,52,52,52,52,52,52,52,53,
53,53,52,52,52,52,52,52,52,52,52,52,52,52,52,53,
53,53,52,52,52,52,52,52,52,52,52,52,52,52,52,53,
53,53,52,52,52,52,52,52,52,52,52,52,52,52,52,53,
53,53,52,52,52,52,52,52,52,52,52,52,52,52,52,53,
53,53,52,52,52,52,52,52,52,52,52,52,52,52,52,53,
53,53,52,52,52,52,52,52,52,52,52,52,52,52,52,53,
53,53,52,52,52,52,52,52,52,52,52,52,52,52,52,53,
53,53,52,52,52,52,52,52,52,52,52,52,52,52,52,53,
53,53,52,52,52,52,52,52,52,52,52,52,52,52,52,53,
53,53,52,52,52,52,52,52,52,52,52,52,52,52,52,53,
53,53,52,52,52,52,52,52,52,52,52,52,52,52,52,53
</chunk>
   <chunk x="32" y="112" width="16" height="16">
53,53,53,53,53,53,53,53,53,53,53,53,52,52,52,52,
53,53,53,53,53,53,53,53,53,53,53,53,52,52,52,52,
53,53,53,53,53,53,53,53,53,53,53,53,52,52,52,52,
53,53,53,53,53,53,53,53,53,53,53,53,52,52,52,52,
53,53,53,53,53,53,53,53,53,53,53,53,52,52,52,52,
53,53,53,53,53,53,53,53,53,53,53,53,52,52,52,52,
53,53,53,53,53,53,53,53,53,53,53,53,52,52,52,52,
53,53,53,53,53,53,53,53,53,53,53,53,52,52,52,52,
53,53,53,53,53,53,53,53,53,53,53,53,52,52,52,52,
53,53,53,53,53,53,53,53,53,53,53,53,52,52,52,52,
53,53,53,53,53,53,53,53,53,53,53,53,52,52,52,52,
53,53,53,53,53,53,53,53,53,53,53,53,52,52,52,52,
53,53,53,53,53,53,53,53,53,53,53,53,52,52,52,52,
53,53,53,53,53,53,53,53,53,53,53,53,52,52,52,52,
53,53,53,53,53,53,53,53,53,53,53,53,52,52,52,52,
53,53,53,53,53,53,53,53,53,53,53,53,52,52,52,52
</chunk>
   <chunk x="48" y="112" width="16" height="16">
52,52,52,52,52,52,52,52,52,53,53,53,53,53,53,53,
52,52,52,52,52,52,52,52,52,53,53,53,53,53,53,53,
52,52,52,52,52,52,52,52,52,53,53,53,53,53,53,53,
52,52,52,52,52,52,52,52,52,53,53,53,53,53,53,53,
52,52,52,52,52,52,52,52,52,53,53,53,53,53,53,53,
52,52,52,52,52,52,52,52,52,53,53,53,53,53,53,53,
52,52,52,52,52,52,52,52,52,53,53,53,53,53,53,53,
52,52,52,52,52,52,52,52,52,53,53,53,53,53,53,53,
52,52,52,52,52,52,52,52,52,53,53,53,53,53,53,53,
52,52,52,52,52,52,52,52,52,53,53,53,53,53,53,53,
52,52,52,52,52,52,52,52,52,53,53,53,53,53,53,53,
52,52,52,52,52,52,52,52,52,53,53,53,53,53,53,53,
52,52,52,52,52,52,52,52,52,53,53,53,53,53,53,53,
52,52,52,52,52,52,52,52,52,53,53,53,53,53,53,53,
52,52,52,52,52,52,52,52,52,53,53,53,53,53,53,53,
52,52,52,52,52,52,52,52,52,53,53,53,53,53,53,53
</chunk>
   <chunk x="64" y="112" width="16" height="16">
53,53,53,53,53,53,53,53,53,53,52,52,52,52,52,52,
53,53,53,53,53,53,53,53,53,53,52,52,52,52,52,52,
53,53,53,53,53,53,53,53,53,53,52,52,52,52,52,52,
53,53,53,53,53,53,53,53,53,53,52,52,52,52,52,52,
53,53,53,53,53,53,53,53,53,53,52,52,52,52,52,52,
53,53,53,53,53,53,53,53,53,53,52,52,52,52,52,52,
53,53,53,53,53,53,53,53,53,53,52,52,52,52,52,52,
53,53,53,53,53,53,53,53,53,53,52,52,52,52,52,52,
53,53,53,53,53,53,53,53,53,53,52,52,52,52,52,52,
53,53,53,53,53,53,53,53,53,53,52,52,52,52,52,52,
53,53,53,53,53,53,53,53,53,53,52,52,52,52,52,52,
53,53,53,53,53,53,53,53,53,53,52,52,52,52,52,52,
53,53,53,53,53,53,53,53,53,53,52,52,52,52,52,52,
53,53,53,53,53,53,53,53,53,53,52,52,52,52,52,52,
53,53,53,53,53,53,53,53,53,53,52,52,52,52,52,52,
53,53,53,53,53,53,53,53,53,53,52,52,52,52,52,52
</chunk>
   <chunk x="80" y="112" width="16" height="16">
52,52,52,52,52,52,52,52,52,52,52,53,53,53,53,53,
52,52,52,52,52,52,52,52,52,52,52,53,53,53,53,53,
52,52,52,52,52,52,52,52,52,52,52,53,53,53,53,53,
52,52,52,52,52,52,52,52,52,52,52,53,53,53,53,53,
52,52,52,52,52,52,52,52,52,52,52,53,53,53,53,53,
52,52,52,52,52,52,52,52,52,52,52,53,53,53,53,53,
52,52,52,52,52,52,52,52,52,52,52,53,53,53,53,53,
52,52,52,52,52,52,52,52,52,52,52,53,53,53,53,53,
52,52,52,52,52,52,52,52,52,52,52,53,53,53,53,53,
52,52,52,52,52,52,52,52,52,52,52,53,53,53,53,53,
52,52,52,52,52,52,52,52,52,52,52,53,53,53,53,53,
52,52,52,52,52,52,52,52,52,52,52,53,53,53,53,53,
52,52,52,52,52,52,52,52,52,52,52,53,53,53,53,53,
52,52,52,52,52,52,52,52,52,52,52,53,53,53,53,53,
52,52,52,52,52,52,52,52,52,52,52,53,53,53,53,53,
52,52,52,52,52,52,52,52,52,52,52,53,53,53,53,53
</chunk>
   <chunk x="96" y="112" width="16" height="16">
53,53,53,53,53,53,53,53,53,53,53,53,53,53,53,53,
53,53,53,53,53,53,53,53,53,53,53,53,53,53,53,53,
53,53,53,53,53,53,53,53,53,53,53,53,53,53,53,53,
53,53,53,53,53,53,53,53,53,53,53,53,53,53,53,53,
53,53,53,53,53,53,53,53,53,53,53,53,53,53,53,53,
53,53,53,53,53,53,53,53,53,53,53,53,53,53,53,53,
53,53,53,53,53,53,53,53,53,53,53,53,53,53,53,53,
53,53,53,53,53,53,53,53,53,53,53,53,53,53,53,53,
53,53,53,53,53,53,53,53,53,53,53,53,53,53,53,53,
53,53,53,53,53,53,53,53,53,53,53,53,53,53,53,53,
53,53,53,53,53,53,53,53,53,53,53,53,53,53,53,53,
53,53,53,53,53,53,53,53,53,53,53,53,53,53,53,53,
53,53,53,53,53,53,53,53,53,53,53,53,53,53,53,53,
53,53,53,53,53,53,53,53,53,53,53,53,53,53,53,53,
53,53,53,53,53,53,53,53,53,53,53,53,53,53,53,53,
53,53,53,53,53,53,53,53,53,53,53,53,53,53,53,53
</chunk>
   <chunk x="112" y="112" width="16" height="16">
53,53,53,53,53,52,52,52,52,52,52,52,52,52,52,52,
53,53,53,53,53,52,52,52,52,52,52,52,52,52,52,52,
53,53,53,53,53,52,52,52,52,52,52,52,52,52,52,52,
53,53,53,53,53,52,52,52,52,52,52,52,52,52,52,52,
53,53,53,53,53,52,52,52,52,52,52,52,52,52,52,52,
53,53,53,53,53,52,52,52,52,52,52,52,52,52,52,52,
53,53,53,53,53,52,52,52,52,52,52,52,52,52,52,52,
53,53,53,53,53,52,52,52,52,52,52,52,52,52,52,52,
53,53,53,53,53,52,52,52,52,52,52,52,52,52,52,52,
53,53,53,53,53,52,52,52,52,52,52,52,52,52,52,52,
53,53,53,53,53,52,52,52,52,52,52,52,52,52,52,52,
53,53,53,53,53,52,52,52,52,52,52,52,52,52,52,52,
53,53,53,53,53,52,52,52,52,52,52,52,52,52,52,52,
53,53,53,53,53,52,52,52,52,52,52,52,52,52,52,52,
53,53,53,53,53,52,52,52,52,52,52,52,52,52,52,52,
53,53,53,53,53,52,52,52,52,52,52,52,52,52,52,52
</chunk>
   <chunk x="128" y="112" width="16" height="16">
53,53,53,53,53,53,53,53,53,53,53,53,53,53,53,53,
53,53,53,53,53,53,53,53,53,53,53,53,53,53,53,53,
53,53,53,53,53,53,53,53,53,53,53,53,53,53,53,53,
53,53,53,53,53,53,53,53,53,53,53,53,53,53,53,53,
53,53,53,53,53,53,53,53,53,53,53,53,53,53,53,53,
53,53,53,53,53,53,53,53,53,53,53,53,53,53,53,53,
53,53,53,53,53,53,53,53,53,53,53,53,53,53,53,53,
53,53,53,53,53,53,53,53,53,53,53,53,53,53,53,53,
53,53,53,53,53,53,53,53,53,53,53,53,53,53,53,53,
53,53,53,53,53,53,53,53,53,53,53,53,53,53,53,53,
53,53,53,53,53,53,53,53,53,53,53,53,53,53,53,53,
53,53,53,53,53,53,53,53,53,53,53,53,53,53,53,53,
53,53,53,53,53,53,53,53,53,53,53,53,53,53,53,53,
53,53,53,53,53,53,53,53,53,53,53,53,53,53,53,53,
53,53,53,53,53,53,53,53,53,53,53,53,53,53,53,53,
53,53,53,53,53,53,53,53,53,53,53,53,53,53,53,53
</chunk>
   <chunk x="144" y="112" width="16" height="16">
53,53,53,53,53,53,53,53,53,53,53,53,53,53,53,52,
53,53,53,53,53,53,53,53,53,53,53,53,53,53,53,52,
53,53,53,53,53,53,53,53,53,53,53,53,53,53,53,52,
53,53,53,53,53,53,53,53,53,53,53,53,53,53,53,52,
53,53,53,53,53,53,53,53,53,53,53,53,53,53,53,52,
53,53,53,53,53,53,53,53,53,53,53,53,53,53,53,52,
53,53,53,53,53,53,53,53,53,53,53,53,53,53,53,52,
53,53,53,53,53,53,53,53,53,53,53,53,53,53,53,52,
53,53,53,53,53,53,53,53,53,53,53,53,53,53,53,52,
53,53,53,53,53,53,53,53,53,53,53,53,53,53,53,52,
53,53,53,53,53,53,53,53,53,53,53,53,53,53,53,52,
53,53,53,53,53,53,53,53,53,53,53,53,53,53,53,52,
53,53,53,53,53,53,53,53,53,53,53,53,53,53,53,52,
53,53,53,53,53,53,53,53,53,53,53,53,53,53,53,52,
53,53,53,53,53,53,53,53,53,53,53,53,53,53,53,52,
53,53,53,53,53,53,53,53,53,53,53,53,53,53,53,52
</chunk>
   <chunk x="160" y="112" width="16" height="16">
52,52,52,52,52,52,52,52,52,52,52,52,52,52,52,52,
52,52,52,52,52,52,52,52,52,52,52,52,52,52,52,52,
52,52,52,52,52,52,52,52,52,52,52,52,52,52,52,52,
52,52,52,52,52,52,52,52,52,52,52,52,52,52,52,52,
52,52,52,52,52,52,52,52,52,52,52,52,52,52,52,52,
52,52,52,52,52,52,52,52,52,52,52,52,52,52,52,52,
52,52,52,52,52,52,52,52,52,52,52,52,52,52,52,52,
52,52,52,52,52,52,52,52,52,52,52,52,52,52,52,52,
52,52,52,52,52,52,52,52,52,52,52,52,52,52,52,52,
52,52,52,52,52,52,52,52,52,52,52,52,52,52,52,52,
52,52,52,52,52,52,52,52,52,52,52,52,52,52,52,52,
52,52,52,52,52,52,52,52,52,52,52,52,52,52,52,52,
52,52,52,52,52,52,52,52,52,52,52,52,52,52,52,52,
52,52,52,52,52,52,52,52,52,52,52,52,52,52,52,52,
52,52,52,52,52,52,52,52,52,52,52,52,52,52,52,52,
52,52,52,52,52,52,52,52,52,52,52,52,52,52,52,52
</chunk>
   <chunk x="176" y="112" width="16" height="16">
52,53,53,53,53,53,53,53,53,53,53,53,53,53,53,53,
52,53,53,53,53,53,53,53,53,53,53,53,53,53,53,53,
52,53,53,53,53,53,53,53,53,53,53,53,53,53,53,53,
52,53,53,53,53,53,53,53,53,53,53,53,53,53,53,53,
52,53,53,53,53,53,53,53,53,53,53,53,53,53,53,53,
52,53,53,53,53,53,53,53,53,53,53,53,53,53,53,53,
52,53,53,53,53,53,53,53,53,53,53,53,53,53,53,53,
52,53,53,53,53,53,53,53,53,53,53,53,53,53,53,53,
52,53,53,53,53,53,53,53,53,53,53,53,53,53,53,53,
52,53,53,53,53,53,53,53,53,53,53,53,53,53,53,53,
52,53,53,53,53,53,53,53,53,53,53,53,53,53,53,53,
52,53,53,53,53,53,53,53,53,53,53,53,53,53,53,53,
52,53,53,53,53,53,53,53,53,53,53,53,53,53,53,53,
52,53,53,53,53,53,53,53,53,53,53,53,53,53,53,53,
52,53,53,53,53,53,53,53,53,53,53,53,53,53,53,53,
52,53,53,53,53,53,53,53,53,53,53,53,53,53,53,53
</chunk>
   <chunk x="192" y="112" width="16" height="16">
53,53,53,53,53,53,53,53,53,53,53,53,53,53,53,53,
53,53,53,53,53,53,53,53,53,53,53,53,53,53,53,53,
53,53,53,53,53,53,53,53,53,53,53,53,53,53,53,53,
53,53,53,53,53,53,53,53,53,53,53,53,53,53,53,53,
53,53,53,53,53,53,53,53,53,53,53,53,53,53,53,53,
53,53,53,53,53,53,53,53,53,53,53,53,53,53,53,53,
53,53,53,53,53,53,53,53,53,53,53,53,53,53,53,53,
53,53,53,53,53,53,53,53,53,53,53,53,53,53,53,53,
53,53,53,53,53,53,53,53,53,53,53,53,53,53,53,53,
53,53,53,53,53,53,53,53,53,53,53,53,53,53,53,53,
53,53,53,53,53,53,53,53,53,53,53,53,53,53,53,53,
53,53,53,53,53,53,53,53,53,53,53,53,53,53,53,53,
53,53,53,53,53,53,53,53,53,53,53,53,53,53,53,53,
53,53,53,53,53,53,53,53,53,53,53,53,53,53,53,53,
53,53,53,53,53,53,53,53,53,53,53,53,53,53,53,53,
53,53,53,53,53,53,53,53,53,53,53,53,53,53,53,53
</chunk>
   <chunk x="208" y="112" width="16" height="16">
53,53,53,53,53,53,53,53,53,53,53,53,53,53,53,53,
53,53,53,53,53,53,53,53,53,53,53,53,53,53,53,53,
53,53,53,53,53,53,53,53,53,53,53,53,53,53,53,53,
53,53,53,53,53,53,53,53,53,53,53,53,53,53,53,53,
53,53,53,53,53,53,53,53,53,53,53,53,53,53,53,53,
53,53,53,53,53,53,53,53,53,53,53,53,53,53,53,53,
53,53,53,53,53,53,53,53,53,53,53,53,53,53,53,53,
53,53,53,53,53,53,53,53,53,53,53,53,53,53,53,53,
53,53,53,53,53,53,53,53,53,53,53,53,53,53,53,53,
53,53,53,53,53,53,53,53,53,53,53,53,53,53,53,53,
53,53,53,53,53,53,53,53,53,53,53,53,53,53,53,53,
53,53,53,53,53,53,53,53,53,53,53,53,53,53,53,53,
53,53,53,53,53,53,53,53,53,53,53,53,53,53,53,53,
53,53,53,53,53,53,53,53,53,53,53,53,53,53,53,53,
53,53,53,53,53,53,53,53,53,53,53,53,53,53,53,53,
53,53,53,53,53,53,53,53,53,53,53,53,53,53,53,53
</chunk>
   <chunk x="224" y="112" width="16" height="16">
53,53,53,53,53,53,53,52,52,52,52,52,52,52,52,52,
53,53,53,53,53,53,53,52,52,52,52,52,52,52,52,52,
53,53,53,53,53,53,53,52,52,52,52,52,52,52,52,52,
53,53,53,53,53,53,53,52,52,52,52,52,52,52,52,52,
53,53,53,53,53,53,53,52,52,52,52,52,52,52,52,52,
53,53,53,53,53,53,53,52,52,52,52,52,52,52,52,52,
53,53,53,53,53,53,53,52,52,52,52,52,52,52,52,52,
53,53,53,53,53,53,53,52,52,52,52,52,52,52,52,52,
53,53,53,53,53,53,53,52,52,52,52,52,52,52,52,52,
53,53,53,53,53,53,53,52,52,52,52,52,52,52,52,52,
53,53,53,53,53,53,53,52,52,52,52,52,52,52,52,52,
53,53,53,53,53,53,53,52,52,52,52,52,52,52,52,52,
53,53,53,53,53,53,53,52,52,52,52,52,52,52,52,52,
53,53,53,53,53,53,53,52,52,52,52,52,52,52,52,52,
53,53,53,53,53,53,53,52,52,52,52,52,52,52,52,52,
53,53,53,53,53,53,53,52,52,52,52,52,52,52,52,52
</chunk>
   <chunk x="240" y="112" width="16" height="16">
52,52,52,52,52,52,52,52,52,52,52,52,52,52,52,52,
52,52,52,52,52,52,52,52,52,52,52,52,52,52,52,52,
52,52,52,52,52,52,52,52,52,52,52,52,52,52,52,52,
52,52,52,52,52,52,52,52,52,52,52,52,52,52,52,52,
52,52,52,52,52,52,52,52,52,52,52,52,52,52,52,52,
52,52,52,52,52,52,52,52,52,52,52,52,52,52,52,52,
52,52,52,52,52,52,52,52,52,52,52,52,52,52,52,52,
52,52,52,52,52,52,52,52,52,52,52,52,52,52,52,52,
52,52,52,52,52,52,52,52,52,52,52,52,52,52,52,52,
52,52,52,52,52,52,52,52,52,52,52,52,52,52,52,52,
52,52,52,52,52,52,52,52,52,52,52,52,52,52,52,52,
52,52,52,52,52,52,52,52,52,52,52,52,52,52,52,52,
52,52,52,52,52,52,52,52,52,52,52,52,52,52,52,52,
52,52,52,52,52,52,52,52,52,52,52,52,52,52,52,52,
52,52,52,52,52,52,52,52,52,52,52,52,52,52,52,52,
52,52,52,52,52,52,52,52,52,52,52,52,52,52,52,52
</chunk>
   <chunk x="256" y="112" width="16" height="16">
52,52,52,52,52,52,52,52,52,52,52,52,52,52,52,52,
52,52,52,52,52,52,52,52,52,52,52,52,52,52,52,52,
52,52,52,52,52,52,52,52,52,52,52,52,52,52,52,52,
52,52,52,52,52,52,52,52,52,52,52,52,52,52,52,52,
52,52,52,52,52,52,52,52,52,52,52,52,52,52,52,52,
52,52,52,52,52,52,52,52,52,52,52,52,52,52,52,52,
52,52,52,52,52,52,52,52,52,52,52,52,52,52,52,52,
52,52,52,52,52,52,52,52,52,52,52,52,52,52,52,52,
52,52,52,52,52,52,52,52,52,52,52,52,52,52,52,52,
52,52,52,52,52,52,52,52,52,52,52,52,52,52,52,52,
52,52,52,52,52,52,52,52,52,52,52,52,52,52,52,52,
52,52,52,52,52,52,52,52,52,52,52,52,52,52,52,52,
52,52,52,52,52,52,52,52,52,52,52,52,52,52,52,52,
52,52,52,52,52,52,52,52,52,52,52,52,52,52,52,52,
52,52,52,52,52,52,52,52,52,52,52,52,52,52,52,52,
52,52,52,52,52,52,52,52,52,52,52,52,52,52,52,52
</chunk>
   <chunk x="272" y="112" width="16" height="16">
52,52,52,52,52,52,52,52,52,52,52,52,52,52,52,52,
52,52,52,52,52,52,52,52,52,52,52,52,52,52,52,52,
52,52,52,52,52,52,52,52,52,52,52,52,52,52,52,52,
52,52,52,52,52,52,52,52,52,52,52,52,52,52,52,52,
52,52,52,52,52,52,52,52,52,52,52,52,52,52,52,52,
52,52,52,52,52,52,52,52,52,52,52,52,52,52,52,52,
52,52,52,52,52,52,52,52,52,52,52,52,52,52,52,52,
52,52,52,52,52,52,52,52,52,52,52,52,52,52,52,52,
52,52,52,52,52,52,52,52,52,52,52,52,52,52,52,52,
52,52,52,52,52,52,52,52,52,52,52,52,52,52,52,52,
52,52,52,52,52,52,52,52,52,52,52,52,52,52,52,52,
52,52,52,52,52,52,52,52,52,52,52,52,52,52,52,52,
52,52,52,52,52,52,52,52,52,52,52,52,52,52,52,52,
52,52,52,52,52,52,52,52,52,52,52,52,52,52,52,52,
52,52,52,52,52,52,52,52,52,52,52,52,52,52,52,52,
52,52,52,52,52,52,52,52,52,52,52,52,52,52,52,52
</chunk>
   <chunk x="288" y="112" width="16" height="16">
52,52,52,52,52,52,52,52,52,52,52,52,52,52,52,52,
52,52,52,52,52,52,52,52,52,52,52,52,52,52,52,52,
52,52,52,52,52,52,52,52,52,52,52,52,52,52,52,52,
52,52,52,52,52,52,52,52,52,52,52,52,52,52,52,52,
52,52,52,52,52,52,52,52,52,52,52,52,52,52,52,52,
52,52,52,52,52,52,52,52,52,52,52,52,52,52,52,52,
52,52,52,52,52,52,52,52,52,52,52,52,52,52,52,52,
52,52,52,52,52,52,52,52,52,52,52,52,52,52,52,52,
52,52,52,52,52,52,52,52,52,52,52,52,52,52,52,52,
52,52,52,52,52,52,52,52,52,52,52,52,52,52,52,52,
52,52,52,52,52,52,52,52,52,52,52,52,52,52,52,52,
52,52,52,52,52,52,52,52,52,52,52,52,52,52,52,52,
52,52,52,52,52,52,52,52,52,52,52,52,52,52,52,52,
52,52,52,52,52,52,52,52,52,52,52,52,52,52,52,52,
52,52,52,52,52,52,52,52,52,52,52,52,52,52,52,52,
52,52,52,52,52,52,52,52,52,52,52,52,52,52,52,52
</chunk>
   <chunk x="304" y="112" width="16" height="16">
52,52,52,52,52,52,52,52,52,52,52,52,52,52,52,52,
52,52,52,52,52,52,52,52,52,52,52,52,52,52,52,52,
52,52,52,52,52,52,52,52,52,52,52,52,52,52,52,52,
52,52,52,52,52,52,52,52,52,52,52,52,52,52,52,52,
52,52,52,52,52,52,52,52,52,52,52,52,52,52,52,52,
52,52,52,52,52,52,52,52,52,52,52,52,52,52,52,52,
52,52,52,52,52,52,52,52,52,52,52,52,52,52,52,52,
52,52,52,52,52,52,52,52,52,52,52,52,52,52,52,52,
52,52,52,52,52,52,52,52,52,52,52,52,52,52,52,52,
52,52,52,52,52,52,52,52,52,52,52,52,52,52,52,52,
52,52,52,52,52,52,52,52,52,52,52,52,52,52,52,52,
52,52,52,52,52,52,52,52,52,52,52,52,52,52,52,52,
52,52,52,52,52,52,52,52,52,52,52,52,52,52,52,52,
52,52,52,52,52,52,52,52,52,52,52,52,52,52,52,52,
52,52,52,52,52,52,52,52,52,52,52,52,52,52,52,52,
52,52,52,52,52,52,52,52,52,52,52,52,52,52,52,52
</chunk>
   <chunk x="0" y="128" width="16" height="16">
52,52,52,52,52,53,53,53,53,53,53,53,53,53,53,53,
52,52,52,52,52,53,53,53,53,53,53,53,53,53,53,53,
52,52,52,52,52,53,53,53,53,53,53,53,53,53,53,53,
52,52,52,52,52,53,53,53,53,53,53,53,53,53,53,53,
52,52,52,52,52,53,53,53,53,53,53,53,53,53,53,53,
52,52,52,52,52,53,53,53,53,53,53,53,53,53,53,53,
52,52,52,52,52,53,53,53,53,53,53,53,53,53,53,53,
52,52,52,52,52,53,53,53,53,53,53,53,53,53,53,53,
52,52,52,52,52,53,53,53,53,53,53,53,53,53,53,53,
52,52,52,52,52,53,53,53,53,53,53,53,53,53,53,53,
52,52,52,52,52,53,53,53,53,53,53,53,53,53,53,53,
52,52,52,52,52,53,53,53,53,53,53,53,53,53,53,53,
52,52,52,52,52,53,53,53,53,53,53,53,53,53,53,53,
52,52,52,52,52,53,53,53,53,53,53,53,53,53,53,53,
52,52,52,52,52,53,53,53,53,53,53,53,53,53,53,53,
52,52,52,52,52,53,53,53,53,53,53,53,53,53,53,53
</chunk>
   <chunk x="16" y="128" width="16" height="16">
53,53,52,52,52,52,52,52,52,52,52,52,52,52,52,53,
53,53,52,52,52,52,52,52,52,52,52,52,52,52,52,53,
53,53,52,52,52,52,52,52,52,52,52,52,52,52,52,53,
53,53,52,52,52,52,52,52,52,52,52,52,52,52,52,53,
53,53,52,52,52,52,52,52,52,52,52,52,52,52,52,53,
53,53,52,52,52,52,52,52,52,52,52,52,52,52,52,53,
53,53,52,52,52,52,52,52,52,52,52,52,52,52,52,53,
53,53,52,52,52,52,52,52,52,52,52,52,52,52,52,53,
53,53,52,52,52,52,52,52,52,52,52,52,52,52,52,53,
53,53,52,52,52,52,52,52,52,52,52,52,52,52,52,53,
53,53,52,52,52,52,52,52,52,52,52,52,52,52,52,53,
53,53,52,52,52,52,52,52,52,52,52,52,52,52,52,53,
53,53,52,52,52,52,52,52,52,52,52,52,52,52,52,53,
53,53,52,52,52,52,52,52,52,52,52,52,52,52,52,53,
53,53,52,52,52,52,52,52,52,52,52,52,52,52,52,53,
53,53,52,52,52,52,52,52,52,52,52,52,52,52,52,53
</chunk>
   <chunk x="32" y="128" width="16" height="16">
53,53,53,53,53,53,53,53,53,53,53,53,52,52,52,52,
53,53,53,53,53,53,53,53,53,53,53,53,52,52,52,52,
53,53,53,53,53,53,53,53,53,53,53,53,52,52,52,52,
53,53,53,53,53,53,53,53,53,53,53,53,52,52,52,52,
53,53,53,53,53,53,53,53,53,53,53,53,52,52,52,52,
53,53,53,53,53,53,53,53,53,53,53,53,52,52,52,52,
53,53,53,53,53,53,53,53,53,53,53,53,52,52,52,52,
53,53,53,53,53,53,53,53,53,53,53,53,52,52,52,52,
53,53,53,53,53,53,53,53,53,53,53,53,52,52,52,52,
53,53,53,53,53,53,53,53,53,53,53,53,52,52,52,52,
53,53,53,53,53,53,53,53,53,53,53,53,52,52,52,52,
53,53,53,53,53,53,53,53,53,53,53,53,52,52,52,52,
53,53,53,53,53,53,53,53,53,53,53,53,52,52,52,52,
53,53,53,53,53,53,53,53,53,53,53,53,52,52,52,52,
53,53,53,53,53,53,53,53,53,53,53,53,52,52,52,52,
53,53,53,53,53,53,53,53,53,53,53,53,52,52,52,52
</chunk>
   <chunk x="48" y="128" width="16" height="16">
52,52,52,52,52,52,52,52,52,53,53,53,53,53,53,53,
52,52,52,52,52,52,52,52,52,53,53,53,53,53,53,53,
52,52,52,52,52,52,52,52,52,53,53,53,53,53,53,53,
52,52,52,52,52,52,52,52,52,53,53,53,53,53,53,53,
52,52,52,52,52,52,52,52,52,53,53,53,53,53,53,53,
52,52,52,52,52,52,52,52,52,53,53,53,53,53,53,53,
52,52,52,52,52,52,52,52,52,53,53,53,53,53,53,53,
52,52,52,52,52,52,52,52,52,53,53,53,53,53,53,53,
52,52,52,52,52,52,52,52,52,53,53,53,53,53,53,53,
52,52,52,52,52,52,52,52,52,53,53,53,53,53,53,53,
52,52,52,52,52,52,52,52,52,53,53,53,53,53,53,53,
52,52,52,52,52,52,52,52,52,53,53,53,53,53,53,53,
52,52,52,52,52,52,52,52,52,53,53,53,53,53,53,53,
52,52,52,52,52,52,52,52,52,53,53,53,53,53,53,53,
52,52,52,52,52,52,52,52,52,53,53,53,53,53,53,53,
52,52,52,52,52,52,52,52,52,53,53,53,53,53,53,53
</chunk>
   <chunk x="64" y="128" width="16" height="16">
53,53,53,53,53,53,53,53,53,53,52,52,52,52,52,52,
53,53,53,53,53,53,53,53,53,53,52,52,52,52,52,52,
53,53,53,53,53,53,53,53,53,53,52,52,52,52,52,52,
53,53,53,53,53,53,53,53,53,53,52,52,52,52,52,52,
53,53,53,53,53,53,53,53,53,53,52,52,52,52,52,52,
53,53,53,53,53,53,53,53,53,53,52,52,52,52,52,52,
53,53,53,53,53,53,53,53,53,53,52,52,52,52,52,52,
53,53,53,53,53,53,53,53,53,53,52,52,52,52,52,52,
53,53,53,53,53,53,53,53,53,53,52,52,52,52,52,52,
53,53,53,53,53,53,53,53,53,53,52,52,52,52,52,52,
53,53,53,53,53,53,53,53,53,53,52,52,52,52,52,52,
53,53,53,53,53,53,53,53,53,53,52,52,52,52,52,52,
53,53,53,53,53,53,53,53,53,53,52,52,52,52,52,52,
53,53,53,53,53,53,53,53,53,53,52,52,52,52,52,52,
53,53,53,53,53,53,53,53,53,53,52,52,52,52,52,52,
53,53,53,53,53,53,53,53,53,53,52,52,52,52,52,52
</chunk>
   <chunk x="80" y="128" width="16" height="16">
52,52,52,52,52,52,52,52,52,52,52,53,53,53,53,53,
52,52,52,52,52,52,52,52,52,52,52,53,53,53,53,53,
52,52,52,52,52,52,52,52,52,52,52,53,53,53,53,53,
52,52,52,52,52,52,52,52,52,52,52,53,53,53,53,53,
52,52,52,52,52,52,52,52,52,52,52,53,53,53,53,53,
52,52,52,52,52,52,52,52,52,52,52,53,53,53,53,53,
52,52,52,52,52,52,52,52,52,52,52,53,53,53,53,53,
52,52,52,52,52,52,52,52,52,52,52,53,53,53,53,53,
52,52,52,52,52,52,52,52,52,52,52,53,53,53,53,53,
52,52,52,52,52,52,52,52,52,52,52,53,53,53,53,53,
52,52,52,52,52,52,52,52,52,52,52,53,53,53,53,53,
52,52,52,52,52,52,52,52,52,52,52,53,53,53,53,53,
52,52,52,52,52,52,52,52,52,52,52,53,53,53,53,53,
52,52,52,52,52,52,52,52,52,52,52,53,53,53,53,53,
52,52,52,52,52,52,52,52,52,52,52,53,53,53,53,53,
52,52,52,52,52,52,52,52,52,52,52,53,53,53,53,53
</chunk>
   <chunk x="96" y="128" width="16" height="16">
53,53,53,53,53,53,53,53,53,53,53,53,53,53,53,53,
53,53,53,53,53,53,53,53,53,53,53,53,53,53,53,53,
53,53,53,53,53,53,53,53,53,53,53,53,53,53,53,53,
53,53,53,53,53,53,53,53,53,53,53,53,53,53,53,53,
53,53,53,53,53,53,53,53,53,53,53,53,53,53,53,53,
53,53,53,53,53,53,53,53,53,53,53,53,53,53,53,53,
53,53,53,53,53,53,53,53,53,53,53,53,53,53,53,53,
53,53,53,53,53,53,53,53,53,53,53,53,53,53,53,53,
53,53,53,53,53,53,53,53,53,53,53,53,53,53,53,53,
53,53,53,53,53,53,53,53,53,53,53,53,53,53,53,53,
53,53,53,53,53,53,53,53,53,53,53,53,53,53,53,53,
53,53,53,53,53,53,53,53,53,53,53,53,53,53,53,53,
53,53,53,53,53,53,53,53,53,53,53,53,53,53,53,53,
53,53,53,53,53,53,53,53,53,53,53,53,53,53,53,53,
53,53,53,53,53,53,53,53,53,53,53,53,53,53,53,53,
53,53,53,53,53,53,53,53,53,53,53,53,53,53,53,53
</chunk>
   <chunk x="112" y="128" width="16" height="16">
53,53,53,53,53,52,52,52,52,52,52,52,52,52,52,52,
53,53,53,53,53,52,52,52,52,52,52,52,52,52,52,52,
53,53,53,53,53,52,52,52,52,52,52,52,52,52,52,52,
53,53,53,53,53,52,52,52,52,52,52,52,52,52,52,52,
53,53,53,53,53,52,52,52,52,52,52,52,52,52,52,52,
53,53,53,53,53,52,52,52,52,52,52,52,52,52,52,52,
53,53,53,53,53,52,52,52,52,52,52,52,52,52,52,52,
53,53,53,53,53,52,52,52,52,52,52,52,52,52,52,52,
53,53,53,53,53,52,52,52,52,52,52,52,52,52,52,52,
53,53,53,53,53,52,52,52,52,52,52,52,52,52,52,52,
53,53,53,53,53,52,52,52,52,52,52,52,52,52,52,52,
53,53,53,53,53,52,52,52,52,52,52,52,52,52,52,52,
53,53,53,53,53,52,52,52,52,52,52,52,52,52,52,52,
53,53,53,53,53,52,52,52,52,52,52,52,52,52,52,52,
53,53,53,53,53,52,52,52,52,52,52,52,52,52,52,52,
53,53,53,53,53,52,52,52,52,52,52,52,52,52,52,52
</chunk>
   <chunk x="128" y="128" width="16" height="16">
53,53,53,53,53,53,53,53,53,53,53,53,53,53,53,53,
53,53,53,53,53,53,53,53,53,53,53,53,53,53,53,53,
53,53,53,53,53,53,53,53,53,53,53,53,53,53,53,53,
53,53,53,53,53,53,53,53,53,53,53,53,53,53,53,53,
53,53,53,53,53,53,53,53,53,53,53,53,53,53,53,53,
53,53,53,53,53,53,53,53,53,53,53,53,53,53,53,53,
53,53,53,53,53,53,53,53,53,53,53,53,53,53,53,53,
53,53,53,53,53,53,53,53,53,53,53,53,53,53,53,53,
53,53,53,53,53,53,53,53,53,53,53,53,53,53,53,53,
53,53,53,53,53,53,53,53,53,53,53,53,53,53,53,53,
53,53,53,53,53,53,53,53,53,53,53,53,53,53,53,53,
53,53,53,53,53,53,53,53,53,53,53,53,53,53,53,53,
53,53,53,53,53,53,53,53,53,53,53,53,53,53,53,53,
53,53,53,53,53,53,53,53,53,53,53,53,53,53,53,53,
53,53,53,53,53,53,53,53,53,53,53,53,53,53,53,53,
53,53,53,53,53,53,53,53,53,53,53,53,53,53,53,53
</chunk>
   <chunk x="144" y="128" width="16" height="16">
53,53,53,53,53,53,53,53,53,53,53,53,53,53,53,52,
53,53,53,53,53,53,53,53,53,53,53,53,53,53,53,52,
53,53,53,53,53,53,53,53,53,53,53,53,53,53,53,52,
53,53,53,53,53,53,53,53,53,53,53,53,53,53,53,52,
53,53,53,53,53,53,53,53,53,53,53,53,53,53,53,52,
53,53,53,53,53,53,53,53,53,53,53,53,53,53,53,52,
53,53,53,53,53,53,53,53,53,53,53,53,53,53,53,52,
53,53,53,53,53,53,53,53,53,53,53,53,53,53,53,52,
53,53,53,53,53,53,53,53,53,53,53,53,53,53,53,52,
53,53,53,53,53,53,53,53,53,53,53,53,53,53,53,52,
53,53,53,53,53,53,53,53,53,53,53,53,53,53,53,52,
53,53,53,53,53,53,53,53,53,53,53,53,53,53,53,52,
53,53,53,53,53,53,53,53,53,53,53,53,53,53,53,52,
53,53,53,53,53,53,53,53,53,53,53,53,53,53,53,52,
53,53,53,53,53,53,53,53,53,53,53,53,53,53,53,52,
53,53,53,53,53,53,53,53,53,53,53,53,53,53,53,52
</chunk>
   <chunk x="160" y="128" width="16" height="16">
52,52,52,52,52,52,52,52,52,52,52,52,52,52,52,52,
52,52,52,52,52,52,52,52,52,52,52,52,52,52,52,52,
52,52,52,52,52,52,52,52,52,52,52,52,52,52,52,52,
52,52,52,52,52,52,52,52,52,52,52,52,52,52,52,52,
52,52,52,52,52,52,52,52,52,52,52,52,52,52,52,52,
52,52,52,52,52,52,52,52,52,52,52,52,52,52,52,52,
52,52,52,52,52,52,52,52,52,52,52,52,52,52,52,52,
52,52,52,52,52,52,52,52,52,52,52,52,52,52,52,52,
52,52,52,52,52,52,52,52,52,52,52,52,52,52,52,52,
52,52,52,52,52,52,52,52,52,52,52,52,52,52,52,52,
52,52,52,52,52,52,52,52,52,52,52,52,52,52,52,52,
52,52,52,52,52,52,52,52,52,52,52,52,52,52,52,52,
52,52,52,52,52,52,52,52,52,52,52,52,52,52,52,52,
52,52,52,52,52,52,52,52,52,52,52,52,52,52,52,52,
52,52,52,52,52,52,52,52,52,52,52,52,52,52,52,52,
52,52,52,52,52,52,52,52,52,52,52,52,52,52,52,52
</chunk>
   <chunk x="176" y="128" width="16" height="16">
52,53,53,53,53,53,53,53,53,53,53,53,53,53,53,53,
52,53,53,53,53,53,53,53,53,53,53,53,53,53,53,53,
52,53,53,53,53,53,53,53,53,53,53,53,53,53,53,53,
52,53,53,53,53,53,53,53,53,53,53,53,53,53,53,53,
52,53,53,53,53,53,53,53,53,53,53,53,53,53,53,53,
52,53,53,53,53,53,53,53,53,53,53,53,53,53,53,53,
52,53,53,53,53,53,53,53,53,53,53,53,53,53,53,53,
52,53,53,53,53,53,53,53,53,53,53,53,53,53,53,53,
52,53,53,53,53,53,53,53,53,53,53,53,53,53,53,53,
52,53,53,53,53,53,53,53,53,53,53,53,53,53,53,53,
52,53,53,53,53,53,53,53,53,53,53,53,53,53,53,53,
52,53,53,53,53,53,53,53,53,53,53,53,53,53,53,53,
52,53,53,53,53,53,53,53,53,53,53,53,53,53,53,53,
52,53,53,53,53,53,53,53,53,53,53,53,53,53,53,53,
52,53,53,53,53,53,53,53,53,53,53,53,53,53,53,53,
52,53,53,53,53,53,53,53,53,53,53,53,53,53,53,53
</chunk>
   <chunk x="192" y="128" width="16" height="16">
53,53,53,53,53,53,53,53,53,53,53,53,53,53,53,53,
53,53,53,53,53,53,53,53,53,53,53,53,53,53,53,53,
53,53,53,53,53,53,53,53,53,53,53,53,53,53,53,53,
53,53,53,53,53,53,53,53,53,53,53,53,53,53,53,53,
53,53,53,53,53,53,53,53,53,53,53,53,53,53,53,53,
53,53,53,53,53,53,53,53,53,53,53,53,53,53,53,53,
53,53,53,53,53,53,53,53,53,53,53,53,53,53,53,53,
53,53,53,53,53,53,53,53,53,53,53,53,53,53,53,53,
53,53,53,53,53,53,53,53,53,53,53,53,53,53,53,53,
53,53,53,53,53,53,53,53,53,53,53,53,53,53,53,53,
53,53,53,53,53,53,53,53,53,53,53,53,53,53,53,53,
53,53,53,53,53,53,53,53,53,53,53,53,53,53,53,53,
53,53,53,53,53,53,53,53,53,53,53,53,53,53,53,53,
53,53,53,53,53,53,53,53,53,53,53,53,53,53,53,53,
53,53,53,53,53,53,53,53,53,53,53,53,53,53,53,53,
53,53,53,53,53,53,53,53,53,53,53,53,53,53,53,53
</chunk>
   <chunk x="208" y="128" width="16" height="16">
53,53,53,53,53,53,53,53,53,53,53,53,53,53,53,53,
53,53,53,53,53,53,53,53,53,53,53,53,53,53,53,53,
53,53,53,53,53,53,53,53,53,53,53,53,53,53,53,53,
53,53,53,53,53,53,53,53,53,53,53,53,53,53,53,53,
53,53,53,53,53,53,53,53,53,53,53,53,53,53,53,53,
53,53,53,53,53,53,53,53,53,53,53,53,53,53,53,53,
53,53,53,53,53,53,53,53,53,53,53,53,53,53,53,53,
53,53,53,53,53,53,53,53,53,53,53,53,53,53,53,53,
53,53,53,53,53,53,53,53,53,53,53,53,53,53,53,53,
53,53,53,53,53,53,53,53,53,53,53,53,53,53,53,53,
53,53,53,53,53,53,53,53,53,53,53,53,53,53,53,53,
53,53,53,53,53,53,53,53,53,53,53,53,53,53,53,53,
53,53,53,53,53,53,53,53,53,53,53,53,53,53,53,53,
53,53,53,53,53,53,53,53,53,53,53,53,53,53,53,53,
53,53,53,53,53,53,53,53,53,53,53,53,53,53,53,53,
53,53,53,53,53,53,53,53,53,53,53,53,53,53,53,53
</chunk>
   <chunk x="224" y="128" width="16" height="16">
53,53,53,53,53,53,53,52,52,52,52,52,52,52,52,52,
53,53,53,53,53,53,53,52,52,52,52,52,52,52,52,52,
53,53,53,53,53,53,53,52,52,52,52,52,52,52,52,52,
53,53,53,53,53,53,53,52,52,52,52,52,52,52,52,52,
53,53,53,53,53,53,53,52,52,52,52,52,52,52,52,52,
53,53,53,53,53,53,53,52,52,52,52,52,52,52,52,52,
53,53,53,53,53,53,53,52,52,52,52,52,52,52,52,52,
53,53,53,53,53,53,53,52,52,52,52,52,52,52,52,52,
53,53,53,53,53,53,53,52,52,52,52,52,52,52,52,52,
53,53,53,53,53,53,53,52,52,52,52,52,52,52,52,52,
53,53,53,53,53,53,53,52,52,52,52,52,52,52,52,52,
53,53,53,53,53,53,53,52,52,52,52,52,52,52,52,52,
53,53,53,53,53,53,53,52,52,52,52,52,52,52,52,52,
53,53,53,53,53,53,53,52,52,52,52,52,52,52,52,52,
53,53,53,53,53,53,53,52,52,52,52,52,52,52,52,52,
53,53,53,53,53,53,53,52,52,52,52,52,52,52,52,52
</chunk>
   <chunk x="240" y="128" width="16" height="16">
52,52,52,52,52,52,52,52,52,52,52,52,52,52,52,52,
52,52,52,52,52,52,52,52,52,52,52,52,52,52,52,52,
52,52,52,52,52,52,52,52,52,52,52,52,52,52,52,52,
52,52,52,52,52,52,52,52,52,52,52,52,52,52,52,52,
52,52,52,52,52,52,52,52,52,52,52,52,52,52,52,52,
52,52,52,52,52,52,52,52,52,52,52,52,52,52,52,52,
52,52,52,52,52,52,52,52,52,52,52,52,52,52,52,52,
52,52,52,52,52,52,52,52,52,52,52,52,52,52,52,52,
52,52,52,52,52,52,52,52,52,52,52,52,52,52,52,52,
52,52,52,52,52,52,52,52,52,52,52,52,52,52,52,52,
52,52,52,52,52,52,52,52,52,52,52,52,52,52,52,52,
52,52,52,52,52,52,52,52,52,52,52,52,52,52,52,52,
52,52,52,52,52,52,52,52,52,52,52,52,52,52,52,52,
52,52,52,52,52,52,52,52,52,52,52,52,52,52,52,52,
52,52,52,52,52,52,52,52,52,52,52,52,52,52,52,52,
52,52,52,52,52,52,52,52,52,52,52,52,52,52,52,52
</chunk>
   <chunk x="256" y="128" width="16" height="16">
52,52,52,52,52,52,52,52,52,52,52,52,52,52,52,52,
52,52,52,52,52,52,52,52,52,52,52,52,52,52,52,52,
52,52,52,52,52,52,52,52,52,52,52,52,52,52,52,52,
52,52,52,52,52,52,52,52,52,52,52,52,52,52,52,52,
52,52,52,52,52,52,52,52,52,52,52,52,52,52,52,52,
52,52,52,52,52,52,52,52,52,52,52,52,52,52,52,52,
52,52,52,52,52,52,52,52,52,52,52,52,52,52,52,52,
52,52,52,52,52,52,52,52,52,52,52,52,52,52,52,52,
52,52,52,52,52,52,52,52,52,52,52,52,52,52,52,52,
52,52,52,52,52,52,52,52,52,52,52,52,52,52,52,52,
52,52,52,52,52,52,52,52,52,52,52,52,52,52,52,52,
52,52,52,52,52,52,52,52,52,52,52,52,52,52,52,52,
52,52,52,52,52,52,52,52,52,52,52,52,52,52,52,52,
52,52,52,52,52,52,52,52,52,52,52,52,52,52,52,52,
52,52,52,52,52,52,52,52,52,52,52,52,52,52,52,52,
52,52,52,52,52,52,52,52,52,52,52,52,52,52,52,52
</chunk>
   <chunk x="272" y="128" width="16" height="16">
52,52,52,52,52,52,52,52,52,52,52,52,52,52,52,52,
52,52,52,52,52,52,52,52,52,52,52,52,52,52,52,52,
52,52,52,52,52,52,52,52,52,52,52,52,52,52,52,52,
52,52,52,52,52,52,52,52,52,52,52,52,52,52,52,52,
52,52,52,52,52,52,52,52,52,52,52,52,52,52,52,52,
52,52,52,52,52,52,52,52,52,52,52,52,52,52,52,52,
52,52,52,52,52,52,52,52,52,52,52,52,52,52,52,52,
52,52,52,52,52,52,52,52,52,52,52,52,52,52,52,52,
52,52,52,52,52,52,52,52,52,52,52,52,52,52,52,52,
52,52,52,52,52,52,52,52,52,52,52,52,52,52,52,52,
52,52,52,52,52,52,52,52,52,52,52,52,52,52,52,52,
52,52,52,52,52,52,52,52,52,52,52,52,52,52,52,52,
52,52,52,52,52,52,52,52,52,52,52,52,52,52,52,52,
52,52,52,52,52,52,52,52,52,52,52,52,52,52,52,52,
52,52,52,52,52,52,52,52,52,52,52,52,52,52,52,52,
52,52,52,52,52,52,52,52,52,52,52,52,52,52,52,52
</chunk>
   <chunk x="288" y="128" width="16" height="16">
52,52,52,52,52,52,52,52,52,52,52,52,52,52,52,52,
52,52,52,52,52,52,52,52,52,52,52,52,52,52,52,52,
52,52,52,52,52,52,52,52,52,52,52,52,52,52,52,52,
52,52,52,52,52,52,52,52,52,52,52,52,52,52,52,52,
52,52,52,52,52,52,52,52,52,52,52,52,52,52,52,52,
52,52,52,52,52,52,52,52,52,52,52,52,52,52,52,52,
52,52,52,52,52,52,52,52,52,52,52,52,52,52,52,52,
52,52,52,52,52,52,52,52,52,52,52,52,52,52,52,52,
52,52,52,52,52,52,52,52,52,52,52,52,52,52,52,52,
52,52,52,52,52,52,52,52,52,52,52,52,52,52,52,52,
52,52,52,52,52,52,52,52,52,52,52,52,52,52,52,52,
52,52,52,52,52,52,52,52,52,52,52,52,52,52,52,52,
52,52,52,52,52,52,52,52,52,52,52,52,52,52,52,52,
52,52,52,52,52,52,52,52,52,52,52,52,52,52,52,52,
52,52,52,52,52,52,52,52,52,52,52,52,52,52,52,52,
52,52,52,52,52,52,52,52,52,52,52,52,52,52,52,52
</chunk>
   <chunk x="304" y="128" width="16" height="16">
52,52,52,52,52,52,52,52,52,52,52,52,52,52,52,52,
52,52,52,52,52,52,52,52,52,52,52,52,52,52,52,52,
52,52,52,52,52,52,52,52,52,52,52,52,52,52,52,52,
52,52,52,52,52,52,52,52,52,52,52,52,52,52,52,52,
52,52,52,52,52,52,52,52,52,52,52,52,52,52,52,52,
52,52,52,52,52,52,52,52,52,52,52,52,52,52,52,52,
52,52,52,52,52,52,52,52,52,52,52,52,52,52,52,52,
52,52,52,52,52,52,52,52,52,52,52,52,52,52,52,52,
52,52,52,52,52,52,52,52,52,52,52,52,52,52,52,52,
52,52,52,52,52,52,52,52,52,52,52,52,52,52,52,52,
52,52,52,52,52,52,52,52,52,52,52,52,52,52,52,52,
52,52,52,52,52,52,52,52,52,52,52,52,52,52,52,52,
52,52,52,52,52,52,52,52,52,52,52,52,52,52,52,52,
52,52,52,52,52,52,52,52,52,52,52,52,52,52,52,52,
52,52,52,52,52,52,52,52,52,52,52,52,52,52,52,52,
52,52,52,52,52,52,52,52,52,52,52,52,52,52,52,52
</chunk>
   <chunk x="0" y="144" width="16" height="16">
52,52,52,52,52,53,53,53,53,53,53,53,53,53,53,53,
52,52,52,52,52,53,53,53,53,53,53,53,53,53,53,53,
52,52,52,52,52,53,53,53,53,53,53,53,53,53,53,53,
52,52,52,52,52,53,53,53,53,53,53,53,53,53,53,53,
52,52,52,52,52,53,53,53,53,53,53,53,53,53,53,53,
52,52,52,52,52,53,53,53,53,53,53,53,53,53,53,53,
52,52,52,52,52,53,53,53,53,53,53,53,53,53,53,53,
52,52,52,52,52,53,53,53,53,53,53,53,53,53,53,53,
52,52,52,52,52,53,53,53,53,53,53,53,53,53,53,53,
52,52,52,52,52,53,53,53,53,53,53,53,53,53,53,53,
52,52,52,52,52,53,53,53,53,53,53,53,53,53,53,53,
52,52,52,52,52,53,53,53,53,53,53,53,53,53,53,53,
52,52,52,52,52,53,53,53,53,53,53,53,53,53,53,53,
52,52,52,52,52,53,53,53,53,53,53,53,53,53,53,53,
52,52,52,52,52,53,53,53,53,53,53,53,53,53,53,53,
52,52,52,52,52,53,53,53,53,53,53,53,53,53,53,53
</chunk>
   <chunk x="16" y="144" width="16" height="16">
53,53,52,52,52,52,52,52,52,52,52,52,52,52,52,53,
53,53,52,52,52,52,52,52,52,52,52,52,52,52,52,53,
53,53,52,52,52,52,52,52,52,52,52,52,52,52,52,53,
53,53,52,52,52,52,52,52,52,52,52,52,52,52,52,53,
53,53,52,52,52,52,52,52,52,52,52,52,52,52,52,53,
53,53,52,52,52,52,52,52,52,52,52,52,52,52,52,53,
53,53,52,52,52,52,52,52,52,52,52,52,52,52,52,53,
53,53,52,52,52,52,52,52,52,52,52,52,52,52,52,53,
53,53,52,52,52,52,52,52,52,52,52,52,52,52,52,53,
53,53,52,52,52,52,52,52,52,52,52,52,52,52,52,53,
53,53,52,52,52,52,52,52,52,52,52,52,52,52,52,53,
53,53,52,52,52,52,52,52,52,52,52,52,52,52,52,53,
53,53,52,52,52,52,52,52,52,52,52,52,52,52,52,53,
53,53,52,52,52,52,52,52,52,52,52,52,52,52,52,53,
53,53,52,52,52,52,52,52,52,52,52,52,52,52,52,53,
53,53,52,52,52,52,52,52,52,52,52,52,52,52,52,53
</chunk>
   <chunk x="32" y="144" width="16" height="16">
53,53,53,53,53,53,53,53,53,53,53,53,52,52,52,52,
53,53,53,53,53,53,53,53,53,53,53,53,52,52,52,52,
53,53,53,53,53,53,53,53,53,53,53,53,52,52,52,52,
53,53,53,53,53,53,53,53,53,53,53,53,52,52,52,52,
53,53,53,53,53,53,53,53,53,53,53,53,52,52,52,52,
53,53,53,53,53,53,53,53,53,53,53,53,52,52,52,52,
53,53,53,53,53,53,53,53,53,53,53,53,52,52,52,52,
53,53,53,53,53,53,53,53,53,53,53,53,52,52,52,52,
53,53,53,53,53,53,53,53,53,53,53,53,52,52,52,52,
53,53,53,53,53,53,53,53,53,53,53,53,52,52,52,52,
53,53,53,53,53,53,53,53,53,53,53,53,52,52,52,52,
53,53,53,53,53,53,53,53,53,53,53,53,52,52,52,52,
53,53,53,53,53,53,53,53,53,53,53,53,52,52,52,52,
53,53,53,53,53,53,53,53,53,53,53,53,52,52,52,52,
53,53,53,53,53,53,53,53,53,53,53,53,52,52,52,52,
53,53,53,53,53,53,53,53,53,53,53,53,52,52,52,52
</chunk>
   <chunk x="48" y="144" width="16" height="16">
52,52,52,52,52,52,52,52,52,53,53,53,53,53,53,53,
52,52,52,52,52,52,52,52,52,53,53,53,53,53,53,53,
52,52,52,52,52,52,52,52,52,53,53,53,53,53,53,53,
52,52,52,52,52,52,52,52,52,53,53,53,53,53,53,53,
52,52,52,52,52,52,52,52,52,53,53,53,53,53,53,53,
52,52,52,52,52,52,52,52,52,53,53,53,53,53,53,53,
52,52,52,52,52,52,52,52,52,53,53,53,53,53,53,53,
52,52,52,52,52,52,52,52,52,53,53,53,53,53,53,53,
52,52,52,52,52,52,52,52,52,53,53,53,53,53,53,53,
52,52,52,52,52,52,52,52,52,53,53,53,53,53,53,53,
52,52,52,52,52,52,52,52,52,53,53,53,53,53,53,53,
52,52,52,52,52,52,52,52,52,53,53,53,53,53,53,53,
52,52,52,52,52,52,52,52,52,53,53,53,53,53,53,53,
52,52,52,52,52,52,52,52,52,53,53,53,53,53,53,53,
52,52,52,52,52,52,52,52,52,53,53,53,53,53,53,53,
52,52,52,52,52,52,52,52,52,53,53,53,53,53,53,53
</chunk>
   <chunk x="64" y="144" width="16" height="16">
53,53,53,53,53,53,53,53,53,53,52,52,52,52,52,52,
53,53,53,53,53,53,53,53,53,53,52,52,52,52,52,52,
53,53,53,53,53,53,53,53,53,53,52,52,52,52,52,52,
53,53,53,53,53,53,53,53,53,53,52,52,52,52,52,52,
53,53,53,53,53,53,53,53,53,53,52,52,52,52,52,52,
53,53,53,53,53,53,53,53,53,53,52,52,52,52,52,52,
53,53,53,53,53,53,53,53,53,53,52,52,52,52,52,52,
53,53,53,53,53,53,53,53,53,53,52,52,52,52,52,52,
53,53,53,53,53,53,53,53,53,53,52,52,52,52,52,52,
53,53,53,53,53,53,53,53,53,53,52,52,52,52,52,52,
53,53,53,53,53,53,53,53,53,53,52,52,52,52,52,52,
53,53,53,53,53,53,53,53,53,53,52,52,52,52,52,52,
53,53,53,53,53,53,53,53,53,53,52,52,52,52,52,52,
53,53,53,53,53,53,53,53,53,53,52,52,52,52,52,52,
53,53,53,53,53,53,53,53,53,53,52,52,52,52,52,52,
53,53,53,53,53,53,53,53,53,53,52,52,52,52,52,52
</chunk>
   <chunk x="80" y="144" width="16" height="16">
52,52,52,52,52,52,52,52,52,52,52,53,53,53,53,53,
52,52,52,52,52,52,52,52,52,52,52,53,53,53,53,53,
52,52,52,52,52,52,52,52,52,52,52,53,53,53,53,53,
52,52,52,52,52,52,52,52,52,52,52,53,53,53,53,53,
52,52,52,52,52,52,52,52,52,52,52,53,53,53,53,53,
52,52,52,52,52,52,52,52,52,52,52,53,53,53,53,53,
52,52,52,52,52,52,52,52,52,52,52,53,53,53,53,53,
52,52,52,52,52,52,52,52,52,52,52,53,53,53,53,53,
52,52,52,52,52,52,52,52,52,52,52,53,53,53,53,53,
52,52,52,52,52,52,52,52,52,52,52,53,53,53,53,53,
52,52,52,52,52,52,52,52,52,52,52,53,53,53,53,53,
52,52,52,52,52,52,52,52,52,52,52,53,53,53,53,53,
52,52,52,52,52,52,52,52,52,52,52,53,53,53,53,53,
52,52,52,52,52,52,52,52,52,52,52,53,53,53,53,53,
52,52,52,52,52,52,52,52,52,52,52,53,53,53,53,53,
52,52,52,52,52,52,52,52,52,52,52,53,53,53,53,53
</chunk>
   <chunk x="96" y="144" width="16" height="16">
53,53,53,53,53,53,53,53,53,53,53,53,53,53,53,53,
53,53,53,53,53,53,53,53,53,53,53,53,53,53,53,53,
53,53,53,53,53,53,53,53,53,53,53,53,53,53,53,53,
53,53,53,53,53,53,53,53,53,53,53,53,53,53,53,53,
53,53,53,53,53,53,53,53,53,53,53,53,53,53,53,53,
53,53,53,53,53,53,53,53,53,53,53,53,53,53,53,53,
53,53,53,53,53,53,53,53,53,53,53,53,53,53,53,53,
53,53,53,53,53,53,53,53,53,53,53,53,53,53,53,53,
53,53,53,53,53,53,53,53,53,53,53,53,53,53,53,53,
53,53,53,53,53,53,53,53,53,53,53,53,53,53,53,53,
53,53,53,53,53,53,53,53,53,53,53,53,53,53,53,53,
53,53,53,53,53,53,53,53,53,53,53,53,53,53,53,53,
53,53,53,53,53,53,53,53,53,53,53,53,53,53,53,53,
53,53,53,53,53,53,53,53,53,53,53,53,53,53,53,53,
53,53,53,53,53,53,53,53,53,53,53,53,53,53,53,53,
53,53,53,53,53,53,53,53,53,53,53,53,53,53,53,53
</chunk>
   <chunk x="112" y="144" width="16" height="16">
53,53,53,53,53,52,52,52,52,52,52,52,52,52,52,52,
53,53,53,53,53,52,52,52,52,52,52,52,52,52,52,52,
53,53,53,53,53,52,52,52,52,52,52,52,52,52,52,52,
53,53,53,53,53,52,52,52,52,52,52,52,52,52,52,52,
53,53,53,53,53,52,52,52,52,52,52,52,52,52,52,52,
53,53,53,53,53,52,52,52,52,52,52,52,52,52,52,52,
53,53,53,53,53,52,52,52,52,52,52,52,52,52,52,52,
53,53,53,53,53,52,52,52,52,52,52,52,52,52,52,52,
53,53,53,53,53,52,52,52,52,52,52,52,52,52,52,52,
53,53,53,53,53,52,52,52,52,52,52,52,52,52,52,52,
53,53,53,53,53,52,52,52,52,52,52,52,52,52,52,52,
53,53,53,53,53,52,52,52,52,52,52,52,52,52,52,52,
53,53,53,53,53,52,52,52,52,52,52,52,52,52,52,52,
53,53,53,53,53,52,52,52,52,52,52,52,52,52,52,52,
53,53,53,53,53,52,52,52,52,52,52,52,52,52,52,52,
53,53,53,53,53,52,52,52,52,52,52,52,52,52,52,52
</chunk>
   <chunk x="128" y="144" width="16" height="16">
53,53,53,53,53,53,53,53,53,53,53,53,53,53,53,53,
53,53,53,53,53,53,53,53,53,53,53,53,53,53,53,53,
53,53,53,53,53,53,53,53,53,53,53,53,53,53,53,53,
53,53,53,53,53,53,53,53,53,53,53,53,53,53,53,53,
53,53,53,53,53,53,53,53,53,53,53,53,53,53,53,53,
53,53,53,53,53,53,53,53,53,53,53,53,53,53,53,53,
53,53,53,53,53,53,53,53,53,53,53,53,53,53,53,53,
53,53,53,53,53,53,53,53,53,53,53,53,53,53,53,53,
53,53,53,53,53,53,53,53,53,53,53,53,53,53,53,53,
53,53,53,53,53,53,53,53,53,53,53,53,53,53,53,53,
53,53,53,53,53,53,53,53,53,53,53,53,53,53,53,53,
53,53,53,53,53,53,53,53,53,53,53,53,53,53,53,53,
53,53,53,53,53,53,53,53,53,53,53,53,53,53,53,53,
53,53,53,53,53,53,53,53,53,53,53,53,53,53,53,53,
53,53,53,53,53,53,53,53,53,53,53,53,53,53,53,53,
53,53,53,53,53,53,53,53,53,53,53,53,53,53,53,53
</chunk>
   <chunk x="144" y="144" width="16" height="16">
53,53,53,53,53,53,53,53,53,53,53,53,53,53,53,52,
53,53,53,53,53,53,53,53,53,53,53,53,53,53,53,52,
53,53,53,53,53,53,53,53,53,53,53,53,53,53,53,52,
53,53,53,53,53,53,53,53,53,53,53,53,53,53,53,52,
53,53,53,53,53,53,53,53,53,53,53,53,53,53,53,52,
53,53,53,53,53,53,53,53,53,53,53,53,53,53,53,52,
53,53,53,53,53,53,53,53,53,53,53,53,53,53,53,52,
53,53,53,53,53,53,53,53,53,53,53,53,53,53,53,52,
53,53,53,53,53,53,53,53,53,53,53,53,53,53,53,52,
53,53,53,53,53,53,53,53,53,53,53,53,53,53,53,52,
53,53,53,53,53,53,53,53,53,53,53,53,53,53,53,52,
53,53,53,53,53,53,53,53,53,53,53,53,53,53,53,52,
53,53,53,53,53,53,53,53,53,53,53,53,53,53,53,52,
53,53,53,53,53,53,53,53,53,53,53,53,53,53,53,52,
53,53,53,53,53,53,53,53,53,53,53,53,53,53,53,52,
53,53,53,53,53,53,53,53,53,53,53,53,53,53,53,52
</chunk>
   <chunk x="160" y="144" width="16" height="16">
52,52,52,52,52,52,52,52,52,52,52,52,52,52,52,52,
52,52,52,52,52,52,52,52,52,52,52,52,52,52,52,52,
52,52,52,52,52,52,52,52,52,52,52,52,52,52,52,52,
52,52,52,52,52,52,52,52,52,52,52,52,52,52,52,52,
52,52,52,52,52,52,52,52,52,52,52,52,52,52,52,52,
52,52,52,52,52,52,52,52,52,52,52,52,52,52,52,52,
52,52,52,52,52,52,52,52,52,52,52,52,52,52,52,52,
52,52,52,52,52,52,52,52,52,52,52,52,52,52,52,52,
52,52,52,52,52,52,52,52,52,52,52,52,52,52,52,52,
52,52,52,52,52,52,52,52,52,52,52,52,52,52,52,52,
52,52,52,52,52,52,52,52,52,52,52,52,52,52,52,52,
52,52,52,52,52,52,52,52,52,52,52,52,52,52,52,52,
52,52,52,52,52,52,52,52,52,52,52,52,52,52,52,52,
52,52,52,52,52,52,52,52,52,52,52,52,52,52,52,52,
52,52,52,52,52,52,52,52,52,52,52,52,52,52,52,52,
52,52,52,52,52,52,52,52,52,52,52,52,52,52,52,52
</chunk>
   <chunk x="176" y="144" width="16" height="16">
52,53,53,53,53,53,53,53,53,53,53,53,53,53,53,53,
52,53,53,53,53,53,53,53,53,53,53,53,53,53,53,53,
52,53,53,53,53,53,53,53,53,53,53,53,53,53,53,53,
52,53,53,53,53,53,53,53,53,53,53,53,53,53,53,53,
52,53,53,53,53,53,53,53,53,53,53,53,53,53,53,53,
52,53,53,53,53,53,53,53,53,53,53,53,53,53,53,53,
52,53,53,53,53,53,53,53,53,53,53,53,53,53,53,53,
52,53,53,53,53,53,53,53,53,53,53,53,53,53,53,53,
52,53,53,53,53,53,53,53,53,53,53,53,53,53,53,53,
52,53,53,53,53,53,53,53,53,53,53,53,53,53,53,53,
52,53,53,53,53,53,53,53,53,53,53,53,53,53,53,53,
52,53,53,53,53,53,53,53,53,53,53,53,53,53,53,53,
52,53,53,53,53,53,53,53,53,53,53,53,53,53,53,53,
52,53,53,53,53,53,53,53,53,53,53,53,53,53,53,53,
52,53,53,53,53,53,53,53,53,53,53,53,53,53,53,53,
52,53,53,53,53,53,53,53,53,53,53,53,53,53,53,53
</chunk>
   <chunk x="192" y="144" width="16" height="16">
53,53,53,53,53,53,53,53,53,53,53,53,53,53,53,53,
53,53,53,53,53,53,53,53,53,53,53,53,53,53,53,53,
53,53,53,53,53,53,53,53,53,53,53,53,53,53,53,53,
53,53,53,53,53,53,53,53,53,53,53,53,53,53,53,53,
53,53,53,53,53,53,53,53,53,53,53,53,53,53,53,53,
53,53,53,53,53,53,53,53,53,53,53,53,53,53,53,53,
53,53,53,53,53,53,53,53,53,53,53,53,53,53,53,53,
53,53,53,53,53,53,53,53,53,53,53,53,53,53,53,53,
53,53,53,53,53,53,53,53,53,53,53,53,53,53,53,53,
53,53,53,53,53,53,53,53,53,53,53,53,53,53,53,53,
53,53,53,53,53,53,53,53,53,53,53,53,53,53,53,53,
53,53,53,53,53,53,53,53,53,53,53,53,53,53,53,53,
53,53,53,53,53,53,53,53,53,53,53,53,53,53,53,53,
53,53,53,53,53,53,53,53,53,53,53,53,53,53,53,53,
53,53,53,53,53,53,53,53,53,53,53,53,53,53,53,53,
53,53,53,53,53,53,53,53,53,53,53,53,53,53,53,53
</chunk>
   <chunk x="208" y="144" width="16" height="16">
53,53,53,53,53,53,53,53,53,53,53,53,53,53,53,53,
53,53,53,53,53,53,53,53,53,53,53,53,53,53,53,53,
53,53,53,53,53,53,53,53,53,53,53,53,53,53,53,53,
53,53,53,53,53,53,53,53,53,53,53,53,53,53,53,53,
53,53,53,53,53,53,53,53,53,53,53,53,53,53,53,53,
53,53,53,53,53,53,53,53,53,53,53,53,53,53,53,53,
53,53,53,53,53,53,53,53,53,53,53,53,53,53,53,53,
53,53,53,53,53,53,53,53,53,53,53,53,53,53,53,53,
53,53,53,53,53,53,53,53,53,53,53,53,53,53,53,53,
53,53,53,53,53,53,53,53,53,53,53,53,53,53,53,53,
53,53,53,53,53,53,53,53,53,53,53,53,53,53,53,53,
53,53,53,53,53,53,53,53,53,53,53,53,53,53,53,53,
53,53,53,53,53,53,53,53,53,53,53,53,53,53,53,53,
53,53,53,53,53,53,53,53,53,53,53,53,53,53,53,53,
53,53,53,53,53,53,53,53,53,53,53,53,53,53,53,53,
53,53,53,53,53,53,53,53,53,53,53,53,53,53,53,53
</chunk>
   <chunk x="224" y="144" width="16" height="16">
53,53,53,53,53,53,53,52,52,52,52,52,52,52,52,52,
53,53,53,53,53,53,53,52,52,52,52,52,52,52,52,52,
53,53,53,53,53,53,53,52,52,52,52,52,52,52,52,52,
53,53,53,53,53,53,53,52,52,52,52,52,52,52,52,52,
53,53,53,53,53,53,53,52,52,52,52,52,52,52,52,52,
53,53,53,53,53,53,53,52,52,52,52,52,52,52,52,52,
53,53,53,53,53,53,53,52,52,52,52,52,52,52,52,52,
53,53,53,53,53,53,53,52,52,52,52,52,52,52,52,52,
53,53,53,53,53,53,53,52,52,52,52,52,52,52,52,52,
53,53,53,53,53,53,53,52,52,52,52,52,52,52,52,52,
53,53,53,53,53,53,53,52,52,52,52,52,52,52,52,52,
53,53,53,53,53,53,53,52,52,52,52,52,52,52,52,52,
53,53,53,53,53,53,53,52,52,52,52,52,52,52,52,52,
53,53,53,53,53,53,53,52,52,52,52,52,52,52,52,52,
53,53,53,53,53,53,53,52,52,52,52,52,52,52,52,52,
53,53,53,53,53,53,53,52,52,52,52,52,52,52,52,52
</chunk>
   <chunk x="240" y="144" width="16" height="16">
52,52,52,52,52,52,52,52,52,52,52,52,52,52,52,52,
52,52,52,52,52,52,52,52,52,52,52,52,52,52,52,52,
52,52,52,52,52,52,52,52,52,52,52,52,52,52,52,52,
52,52,52,52,52,52,52,52,52,52,52,52,52,52,52,52,
52,52,52,52,52,52,52,52,52,52,52,52,52,52,52,52,
52,52,52,52,52,52,52,52,52,52,52,52,52,52,52,52,
52,52,52,52,52,52,52,52,52,52,52,52,52,52,52,52,
52,52,52,52,52,52,52,52,52,52,52,52,52,52,52,52,
52,52,52,52,52,52,52,52,52,52,52,52,52,52,52,52,
52,52,52,52,52,52,52,52,52,52,52,52,52,52,52,52,
52,52,52,52,52,52,52,52,52,52,52,52,52,52,52,52,
52,52,52,52,52,52,52,52,52,52,52,52,52,52,52,52,
52,52,52,52,52,52,52,52,52,52,52,52,52,52,52,52,
52,52,52,52,52,52,52,52,52,52,52,52,52,52,52,52,
52,52,52,52,52,52,52,52,52,52,52,52,52,52,52,52,
52,52,52,52,52,52,52,52,52,52,52,52,52,52,52,52
</chunk>
   <chunk x="256" y="144" width="16" height="16">
52,52,52,52,52,52,52,52,52,52,52,52,52,52,52,52,
52,52,52,52,52,52,52,52,52,52,52,52,52,52,52,52,
52,52,52,52,52,52,52,52,52,52,52,52,52,52,52,52,
52,52,52,52,52,52,52,52,52,52,52,52,52,52,52,52,
52,52,52,52,52,52,52,52,52,52,52,52,52,52,52,52,
52,52,52,52,52,52,52,52,52,52,52,52,52,52,52,52,
52,52,52,52,52,52,52,52,52,52,52,52,52,52,52,52,
52,52,52,52,52,52,52,52,52,52,52,52,52,52,52,52,
52,52,52,52,52,52,52,52,52,52,52,52,52,52,52,52,
52,52,52,52,52,52,52,52,52,52,52,52,52,52,52,52,
52,52,52,52,52,52,52,52,52,52,52,52,52,52,52,52,
52,52,52,52,52,52,52,52,52,52,52,52,52,52,52,52,
52,52,52,52,52,52,52,52,52,52,52,52,52,52,52,52,
52,52,52,52,52,52,52,52,52,52,52,52,52,52,52,52,
52,52,52,52,52,52,52,52,52,52,52,52,52,52,52,52,
52,52,52,52,52,52,52,52,52,52,52,52,52,52,52,52
</chunk>
   <chunk x="272" y="144" width="16" height="16">
52,52,52,52,52,52,52,52,52,52,52,52,52,52,52,52,
52,52,52,52,52,52,52,52,52,52,52,52,52,52,52,52,
52,52,52,52,52,52,52,52,52,52,52,52,52,52,52,52,
52,52,52,52,52,52,52,52,52,52,52,52,52,52,52,52,
52,52,52,52,52,52,52,52,52,52,52,52,52,52,52,52,
52,52,52,52,52,52,52,52,52,52,52,52,52,52,52,52,
52,52,52,52,52,52,52,52,52,52,52,52,52,52,52,52,
52,52,52,52,52,52,52,52,52,52,52,52,52,52,52,52,
52,52,52,52,52,52,52,52,52,52,52,52,52,52,52,52,
52,52,52,52,52,52,52,52,52,52,52,52,52,52,52,52,
52,52,52,52,52,52,52,52,52,52,52,52,52,52,52,52,
52,52,52,52,52,52,52,52,52,52,52,52,52,52,52,52,
52,52,52,52,52,52,52,52,52,52,52,52,52,52,52,52,
52,52,52,52,52,52,52,52,52,52,52,52,52,52,52,52,
52,52,52,52,52,52,52,52,52,52,52,52,52,52,52,52,
52,52,52,52,52,52,52,52,52,52,52,52,52,52,52,52
</chunk>
   <chunk x="288" y="144" width="16" height="16">
52,52,52,52,52,52,52,52,52,52,52,52,52,52,52,52,
52,52,52,52,52,52,52,52,52,52,52,52,52,52,52,52,
52,52,52,52,52,52,52,52,52,52,52,52,52,52,52,52,
52,52,52,52,52,52,52,52,52,52,52,52,52,52,52,52,
52,52,52,52,52,52,52,52,52,52,52,52,52,52,52,52,
52,52,52,52,52,52,52,52,52,52,52,52,52,52,52,52,
52,52,52,52,52,52,52,52,52,52,52,52,52,52,52,52,
52,52,52,52,52,52,52,52,52,52,52,52,52,52,52,52,
52,52,52,52,52,52,52,52,52,52,52,52,52,52,52,52,
52,52,52,52,52,52,52,52,52,52,52,52,52,52,52,52,
52,52,52,52,52,52,52,52,52,52,52,52,52,52,52,52,
52,52,52,52,52,52,52,52,52,52,52,52,52,52,52,52,
52,52,52,52,52,52,52,52,52,52,52,52,52,52,52,52,
52,52,52,52,52,52,52,52,52,52,52,52,52,52,52,52,
52,52,52,52,52,52,52,52,52,52,52,52,52,52,52,52,
52,52,52,52,52,52,52,52,52,52,52,52,52,52,52,52
</chunk>
   <chunk x="304" y="144" width="16" height="16">
52,52,52,52,52,52,52,52,52,52,52,52,52,52,52,52,
52,52,52,52,52,52,52,52,52,52,52,52,52,52,52,52,
52,52,52,52,52,52,52,52,52,52,52,52,52,52,52,52,
52,52,52,52,52,52,52,52,52,52,52,52,52,52,52,52,
52,52,52,52,52,52,52,52,52,52,52,52,52,52,52,52,
52,52,52,52,52,52,52,52,52,52,52,52,52,52,52,52,
52,52,52,52,52,52,52,52,52,52,52,52,52,52,52,52,
52,52,52,52,52,52,52,52,52,52,52,52,52,52,52,52,
52,52,52,52,52,52,52,52,52,52,52,52,52,52,52,52,
52,52,52,52,52,52,52,52,52,52,52,52,52,52,52,52,
52,52,52,52,52,52,52,52,52,52,52,52,52,52,52,52,
52,52,52,52,52,52,52,52,52,52,52,52,52,52,52,52,
52,52,52,52,52,52,52,52,52,52,52,52,52,52,52,52,
52,52,52,52,52,52,52,52,52,52,52,52,52,52,52,52,
52,52,52,52,52,52,52,52,52,52,52,52,52,52,52,52,
52,52,52,52,52,52,52,52,52,52,52,52,52,52,52,52
</chunk>
   <chunk x="0" y="160" width="16" height="16">
52,52,52,52,52,53,53,53,53,53,53,53,53,53,53,53,
52,52,52,52,52,53,53,53,53,53,53,53,53,53,53,53,
52,52,52,52,52,53,53,53,53,53,53,53,53,53,53,53,
52,52,52,52,52,53,53,53,53,53,53,53,53,53,53,53,
52,52,52,52,52,53,53,53,53,53,53,53,53,53,53,53,
52,52,52,52,52,53,53,53,53,53,53,53,53,53,53,53,
52,52,52,52,52,53,53,53,53,53,53,53,53,53,53,53,
52,52,52,52,52,53,53,53,53,53,53,53,53,53,53,53,
52,52,52,52,52,53,53,53,53,53,53,53,53,53,53,53,
52,52,52,52,52,53,53,53,53,53,53,53,53,53,53,53,
52,52,52,52,52,53,53,53,53,53,53,53,53,53,53,53,
52,52,52,52,52,53,53,53,53,53,53,53,53,53,53,53,
52,52,52,52,52,53,53,53,53,53,53,53,53,53,53,53,
52,52,52,52,52,53,53,53,53,53,53,53,53,53,53,53,
52,52,52,52,52,53,53,53,53,53,53,53,53,53,53,53,
52,52,52,52,52,53,53,53,53,53,53,53,53,53,53,53
</chunk>
   <chunk x="16" y="160" width="16" height="16">
53,53,52,52,52,52,52,52,52,52,52,52,52,52,52,53,
53,53,52,52,52,52,52,52,52,52,52,52,52,52,52,53,
53,53,52,52,52,52,52,52,52,52,52,52,52,52,52,53,
53,53,52,52,52,52,52,52,52,52,52,52,52,52,52,53,
53,53,52,52,52,52,52,52,52,52,52,52,52,52,52,53,
53,53,52,52,52,52,52,52,52,52,52,52,52,52,52,53,
53,53,52,52,52,52,52,52,52,52,52,52,52,52,52,53,
53,53,52,52,52,52,52,52,52,52,52,52,52,52,52,53,
53,53,52,52,52,52,52,52,52,52,52,52,52,52,52,53,
53,53,52,52,52,52,52,52,52,52,52,52,52,52,52,53,
53,53,52,52,52,52,52,52,52,52,52,52,52,52,52,53,
53,53,52,52,52,52,52,52,52,52,52,52,52,52,52,53,
53,53,52,52,52,52,52,52,52,52,52,52,52,52,52,53,
53,53,52,52,52,52,52,52,52,52,52,52,52,52,52,53,
53,53,52,52,52,52,52,52,52,52,52,52,52,52,52,53,
53,53,52,52,52,52,52,52,52,52,52,52,52,52,52,53
</chunk>
   <chunk x="32" y="160" width="16" height="16">
53,53,53,53,53,53,53,53,53,53,53,53,52,52,52,52,
53,53,53,53,53,53,53,53,53,53,53,53,52,52,52,52,
53,53,53,53,53,53,53,53,53,53,53,53,52,52,52,52,
53,53,53,53,53,53,53,53,53,53,53,53,52,52,52,52,
53,53,53,53,53,53,53,53,53,53,53,53,52,52,52,52,
53,53,53,53,53,53,53,53,53,53,53,53,52,52,52,52,
53,53,53,53,53,53,53,53,53,53,53,53,52,52,52,52,
53,53,53,53,53,53,53,53,53,53,53,53,52,52,52,52,
53,53,53,53,53,53,53,53,53,53,53,53,52,52,52,52,
53,53,53,53,53,53,53,53,53,53,53,53,52,52,52,52,
53,53,53,53,53,53,53,53,53,53,53,53,52,52,52,52,
53,53,53,53,53,53,53,53,53,53,53,53,52,52,52,52,
53,53,53,53,53,53,53,53,53,53,53,53,52,52,52,52,
53,53,53,53,53,53,53,53,53,53,53,53,52,52,52,52,
53,53,53,53,53,53,53,53,53,53,53,53,52,52,52,52,
53,53,53,53,53,53,53,53,53,53,53,53,52,52,52,52
</chunk>
   <chunk x="48" y="160" width="16" height="16">
52,52,52,52,52,52,52,52,52,53,53,53,53,53,53,53,
52,52,52,52,52,52,52,52,52,53,53,53,53,53,53,53,
52,52,52,52,52,52,52,52,52,53,53,53,53,53,53,53,
52,52,52,52,52,52,52,52,52,53,53,53,53,53,53,53,
52,52,52,52,52,52,52,52,52,53,53,53,53,53,53,53,
52,52,52,52,52,52,52,52,52,53,53,53,53,53,53,53,
52,52,52,52,52,52,52,52,52,53,53,53,53,53,53,53,
52,52,52,52,52,52,52,52,52,53,53,53,53,53,53,53,
52,52,52,52,52,52,52,52,52,53,53,53,53,53,53,53,
52,52,52,52,52,52,52,52,52,53,53,53,53,53,53,53,
52,52,52,52,52,52,52,52,52,53,53,53,53,53,53,53,
52,52,52,52,52,52,52,52,52,53,53,53,53,53,53,53,
52,52,52,52,52,52,52,52,52,53,53,53,53,53,53,53,
52,52,52,52,52,52,52,52,52,53,53,53,53,53,53,53,
52,52,52,52,52,52,52,52,52,53,53,53,53,53,53,53,
52,52,52,52,52,52,52,52,52,53,53,53,53,53,53,53
</chunk>
   <chunk x="64" y="160" width="16" height="16">
53,53,53,53,53,53,53,53,53,53,52,52,52,52,52,52,
53,53,53,53,53,53,53,53,53,53,52,52,52,52,52,52,
53,53,53,53,53,53,53,53,53,53,52,52,52,52,52,52,
53,53,53,53,53,53,53,53,53,53,52,52,52,52,52,52,
53,53,53,53,53,53,53,53,53,53,52,52,52,52,52,52,
53,53,53,53,53,53,53,53,53,53,52,52,52,52,52,52,
53,53,53,53,53,53,53,53,53,53,52,52,52,52,52,52,
53,53,53,53,53,53,53,53,53,53,52,52,52,52,52,52,
53,53,53,53,53,53,53,53,53,53,52,52,52,52,52,52,
53,53,53,53,53,53,53,53,53,53,52,52,52,52,52,52,
53,53,53,53,53,53,53,53,53,53,52,52,52,52,52,52,
53,53,53,53,53,53,53,53,53,53,52,52,52,52,52,52,
53,53,53,53,53,53,53,53,53,53,52,52,52,52,52,52,
53,53,53,53,53,53,53,53,53,53,52,52,52,52,52,52,
53,53,53,53,53,53,53,53,53,53,52,52,52,52,52,52,
53,53,53,53,53,53,53,53,53,53,52,52,52,52,52,52
</chunk>
   <chunk x="80" y="160" width="16" height="16">
52,52,52,52,52,52,52,52,52,52,52,53,53,53,53,53,
52,52,52,52,52,52,52,52,52,52,52,53,53,53,53,53,
52,52,52,52,52,52,52,52,52,52,52,53,53,53,53,53,
52,52,52,52,52,52,52,52,52,52,52,53,53,53,53,53,
52,52,52,52,52,52,52,52,52,52,52,53,53,53,53,53,
52,52,52,52,52,52,52,52,52,52,52,53,53,53,53,53,
52,52,52,52,52,52,52,52,52,52,52,53,53,53,53,53,
52,52,52,52,52,52,52,52,52,52,52,53,53,53,53,53,
52,52,52,52,52,52,52,52,52,52,52,53,53,53,53,53,
52,52,52,52,52,52,52,52,52,52,52,53,53,53,53,53,
52,52,52,52,52,52,52,52,52,52,52,53,53,53,53,53,
52,52,52,52,52,52,52,52,52,52,52,53,53,53,53,53,
52,52,52,52,52,52,52,52,52,52,52,53,53,53,53,53,
52,52,52,52,52,52,52,52,52,52,52,53,53,53,53,53,
52,52,52,52,52,52,52,52,52,52,52,53,53,53,53,53,
52,52,52,52,52,52,52,52,52,52,52,53,53,53,53,53
</chunk>
   <chunk x="96" y="160" width="16" height="16">
53,53,53,53,53,53,53,53,53,53,53,53,53,53,53,53,
53,53,53,53,53,53,53,53,53,53,53,53,53,53,53,53,
53,53,53,53,53,53,53,53,53,53,53,53,53,53,53,53,
53,53,53,53,53,53,53,53,53,53,53,53,53,53,53,53,
53,53,53,53,53,53,53,53,53,53,53,53,53,53,53,53,
53,53,53,53,53,53,53,53,53,53,53,53,53,53,53,53,
53,53,53,53,53,53,53,53,53,53,53,53,53,53,53,53,
53,53,53,53,53,53,53,53,53,53,53,53,53,53,53,53,
53,53,53,53,53,53,53,53,53,53,53,53,53,53,53,53,
53,53,53,53,53,53,53,53,53,53,53,53,53,53,53,53,
53,53,53,53,53,53,53,53,53,53,53,53,53,53,53,53,
53,53,53,53,53,53,53,53,53,53,53,53,53,53,53,53,
53,53,53,53,53,53,53,53,53,53,53,53,53,53,53,53,
53,53,53,53,53,53,53,53,53,53,53,53,53,53,53,53,
53,53,53,53,53,53,53,53,53,53,53,53,53,53,53,53,
53,53,53,53,53,53,53,53,53,53,53,53,53,53,53,53
</chunk>
   <chunk x="112" y="160" width="16" height="16">
53,53,53,53,53,52,52,52,52,52,52,52,52,52,52,52,
53,53,53,53,53,52,52,52,52,52,52,52,52,52,52,52,
53,53,53,53,53,52,52,52,52,52,52,52,52,52,52,52,
53,53,53,53,53,52,52,52,52,52,52,52,52,52,52,52,
53,53,53,53,53,52,52,52,52,52,52,52,52,52,52,52,
53,53,53,53,53,52,52,52,52,52,52,52,52,52,52,52,
53,53,53,53,53,52,52,52,52,52,52,52,52,52,52,52,
53,53,53,53,53,52,52,52,52,52,52,52,52,52,52,52,
53,53,53,53,53,52,52,52,52,52,52,52,52,52,52,52,
53,53,53,53,53,52,52,52,52,52,52,52,52,52,52,52,
53,53,53,53,53,52,52,52,52,52,52,52,52,52,52,52,
53,53,53,53,53,52,52,52,52,52,52,52,52,52,52,52,
53,53,53,53,53,52,52,52,52,52,52,52,52,52,52,52,
53,53,53,53,53,52,52,52,52,52,52,52,52,52,52,52,
53,53,53,53,53,52,52,52,52,52,52,52,52,52,52,52,
53,53,53,53,53,52,52,52,52,52,52,52,52,52,52,52
</chunk>
   <chunk x="128" y="160" width="16" height="16">
53,53,53,53,53,53,53,53,53,53,53,53,53,53,53,53,
53,53,53,53,53,53,53,53,53,53,53,53,53,53,53,53,
53,53,53,53,53,53,53,53,53,53,53,53,53,53,53,53,
53,53,53,53,53,53,53,53,53,53,53,53,53,53,53,53,
53,53,53,53,53,53,53,53,53,53,53,53,53,53,53,53,
53,53,53,53,53,53,53,53,53,53,53,53,53,53,53,53,
53,53,53,53,53,53,53,53,53,53,53,53,53,53,53,53,
53,53,53,53,53,53,53,53,53,53,53,53,53,53,53,53,
53,53,53,53,53,53,53,53,53,53,53,53,53,53,53,53,
53,53,53,53,53,53,53,53,53,53,53,53,53,53,53,53,
53,53,53,53,53,53,53,53,53,53,53,53,53,53,53,53,
53,53,53,53,53,53,53,53,53,53,53,53,53,53,53,53,
53,53,53,53,53,53,53,53,53,53,53,53,53,53,53,53,
53,53,53,53,53,53,53,53,53,53,53,53,53,53,53,53,
53,53,53,53,53,53,53,53,53,53,53,53,53,53,53,53,
53,53,53,53,53,53,53,53,53,53,53,53,53,53,53,53
</chunk>
   <chunk x="144" y="160" width="16" height="16">
53,53,53,53,53,53,53,53,53,53,53,53,53,53,53,52,
53,53,53,53,53,53,53,53,53,53,53,53,53,53,53,52,
53,53,53,53,53,53,53,53,53,53,53,53,53,53,53,52,
53,53,53,53,53,53,53,53,53,53,53,53,53,53,53,52,
53,53,53,53,53,53,53,53,53,53,53,53,53,53,53,52,
53,53,53,53,53,53,53,53,53,53,53,53,53,53,53,52,
53,53,53,53,53,53,53,53,53,53,53,53,53,53,53,52,
53,53,53,53,53,53,53,53,53,53,53,53,53,53,53,52,
53,53,53,53,53,53,53,53,53,53,53,53,53,53,53,52,
53,53,53,53,53,53,53,53,53,53,53,53,53,53,53,52,
53,53,53,53,53,53,53,53,53,53,53,53,53,53,53,52,
53,53,53,53,53,53,53,53,53,53,53,53,53,53,53,52,
53,53,53,53,53,53,53,53,53,53,53,53,53,53,53,52,
53,53,53,53,53,53,53,53,53,53,53,53,53,53,53,52,
53,53,53,53,53,53,53,53,53,53,53,53,53,53,53,52,
53,53,53,53,53,53,53,53,53,53,53,53,53,53,53,52
</chunk>
   <chunk x="160" y="160" width="16" height="16">
52,52,52,52,52,52,52,52,52,52,52,52,52,52,52,52,
52,52,52,52,52,52,52,52,52,52,52,52,52,52,52,52,
52,52,52,52,52,52,52,52,52,52,52,52,52,52,52,52,
52,52,52,52,52,52,52,52,52,52,52,52,52,52,52,52,
52,52,52,52,52,52,52,52,52,52,52,52,52,52,52,52,
52,52,52,52,52,52,52,52,52,52,52,52,52,52,52,52,
52,52,52,52,52,52,52,52,52,52,52,52,52,52,52,52,
52,52,52,52,52,52,52,52,52,52,52,52,52,52,52,52,
52,52,52,52,52,52,52,52,52,52,52,52,52,52,52,52,
52,52,52,52,52,52,52,52,52,52,52,52,52,52,52,52,
52,52,52,52,52,52,52,52,52,52,52,52,52,52,52,52,
52,52,52,52,52,52,52,52,52,52,52,52,52,52,52,52,
52,52,52,52,52,52,52,52,52,52,52,52,52,52,52,52,
52,52,52,52,52,52,52,52,52,52,52,52,52,52,52,52,
52,52,52,52,52,52,52,52,52,52,52,52,52,52,52,52,
52,52,52,52,52,52,52,52,52,52,52,52,52,52,52,52
</chunk>
   <chunk x="176" y="160" width="16" height="16">
52,53,53,53,53,53,53,53,53,53,53,53,53,53,53,53,
52,53,53,53,53,53,53,53,53,53,53,53,53,53,53,53,
52,53,53,53,53,53,53,53,53,53,53,53,53,53,53,53,
52,53,53,53,53,53,53,53,53,53,53,53,53,53,53,53,
52,53,53,53,53,53,53,53,53,53,53,53,53,53,53,53,
52,53,53,53,53,53,53,53,53,53,53,53,53,53,53,53,
52,53,53,53,53,53,53,53,53,53,53,53,53,53,53,53,
52,53,53,53,53,53,53,53,53,53,53,53,53,53,53,53,
52,53,53,53,53,53,53,53,53,53,53,53,53,53,53,53,
52,53,53,53,53,53,53,53,53,53,53,53,53,53,53,53,
52,53,53,53,53,53,53,53,53,53,53,53,53,53,53,53,
52,53,53,53,53,53,53,53,53,53,53,53,53,53,53,53,
52,53,53,53,53,53,53,53,53,53,53,53,53,53,53,53,
52,53,53,53,53,53,53,53,53,53,53,53,53,53,53,53,
52,53,53,53,53,53,53,53,53,53,53,53,53,53,53,53,
52,53,53,53,53,53,53,53,53,53,53,53,53,53,53,53
</chunk>
   <chunk x="192" y="160" width="16" height="16">
53,53,53,53,53,53,53,53,53,53,53,53,53,53,53,53,
53,53,53,53,53,53,53,53,53,53,53,53,53,53,53,53,
53,53,53,53,53,53,53,53,53,53,53,53,53,53,53,53,
53,53,53,53,53,53,53,53,53,53,53,53,53,53,53,53,
53,53,53,53,53,53,53,53,53,53,53,53,53,53,53,53,
53,53,53,53,53,53,53,53,53,53,53,53,53,53,53,53,
53,53,53,53,53,53,53,53,53,53,53,53,53,53,53,53,
53,53,53,53,53,53,53,53,53,53,53,53,53,53,53,53,
53,53,53,53,53,53,53,53,53,53,53,53,53,53,53,53,
53,53,53,53,53,53,53,53,53,53,53,53,53,53,53,53,
53,53,53,53,53,53,53,53,53,53,53,53,53,53,53,53,
53,53,53,53,53,53,53,53,53,53,53,53,53,53,53,53,
53,53,53,53,53,53,53,53,53,53,53,53,53,53,53,53,
53,53,53,53,53,53,53,53,53,53,53,53,53,53,53,53,
53,53,53,53,53,53,53,53,53,53,53,53,53,53,53,53,
53,53,53,53,53,53,53,53,53,53,53,53,53,53,53,53
</chunk>
   <chunk x="208" y="160" width="16" height="16">
53,53,53,53,53,53,53,53,53,53,53,53,53,53,53,53,
53,53,53,53,53,53,53,53,53,53,53,53,53,53,53,53,
53,53,53,53,53,53,53,53,53,53,53,53,53,53,53,53,
53,53,53,53,53,53,53,53,53,53,53,53,53,53,53,53,
53,53,53,53,53,53,53,53,53,53,53,53,53,53,53,53,
53,53,53,53,53,53,53,53,53,53,53,53,53,53,53,53,
53,53,53,53,53,53,53,53,53,53,53,53,53,53,53,53,
53,53,53,53,53,53,53,53,53,53,53,53,53,53,53,53,
53,53,53,53,53,53,53,53,53,53,53,53,53,53,53,53,
53,53,53,53,53,53,53,53,53,53,53,53,53,53,53,53,
53,53,53,53,53,53,53,53,53,53,53,53,53,53,53,53,
53,53,53,53,53,53,53,53,53,53,53,53,53,53,53,53,
53,53,53,53,53,53,53,53,53,53,53,53,53,53,53,53,
53,53,53,53,53,53,53,53,53,53,53,53,53,53,53,53,
53,53,53,53,53,53,53,53,53,53,53,53,53,53,53,53,
53,53,53,53,53,53,53,53,53,53,53,53,53,53,53,53
</chunk>
   <chunk x="224" y="160" width="16" height="16">
53,53,53,53,53,53,53,52,52,52,52,52,52,52,52,52,
53,53,53,53,53,53,53,52,52,52,52,52,52,52,52,52,
53,53,53,53,53,53,53,52,52,52,52,52,52,52,52,52,
53,53,53,53,53,53,53,52,52,52,52,52,52,52,52,52,
53,53,53,53,53,53,53,52,52,52,52,52,52,52,52,52,
53,53,53,53,53,53,53,52,52,52,52,52,52,52,52,52,
53,53,53,53,53,53,53,52,52,52,52,52,52,52,52,52,
53,53,53,53,53,53,53,52,52,52,52,52,52,52,52,52,
53,53,53,53,53,53,53,52,52,52,52,52,52,52,52,52,
53,53,53,53,53,53,53,52,52,52,52,52,52,52,52,52,
53,53,53,53,53,53,53,52,52,52,52,52,52,52,52,52,
53,53,53,53,53,53,53,52,52,52,52,52,52,52,52,52,
53,53,53,53,53,53,53,52,52,52,52,52,52,52,52,52,
53,53,53,53,53,53,53,52,52,52,52,52,52,52,52,52,
53,53,53,53,53,53,53,52,52,52,52,52,52,52,52,52,
53,53,53,53,53,53,53,52,52,52,52,52,52,52,52,52
</chunk>
   <chunk x="240" y="160" width="16" height="16">
52,52,52,52,52,52,52,52,52,52,52,52,52,52,52,52,
52,52,52,52,52,52,52,52,52,52,52,52,52,52,52,52,
52,52,52,52,52,52,52,52,52,52,52,52,52,52,52,52,
52,52,52,52,52,52,52,52,52,52,52,52,52,52,52,52,
52,52,52,52,52,52,52,52,52,52,52,52,52,52,52,52,
52,52,52,52,52,52,52,52,52,52,52,52,52,52,52,52,
52,52,52,52,52,52,52,52,52,52,52,52,52,52,52,52,
52,52,52,52,52,52,52,52,52,52,52,52,52,52,52,52,
52,52,52,52,52,52,52,52,52,52,52,52,52,52,52,52,
52,52,52,52,52,52,52,52,52,52,52,52,52,52,52,52,
52,52,52,52,52,52,52,52,52,52,52,52,52,52,52,52,
52,52,52,52,52,52,52,52,52,52,52,52,52,52,52,52,
52,52,52,52,52,52,52,52,52,52,52,52,52,52,52,52,
52,52,52,52,52,52,52,52,52,52,52,52,52,52,52,52,
52,52,52,52,52,52,52,52,52,52,52,52,52,52,52,52,
52,52,52,52,52,52,52,52,52,52,52,52,52,52,52,52
</chunk>
   <chunk x="256" y="160" width="16" height="16">
52,52,52,52,52,52,52,52,52,52,52,52,52,52,52,52,
52,52,52,52,52,52,52,52,52,52,52,52,52,52,52,52,
52,52,52,52,52,52,52,52,52,52,52,52,52,52,52,52,
52,52,52,52,52,52,52,52,52,52,52,52,52,52,52,52,
52,52,52,52,52,52,52,52,52,52,52,52,52,52,52,52,
52,52,52,52,52,52,52,52,52,52,52,52,52,52,52,52,
52,52,52,52,52,52,52,52,52,52,52,52,52,52,52,52,
52,52,52,52,52,52,52,52,52,52,52,52,52,52,52,52,
52,52,52,52,52,52,52,52,52,52,52,52,52,52,52,52,
52,52,52,52,52,52,52,52,52,52,52,52,52,52,52,52,
52,52,52,52,52,52,52,52,52,52,52,52,52,52,52,52,
52,52,52,52,52,52,52,52,52,52,52,52,52,52,52,52,
52,52,52,52,52,52,52,52,52,52,52,52,52,52,52,52,
52,52,52,52,52,52,52,52,52,52,52,52,52,52,52,52,
52,52,52,52,52,52,52,52,52,52,52,52,52,52,52,52,
52,52,52,52,52,52,52,52,52,52,52,52,52,52,52,52
</chunk>
   <chunk x="272" y="160" width="16" height="16">
52,52,52,52,52,52,52,52,52,52,52,52,52,52,52,52,
52,52,52,52,52,52,52,52,52,52,52,52,52,52,52,52,
52,52,52,52,52,52,52,52,52,52,52,52,52,52,52,52,
52,52,52,52,52,52,52,52,52,52,52,52,52,52,52,52,
52,52,52,52,52,52,52,52,52,52,52,52,52,52,52,52,
52,52,52,52,52,52,52,52,52,52,52,52,52,52,52,52,
52,52,52,52,52,52,52,52,52,52,52,52,52,52,52,52,
52,52,52,52,52,52,52,52,52,52,52,52,52,52,52,52,
52,52,52,52,52,52,52,52,52,52,52,52,52,52,52,52,
52,52,52,52,52,52,52,52,52,52,52,52,52,52,52,52,
52,52,52,52,52,52,52,52,52,52,52,52,52,52,52,52,
52,52,52,52,52,52,52,52,52,52,52,52,52,52,52,52,
52,52,52,52,52,52,52,52,52,52,52,52,52,52,52,52,
52,52,52,52,52,52,52,52,52,52,52,52,52,52,52,52,
52,52,52,52,52,52,52,52,52,52,52,52,52,52,52,52,
52,52,52,52,52,52,52,52,52,52,52,52,52,52,52,52
</chunk>
   <chunk x="288" y="160" width="16" height="16">
52,52,52,52,52,52,52,52,52,52,52,52,52,52,52,52,
52,52,52,52,52,52,52,52,52,52,52,52,52,52,52,52,
52,52,52,52,52,52,52,52,52,52,52,52,52,52,52,52,
52,52,52,52,52,52,52,52,52,52,52,52,52,52,52,52,
52,52,52,52,52,52,52,52,52,52,52,52,52,52,52,52,
52,52,52,52,52,52,52,52,52,52,52,52,52,52,52,52,
52,52,52,52,52,52,52,52,52,52,52,52,52,52,52,52,
52,52,52,52,52,52,52,52,52,52,52,52,52,52,52,52,
52,52,52,52,52,52,52,52,52,52,52,52,52,52,52,52,
52,52,52,52,52,52,52,52,52,52,52,52,52,52,52,52,
52,52,52,52,52,52,52,52,52,52,52,52,52,52,52,52,
52,52,52,52,52,52,52,52,52,52,52,52,52,52,52,52,
52,52,52,52,52,52,52,52,52,52,52,52,52,52,52,52,
52,52,52,52,52,52,52,52,52,52,52,52,52,52,52,52,
52,52,52,52,52,52,52,52,52,52,52,52,52,52,52,52,
52,52,52,52,52,52,52,52,52,52,52,52,52,52,52,52
</chunk>
   <chunk x="304" y="160" width="16" height="16">
52,52,52,52,52,52,52,52,52,52,52,52,52,52,52,52,
52,52,52,52,52,52,52,52,52,52,52,52,52,52,52,52,
52,52,52,52,52,52,52,52,52,52,52,52,52,52,52,52,
52,52,52,52,52,52,52,52,52,52,52,52,52,52,52,52,
52,52,52,52,52,52,52,52,52,52,52,52,52,52,52,52,
52,52,52,52,52,52,52,52,52,52,52,52,52,52,52,52,
52,52,52,52,52,52,52,52,52,52,52,52,52,52,52,52,
52,52,52,52,52,52,52,52,52,52,52,52,52,52,52,52,
52,52,52,52,52,52,52,52,52,52,52,52,52,52,52,52,
52,52,52,52,52,52,52,52,52,52,52,52,52,52,52,52,
52,52,52,52,52,52,52,52,52,52,52,52,52,52,52,52,
52,52,52,52,52,52,52,52,52,52,52,52,52,52,52,52,
52,52,52,52,52,52,52,52,52,52,52,52,52,52,52,52,
52,52,52,52,52,52,52,52,52,52,52,52,52,52,52,52,
52,52,52,52,52,52,52,52,52,52,52,52,52,52,52,52,
52,52,52,52,52,52,52,52,52,52,52,52,52,52,52,52
</chunk>
   <chunk x="0" y="176" width="16" height="16">
52,52,52,52,52,53,53,53,53,53,53,53,53,53,53,53,
52,52,52,52,52,53,53,53,53,53,53,53,53,53,53,53,
52,52,52,52,52,53,53,53,53,53,53,53,53,53,53,53,
52,52,52,52,52,53,53,53,53,53,53,53,53,53,53,53,
52,52,52,52,52,53,53,53,53,53,53,53,53,53,53,53,
52,52,52,52,52,53,53,53,53,53,53,53,53,53,53,53,
52,52,52,52,52,53,53,53,53,53,53,53,53,53,53,53,
52,52,52,52,52,53,53,53,53,53,53,53,53,53,53,53,
52,52,52,52,52,53,53,53,53,53,53,53,53,53,53,53,
52,52,52,52,52,53,53,53,53,53,53,53,53,53,53,53,
52,52,52,52,52,53,53,53,53,53,53,53,53,53,53,53,
52,52,52,52,52,53,53,53,53,53,53,53,53,53,53,53,
52,52,52,52,52,53,53,53,53,53,53,53,53,53,53,53,
52,52,52,52,52,52,52,52,52,52,52,52,52,52,52,52,
52,52,52,52,52,52,52,52,52,52,52,52,52,52,52,52,
52,52,52,52,52,52,52,52,52,52,52,52,52,52,52,52
</chunk>
   <chunk x="16" y="176" width="16" height="16">
53,53,52,52,52,52,52,52,52,52,52,52,52,52,52,53,
53,53,52,52,52,52,52,52,52,52,52,52,52,52,52,53,
53,53,52,52,52,52,52,52,52,52,52,52,52,52,52,53,
53,53,52,52,52,52,52,52,52,52,52,52,52,52,52,53,
53,53,52,52,52,52,52,52,52,52,52,52,52,52,52,53,
53,53,52,52,52,52,52,52,52,52,52,52,52,52,52,53,
53,53,52,52,52,52,52,52,52,52,52,52,52,52,52,53,
53,53,52,52,52,52,52,52,52,52,52,52,52,52,52,53,
53,53,52,52,52,52,52,52,52,52,52,52,52,52,52,53,
53,53,52,52,52,52,52,52,52,52,52,52,52,52,52,53,
53,53,52,52,52,52,52,52,52,52,52,52,52,52,52,53,
53,53,52,52,52,52,52,52,52,52,52,52,52,52,52,53,
53,53,52,52,52,52,52,52,52,52,52,52,52,52,52,52,
52,52,52,52,52,52,52,52,52,52,52,52,52,52,52,52,
52,52,52,52,52,52,52,52,52,52,52,52,52,52,52,52,
52,52,52,52,52,52,52,52,52,52,52,52,52,52,52,52
</chunk>
   <chunk x="32" y="176" width="16" height="16">
53,53,53,53,53,53,53,53,53,53,53,53,52,52,52,52,
53,53,53,53,53,53,53,53,53,53,53,53,52,52,52,52,
53,53,53,53,53,53,53,53,53,53,53,53,52,52,52,52,
53,53,53,53,53,53,53,53,53,53,53,53,52,52,52,52,
53,53,53,53,53,53,53,53,53,53,53,53,52,52,52,52,
53,53,53,53,53,53,53,53,53,53,53,53,52,52,52,52,
53,53,53,53,53,53,53,53,53,53,53,53,52,52,52,52,
53,53,53,53,53,53,53,53,53,53,53,53,52,52,52,52,
53,53,53,53,53,53,53,53,53,53,53,53,52,52,52,52,
53,53,53,53,53,53,53,53,53,53,53,53,52,52,52,52,
53,53,53,53,53,53,53,53,53,53,53,53,52,52,52,52,
53,53,53,53,53,53,53,53,53,53,53,53,52,52,52,52,
52,52,52,52,52,52,52,52,52,52,52,52,52,52,52,52,
52,52,52,52,52,52,52,52,52,52,52,52,52,52,52,52,
52,52,52,52,52,52,52,52,52,52,52,52,52,52,52,52,
52,52,52,52,52,52,52,52,52,52,52,52,52,52,52,52
</chunk>
   <chunk x="48" y="176" width="16" height="16">
52,52,52,52,52,52,52,52,52,53,53,53,53,53,53,53,
52,52,52,52,52,52,52,52,52,53,53,53,53,53,53,53,
52,52,52,52,52,52,52,52,52,53,53,53,53,53,53,53,
52,52,52,52,52,52,52,52,52,53,53,53,53,53,53,53,
52,52,52,52,52,52,52,52,52,53,53,53,53,53,53,53,
52,52,52,52,52,52,52,52,52,53,53,53,53,53,53,53,
52,52,52,52,52,52,52,52,52,53,53,53,53,53,53,53,
52,52,52,52,52,52,52,52,52,53,53,53,53,53,53,53,
52,52,52,52,52,52,52,52,52,53,53,53,53,53,53,53,
52,52,52,52,52,52,52,52,52,53,53,53,53,53,53,53,
52,52,52,52,52,52,52,52,52,52,52,52,52,52,52,52,
52,52,52,52,52,52,52,52,52,52,52,52,52,52,52,52,
52,52,52,52,52,52,52,52,52,52,52,52,52,52,52,52,
52,52,52,52,52,52,52,52,52,52,52,52,52,52,52,52,
52,52,52,52,52,52,52,52,52,52,52,52,52,52,52,52,
52,52,52,52,52,52,52,52,52,52,52,52,52,52,52,52
</chunk>
   <chunk x="64" y="176" width="16" height="16">
53,53,53,53,53,53,53,53,53,53,52,52,52,52,52,52,
53,53,53,53,53,53,53,53,53,53,52,52,52,52,52,52,
53,53,53,53,53,53,53,53,53,53,52,52,52,52,52,52,
53,53,53,53,53,53,53,53,53,53,52,52,52,52,52,52,
53,53,53,53,53,53,53,53,53,53,52,52,52,52,52,52,
53,53,53,53,53,53,53,53,53,53,52,52,52,52,52,52,
53,53,53,53,53,53,53,53,53,53,52,52,52,52,52,52,
53,53,53,53,53,53,53,53,53,53,52,52,52,52,52,52,
53,53,53,53,53,53,53,53,53,53,52,52,52,52,52,52,
53,53,53,53,53,53,53,53,53,53,52,52,52,52,52,52,
52,52,52,52,52,52,52,52,52,52,52,52,52,52,52,52,
52,52,52,52,52,52,52,52,52,52,52,52,52,52,52,52,
52,52,52,52,52,52,52,52,52,52,52,52,52,52,52,52,
52,52,52,52,52,52,52,52,52,52,52,52,52,52,52,52,
52,52,52,52,52,52,52,52,52,52,52,52,52,52,52,52,
52,52,52,52,52,52,52,52,52,52,52,52,52,52,52,52
</chunk>
   <chunk x="80" y="176" width="16" height="16">
52,52,52,52,52,52,52,52,52,52,52,53,53,53,53,53,
52,52,52,52,52,52,52,52,52,52,52,53,53,53,53,53,
52,52,52,52,52,52,52,52,52,52,52,53,53,53,53,53,
52,52,52,52,52,52,52,52,52,52,52,53,53,53,53,53,
52,52,52,52,52,52,52,52,52,52,52,53,53,53,53,53,
52,52,52,52,52,52,52,52,52,52,52,53,53,53,53,53,
52,52,52,52,52,52,52,52,52,52,52,53,53,53,53,53,
52,52,52,52,52,52,52,52,52,52,52,53,53,53,53,53,
52,52,52,52,52,52,52,52,52,52,52,53,53,53,53,53,
52,52,52,52,52,52,52,52,52,52,52,52,52,52,52,52,
52,52,52,52,52,52,52,52,52,52,52,52,52,52,52,52,
52,52,52,52,52,52,52,52,52,52,52,52,52,52,52,52,
52,52,52,52,52,52,52,52,52,52,52,52,52,52,52,52,
52,52,52,52,52,52,52,52,52,52,52,52,52,52,52,52,
52,52,52,52,52,52,52,52,52,52,52,52,52,52,52,52,
52,52,52,52,52,52,52,52,52,52,52,52,52,52,52,52
</chunk>
   <chunk x="96" y="176" width="16" height="16">
53,53,53,53,53,53,53,53,53,53,53,53,53,53,53,53,
53,53,53,53,53,53,53,53,53,53,53,53,53,53,53,53,
53,53,53,53,53,53,53,53,53,53,53,53,53,53,53,53,
53,53,53,53,53,53,53,53,53,53,53,53,53,53,53,53,
53,53,53,53,53,53,53,53,53,53,53,53,53,53,53,53,
53,53,53,53,53,53,53,53,53,53,53,53,53,53,53,53,
53,53,53,53,53,53,53,53,53,53,53,53,53,53,53,53,
53,53,53,53,53,53,53,53,53,53,53,53,53,53,53,53,
53,53,53,53,53,53,53,53,53,53,53,53,53,53,53,53,
52,52,52,52,52,52,52,52,52,52,52,52,52,52,52,52,
52,52,52,52,52,52,52,52,52,52,52,52,52,52,52,52,
52,52,52,52,52,52,52,52,52,52,52,52,52,52,52,52,
52,52,52,52,52,52,52,52,52,52,52,52,52,52,52,52,
52,52,52,52,52,52,52,52,52,52,52,52,52,52,52,52,
52,52,52,52,52,52,52,52,52,52,52,52,52,52,52,52,
52,52,52,52,52,52,52,52,52,52,52,52,52,52,52,52
</chunk>
   <chunk x="112" y="176" width="16" height="16">
53,53,53,53,53,52,52,52,52,52,52,52,52,52,52,52,
53,53,53,53,53,52,52,52,52,52,52,52,52,52,52,52,
53,53,53,53,53,52,52,52,52,52,52,52,52,52,52,52,
53,53,53,53,53,52,52,52,52,52,52,52,52,52,52,52,
53,53,53,53,53,52,52,52,52,52,52,52,52,52,52,52,
53,53,53,53,53,52,52,52,52,52,52,52,52,52,52,52,
53,53,53,53,53,52,52,52,52,52,52,52,52,52,52,52,
53,53,53,53,53,52,52,52,52,52,52,52,52,52,52,52,
53,53,53,53,53,52,52,52,52,52,52,52,52,52,52,52,
52,52,52,52,52,52,52,52,52,52,52,52,52,52,52,52,
52,52,52,52,52,52,52,52,52,52,52,52,52,52,52,52,
52,52,52,52,52,52,52,52,52,52,52,52,52,52,52,52,
52,52,52,52,52,52,52,52,52,52,52,52,52,52,52,52,
52,52,52,52,52,52,52,52,52,52,52,52,52,52,52,52,
52,52,52,52,52,52,52,52,52,52,52,52,52,52,52,52,
52,52,52,52,52,52,52,52,52,52,52,52,52,52,52,52
</chunk>
   <chunk x="128" y="176" width="16" height="16">
53,53,53,53,53,53,53,53,53,53,53,53,53,53,53,53,
53,53,53,53,53,53,53,53,53,53,53,53,53,53,53,53,
53,53,53,53,53,53,53,53,53,53,53,53,53,53,53,53,
53,53,53,53,53,53,53,53,53,53,53,53,53,53,53,53,
53,53,53,53,53,53,53,53,53,53,53,53,53,53,53,53,
53,53,53,53,53,53,53,53,53,53,53,53,53,53,53,53,
53,53,53,53,53,53,53,53,53,53,53,53,53,53,53,53,
53,53,53,53,53,53,53,53,53,53,53,53,53,53,53,53,
52,52,52,52,52,52,52,52,52,52,52,52,52,52,52,52,
52,52,52,52,52,52,52,52,52,52,52,52,52,52,52,52,
52,52,52,52,52,52,52,52,52,52,52,52,52,52,52,52,
52,52,52,52,52,52,52,52,52,52,52,52,52,52,52,52,
52,52,52,52,52,52,52,52,52,52,52,52,52,52,52,52,
52,52,52,52,52,52,52,52,52,52,52,52,52,52,52,52,
52,52,52,52,52,52,52,52,52,52,52,52,52,52,52,52,
52,52,52,52,52,52,52,52,52,52,52,52,52,52,52,52
</chunk>
   <chunk x="144" y="176" width="16" height="16">
53,53,53,53,53,53,53,53,53,53,53,53,53,53,53,52,
53,53,53,53,53,53,53,53,53,53,53,53,53,53,53,52,
53,53,53,53,53,53,53,53,53,53,53,53,53,53,53,52,
53,53,53,53,53,53,53,53,53,53,53,53,53,53,53,52,
53,53,53,53,53,53,53,53,53,53,53,53,53,53,53,52,
53,53,53,53,53,53,53,53,53,53,53,53,53,53,53,52,
53,53,53,53,53,53,53,53,53,53,53,53,53,53,53,52,
53,53,53,53,53,53,53,53,53,53,53,53,53,53,53,52,
52,52,52,52,52,52,52,52,52,52,52,52,52,52,52,52,
52,52,52,52,52,52,52,52,52,52,52,52,52,52,52,52,
52,52,52,52,52,52,52,52,52,52,52,52,52,52,52,52,
52,52,52,52,52,52,52,52,52,52,52,52,52,52,52,52,
52,52,52,52,52,52,52,52,52,52,52,52,52,52,52,52,
52,52,52,52,52,52,52,52,52,52,52,52,52,52,52,52,
52,52,52,52,52,52,52,52,52,52,52,52,52,52,52,52,
52,52,52,52,52,52,52,52,52,52,52,52,52,52,52,52
</chunk>
   <chunk x="160" y="176" width="16" height="16">
52,52,52,52,52,52,52,52,52,52,52,52,52,52,52,52,
52,52,52,52,52,52,52,52,52,52,52,52,52,52,52,52,
52,52,52,52,52,52,52,52,52,52,52,52,52,52,52,52,
52,52,52,52,52,52,52,52,52,52,52,52,52,52,52,52,
52,52,52,52,52,52,52,52,52,52,52,52,52,52,52,52,
52,52,52,52,52,52,52,52,52,52,52,52,52,52,52,52,
52,52,52,52,52,52,52,52,52,52,52,52,52,52,52,52,
52,52,52,52,52,52,52,52,52,52,52,52,52,52,52,52,
52,52,52,52,52,52,52,52,52,52,52,52,52,52,52,52,
52,52,52,52,52,52,52,52,52,52,52,52,52,52,52,52,
52,52,52,52,52,52,52,52,52,52,52,52,52,52,52,52,
52,52,52,52,52,52,52,52,52,52,52,52,52,52,52,52,
52,52,52,52,52,52,52,52,52,52,52,52,52,52,52,52,
52,52,52,52,52,52,52,52,52,52,52,52,52,52,52,52,
52,52,52,52,52,52,52,52,52,52,52,52,52,52,52,52,
52,52,52,52,52,52,52,52,52,52,52,52,52,52,52,52
</chunk>
   <chunk x="176" y="176" width="16" height="16">
52,53,53,53,53,53,53,53,53,53,53,53,53,53,53,53,
52,53,53,53,53,53,53,53,53,53,53,53,53,53,53,53,
52,53,53,53,53,53,53,53,53,53,53,53,53,53,53,53,
52,53,53,53,53,53,53,53,53,53,53,53,53,53,53,53,
52,53,53,53,53,53,53,53,53,53,53,53,53,53,53,53,
52,53,53,53,53,53,53,53,53,53,53,53,53,53,53,53,
52,53,53,53,53,53,53,53,53,53,53,53,53,53,53,53,
52,52,52,52,52,52,52,52,52,52,52,52,52,52,52,52,
52,52,52,52,52,52,52,52,52,52,52,52,52,52,52,52,
52,52,52,52,52,52,52,52,52,52,52,52,52,52,52,52,
52,52,52,52,52,52,52,52,52,52,52,52,52,52,52,52,
52,52,52,52,52,52,52,52,52,52,52,52,52,52,52,52,
52,52,52,52,52,52,52,52,52,52,52,52,52,52,52,52,
52,52,52,52,52,52,52,52,52,52,52,52,52,52,52,52,
52,52,52,52,52,52,52,52,52,52,52,52,52,52,52,52,
52,52,52,52,52,52,52,52,52,52,52,52,52,52,52,52
</chunk>
   <chunk x="192" y="176" width="16" height="16">
53,53,53,53,53,53,53,53,53,53,53,53,53,53,53,53,
53,53,53,53,53,53,53,53,53,53,53,53,53,53,53,53,
53,53,53,53,53,53,53,53,53,53,53,53,53,53,53,53,
53,53,53,53,53,53,53,53,53,53,53,53,53,53,53,53,
53,53,53,53,53,53,53,53,53,53,53,53,53,53,53,53,
53,53,53,53,53,53,53,53,53,53,53,53,53,53,53,53,
53,53,53,53,53,53,53,53,53,53,53,53,53,53,53,53,
52,52,52,52,52,52,52,52,52,52,52,52,52,52,52,52,
52,52,52,52,52,52,52,52,52,52,52,52,52,52,52,52,
52,52,52,52,52,52,52,52,52,52,52,52,52,52,52,52,
52,52,52,52,52,52,52,52,52,52,52,52,52,52,52,52,
52,52,52,52,52,52,52,52,52,52,52,52,52,52,52,52,
52,52,52,52,52,52,52,52,52,52,52,52,52,52,52,52,
52,52,52,52,52,52,52,52,52,52,52,52,52,52,52,52,
52,52,52,52,52,52,52,52,52,52,52,52,52,52,52,52,
52,52,52,52,52,52,52,52,52,52,52,52,52,52,52,52
</chunk>
   <chunk x="208" y="176" width="16" height="16">
53,53,53,53,53,53,53,53,53,53,53,53,53,53,53,53,
53,53,53,53,53,53,53,53,53,53,53,53,53,53,53,53,
53,53,53,53,53,53,53,53,53,53,53,53,53,53,53,53,
53,53,53,53,53,53,53,53,53,53,53,53,53,53,53,53,
53,53,53,53,53,53,53,53,53,53,53,53,53,53,53,53,
53,53,53,53,53,53,53,53,53,53,53,53,53,53,53,53,
53,53,53,53,53,53,53,53,53,53,53,53,53,53,53,53,
52,52,52,52,52,52,52,52,52,52,52,52,52,52,52,52,
52,52,52,52,52,52,52,52,52,52,52,52,52,52,52,52,
52,52,52,52,52,52,52,52,52,52,52,52,52,52,52,52,
52,52,52,52,52,52,52,52,52,52,52,52,52,52,52,52,
52,52,52,52,52,52,52,52,52,52,52,52,52,52,52,52,
52,52,52,52,52,52,52,52,52,52,52,52,52,52,52,52,
52,52,52,52,52,52,52,52,52,52,52,52,52,52,52,52,
52,52,52,52,52,52,52,52,52,52,52,52,52,52,52,52,
52,52,52,52,52,52,52,52,52,52,52,52,52,52,52,52
</chunk>
   <chunk x="224" y="176" width="16" height="16">
53,53,53,53,53,53,53,52,52,52,52,52,52,52,52,52,
53,53,53,53,53,53,53,52,52,52,52,52,52,52,52,52,
53,53,53,53,53,53,53,52,52,52,52,52,52,52,52,52,
53,53,53,53,53,53,53,52,52,52,52,52,52,52,52,52,
53,53,53,53,53,53,53,52,52,52,52,52,52,52,52,52,
53,53,53,53,53,53,53,52,52,52,52,52,52,52,52,52,
53,53,53,53,53,53,53,52,52,52,52,52,52,52,52,52,
52,52,52,52,52,52,52,52,52,52,52,52,52,52,52,52,
52,52,52,52,52,52,52,52,52,52,52,52,52,52,52,52,
52,52,52,52,52,52,52,52,52,52,52,52,52,52,52,52,
52,52,52,52,52,52,52,52,52,52,52,52,52,52,52,52,
52,52,52,52,52,52,52,52,52,52,52,52,52,52,52,52,
52,52,52,52,52,52,52,52,52,52,52,52,52,52,52,52,
52,52,52,52,52,52,52,52,52,52,52,52,52,52,52,52,
52,52,52,52,52,52,52,52,52,52,52,52,52,52,52,52,
52,52,52,52,52,52,52,52,52,52,52,52,52,52,52,52
</chunk>
   <chunk x="240" y="176" width="16" height="16">
52,52,52,52,52,52,52,52,52,52,52,52,52,52,52,52,
52,52,52,52,52,52,52,52,52,52,52,52,52,52,52,52,
52,52,52,52,52,52,52,52,52,52,52,52,52,52,52,52,
52,52,52,52,52,52,52,52,52,52,52,52,52,52,52,52,
52,52,52,52,52,52,52,52,52,52,52,52,52,52,52,52,
52,52,52,52,52,52,52,52,52,52,52,52,52,52,52,52,
52,52,52,52,52,52,52,52,52,52,52,52,52,52,52,52,
52,52,52,52,52,52,52,52,52,52,52,52,52,52,52,52,
52,52,52,52,52,52,52,52,52,52,52,52,52,52,52,52,
52,52,52,52,52,52,52,52,52,52,52,52,52,52,52,52,
52,52,52,52,52,52,52,52,52,52,52,52,52,52,52,52,
52,52,52,52,52,52,52,52,52,52,52,52,52,52,52,52,
52,52,52,52,52,52,52,52,52,52,52,52,52,52,52,52,
52,52,52,52,52,52,52,52,52,52,52,52,52,52,52,52,
52,52,52,52,52,52,52,52,52,52,52,52,52,52,52,52,
52,52,52,52,52,52,52,52,52,52,52,52,52,52,52,52
</chunk>
   <chunk x="256" y="176" width="16" height="16">
52,52,52,52,52,52,52,52,52,52,52,52,52,52,52,52,
52,52,52,52,52,52,52,52,52,52,52,52,52,52,52,52,
52,52,52,52,52,52,52,52,52,52,52,52,52,52,52,52,
52,52,52,52,52,52,52,52,52,52,52,52,52,52,52,52,
52,52,52,52,52,52,52,52,52,52,52,52,52,52,52,52,
52,52,52,52,52,52,52,52,52,52,52,52,52,52,52,52,
52,52,52,52,52,52,52,52,52,52,52,52,52,52,52,52,
52,52,52,52,52,52,52,52,52,52,52,52,52,52,52,52,
52,52,52,52,52,52,52,52,52,52,52,52,52,52,52,52,
52,52,52,52,52,52,52,52,52,52,52,52,52,52,52,52,
52,52,52,52,52,52,52,52,52,52,52,52,52,52,52,52,
52,52,52,52,52,52,52,52,52,52,52,52,52,52,52,52,
52,52,52,52,52,52,52,52,52,52,52,52,52,52,52,52,
52,52,52,52,52,52,52,52,52,52,52,52,52,52,52,52,
52,52,52,52,52,52,52,52,52,52,52,52,52,52,52,52,
52,52,52,52,52,52,52,52,52,52,52,52,52,52,52,52
</chunk>
   <chunk x="272" y="176" width="16" height="16">
52,52,52,52,52,52,52,52,52,52,52,52,52,52,52,52,
52,52,52,52,52,52,52,52,52,52,52,52,52,52,52,52,
52,52,52,52,52,52,52,52,52,52,52,52,52,52,52,52,
52,52,52,52,52,52,52,52,52,52,52,52,52,52,52,52,
52,52,52,52,52,52,52,52,52,52,52,52,52,52,52,52,
52,52,52,52,52,52,52,52,52,52,52,52,52,52,52,52,
52,52,52,52,52,52,52,52,52,52,52,52,52,52,52,52,
52,52,52,52,52,52,52,52,52,52,52,52,52,52,52,52,
52,52,52,52,52,52,52,52,52,52,52,52,52,52,52,52,
52,52,52,52,52,52,52,52,52,52,52,52,52,52,52,52,
52,52,52,52,52,52,52,52,52,52,52,52,52,52,52,52,
52,52,52,52,52,52,52,52,52,52,52,52,52,52,52,52,
52,52,52,52,52,52,52,52,52,52,52,52,52,52,52,52,
52,52,52,52,52,52,52,52,52,52,52,52,52,52,52,52,
52,52,52,52,52,52,52,52,52,52,52,52,52,52,52,52,
52,52,52,52,52,52,52,52,52,52,52,52,52,52,52,52
</chunk>
   <chunk x="288" y="176" width="16" height="16">
52,52,52,52,52,52,52,52,52,52,52,52,52,52,52,52,
52,52,52,52,52,52,52,52,52,52,52,52,52,52,52,52,
52,52,52,52,52,52,52,52,52,52,52,52,52,52,52,52,
52,52,52,52,52,52,52,52,52,52,52,52,52,52,52,52,
52,52,52,52,52,52,52,52,52,52,52,52,52,52,52,52,
52,52,52,52,52,52,52,52,52,52,52,52,52,52,52,52,
52,52,52,52,52,52,52,52,52,52,52,52,52,52,52,52,
52,52,52,52,52,52,52,52,52,52,52,52,52,52,52,52,
52,52,52,52,52,52,52,52,52,52,52,52,52,52,52,52,
52,52,52,52,52,52,52,52,52,52,52,52,52,52,52,52,
52,52,52,52,52,52,52,52,52,52,52,52,52,52,52,52,
52,52,52,52,52,52,52,52,52,52,52,52,52,52,52,52,
52,52,52,52,52,52,52,52,52,52,52,52,52,52,52,52,
52,52,52,52,52,52,52,52,52,52,52,52,52,52,52,52,
52,52,52,52,52,52,52,52,52,52,52,52,52,52,52,52,
52,52,52,52,52,52,52,52,52,52,52,52,52,52,52,52
</chunk>
   <chunk x="304" y="176" width="16" height="16">
52,52,52,52,52,52,52,52,52,52,52,52,52,52,52,52,
52,52,52,52,52,52,52,52,52,52,52,52,52,52,52,52,
52,52,52,52,52,52,52,52,52,52,52,52,52,52,52,52,
52,52,52,52,52,52,52,52,52,52,52,52,52,52,52,52,
52,52,52,52,52,52,52,52,52,52,52,52,52,52,52,52,
52,52,52,52,52,52,52,52,52,52,52,52,52,52,52,52,
52,52,52,52,52,52,52,52,52,52,52,52,52,52,52,52,
52,52,52,52,52,52,52,52,52,52,52,52,52,52,52,52,
52,52,52,52,52,52,52,52,52,52,52,52,52,52,52,52,
52,52,52,52,52,52,52,52,52,52,52,52,52,52,52,52,
52,52,52,52,52,52,52,52,52,52,52,52,52,52,52,52,
52,52,52,52,52,52,52,52,52,52,52,52,52,52,52,52,
52,52,52,52,52,52,52,52,52,52,52,52,52,52,52,52,
52,52,52,52,52,52,52,52,52,52,52,52,52,52,52,52,
52,52,52,52,52,52,52,52,52,52,52,52,52,52,52,52,
52,52,52,52,52,52,52,52,52,52,52,52,52,52,52,52
</chunk>
  </data>
 </layer>
</map>
